;FLAVOR:Marlin
;TIME:4712
;Filament used: 1.76342m
;Layer height: 0.15
;MINX:82.22
;MINY:87.136
;MINZ:0.15
;MAXX:142.78
;MAXY:137.977
;MAXZ:10.05
;TARGET_MACHINE.NAME:ELEGOO NEPTUNE 3 Pro
;Generated with Cura_SteamEngine 5.8.1
M82 ;absolute extrusion mode
;;ELEGOO NEPTUNE 3 Pro
;M220 S100 ;Set the feed speed to 100%
;M221 S100 ;Set the flow rate to 100%
;G90 ;Absolute positioning
;G28 ;home
;;M420 S1 Z10;Uncomment to enable progressive compensation height of 10mm
;G92 E0 ;Reset Extruder
;G1 Z0.45 F300
;G1 X1.5 Y20 F5000.0 ;Move to start position
;G1 Y120.0 F600.0 E15 ;Draw the first line
;G1 X0.5 F1000.0 ;Move to side a little
;G1 Y20 F600 E30 ;Draw the second line
;G92 E0 ;Reset Extruder
;
;Use Klipper START_PRINT gcode macro
START_PRINT BED_TEMP=70 EXTRUDER_TEMP=210
G92 E0
G92 E0
G1 F1500 E-1
;LAYER_COUNT:67
;LAYER:0
M107
M204 S500
G1 F600 Z0.35
G0 F6000 X92.608 Y97.387 Z0.35
;TYPE:SKIRT
G1 F600 Z0.15
G1 F1500 E0
G1 F900 X93.209 Y97.007 E0.02185
G1 X93.89 Y96.855 E0.04329
G1 X94.423 Y96.855 E0.05967
G1 X95.585 Y96.818 E0.0954
G1 X96.639 Y96.723 E0.12792
G1 X97.737 Y96.557 E0.16204
G1 X98.782 Y96.332 E0.19489
G1 X99.859 Y96.031 E0.22926
G1 X100.845 Y95.693 E0.26129
G1 X101.866 Y95.269 E0.29526
G1 X102.835 Y94.797 E0.32839
G1 X103.803 Y94.249 E0.36257
G1 X104.695 Y93.671 E0.39523
G1 X105.597 Y93.007 E0.42965
G1 X106.435 Y92.307 E0.4632
G1 X107.234 Y91.554 E0.49694
G1 X111.113 Y87.676 E0.6655
G1 X111.565 Y87.365 E0.68236
G1 X111.852 Y87.249 E0.69187
G1 X112.262 Y87.155 E0.7048
G1 X112.595 Y87.136 E0.71505
G1 X113.285 Y87.29 E0.73677
G1 X113.881 Y87.668 E0.75846
G1 X117.777 Y91.565 E0.9278
G1 X118.594 Y92.332 E0.96224
G1 X119.422 Y93.021 E0.99534
G1 X120.31 Y93.674 E1.02921
G1 X121.226 Y94.265 E1.06271
G1 X122.155 Y94.791 E1.09552
G1 X123.146 Y95.273 E1.12938
G1 X124.188 Y95.702 E1.16401
G1 X125.164 Y96.04 E1.19575
G1 X126.209 Y96.328 E1.22906
G1 X127.29 Y96.561 E1.26304
G1 X128.36 Y96.722 E1.29629
G1 X129.425 Y96.818 E1.32915
G1 X131.168 Y96.865 E1.38274
G1 X131.777 Y97.014 E1.402
G1 X132.28 Y97.302 E1.41982
G1 X132.529 Y97.524 E1.43007
G1 X132.909 Y98.125 E1.45192
G1 X133.061 Y98.806 E1.47336
G1 X133.061 Y99.401 E1.49164
G1 X133.094 Y100.496 E1.52531
G1 X133.191 Y101.553 E1.55793
G1 X133.361 Y102.665 E1.5925
G1 X133.577 Y103.674 E1.62421
G1 X133.875 Y104.743 E1.65831
G1 X134.228 Y105.772 E1.69174
G1 X134.647 Y106.781 E1.72531
G1 X135.108 Y107.728 E1.75768
G1 X135.669 Y108.725 E1.79283
G1 X136.227 Y109.587 E1.82439
G1 X136.913 Y110.518 E1.85993
G1 X137.609 Y111.35 E1.89326
G1 X138.362 Y112.149 E1.927
G1 X142.24 Y116.028 E2.09556
G1 X142.551 Y116.48 E2.11242
G1 X142.667 Y116.767 E2.12193
G1 X142.761 Y117.177 E2.13486
G1 X142.78 Y117.51 E2.14511
G1 X142.626 Y118.2 E2.16683
G1 X142.248 Y118.796 E2.18852
G1 X138.351 Y122.693 E2.35788
G1 X137.571 Y123.522 E2.39286
G1 X136.9 Y124.329 E2.42511
G1 X136.237 Y125.23 E2.45949
G1 X135.662 Y126.122 E2.4921
G1 X135.113 Y127.095 E2.52643
G1 X134.654 Y128.04 E2.55872
G1 X134.222 Y129.085 E2.59346
G1 X133.878 Y130.08 E2.62582
G1 X133.585 Y131.133 E2.6594
G1 X133.359 Y132.187 E2.69253
G1 X133.194 Y133.276 E2.72638
G1 X133.095 Y134.344 E2.75934
G1 X133.051 Y136.083 E2.81279
G1 X132.902 Y136.693 E2.83209
G1 X132.614 Y137.196 E2.8499
G1 X132.392 Y137.445 E2.86015
G1 X131.791 Y137.825 E2.88201
G1 X131.11 Y137.977 E2.90345
G1 X93.95 Y137.977 E4.04538
G1 X93.475 Y137.908 E4.06013
G1 X93.079 Y137.758 E4.07314
G1 X92.72 Y137.533 E4.08616
G1 X92.469 Y137.307 E4.09654
G1 X92.091 Y136.708 E4.11831
G1 X91.939 Y136.027 E4.13975
G1 X91.939 Y135.464 E4.15705
G1 X91.904 Y134.324 E4.1921
G1 X91.806 Y133.262 E4.22488
G1 X91.639 Y132.167 E4.25891
G1 X91.414 Y131.119 E4.29185
G1 X91.117 Y130.059 E4.32568
G1 X90.775 Y129.066 E4.35796
G1 X90.353 Y128.049 E4.39179
G1 X89.88 Y127.078 E4.42498
G1 X89.34 Y126.122 E4.45872
G1 X88.751 Y125.213 E4.49201
G1 X88.099 Y124.326 E4.52584
G1 X87.392 Y123.482 E4.55967
G1 X86.638 Y122.682 E4.59345
G1 X82.76 Y118.803 E4.76201
G1 X82.449 Y118.351 E4.77887
G1 X82.333 Y118.064 E4.78838
G1 X82.239 Y117.654 E4.80131
G1 X82.22 Y117.321 E4.81156
G1 X82.374 Y116.631 E4.83329
G1 X82.752 Y116.035 E4.85497
G1 X86.649 Y112.138 E5.02433
G1 X87.429 Y111.309 E5.05931
G1 X88.109 Y110.491 E5.092
G1 X88.758 Y109.609 E5.12565
G1 X89.345 Y108.698 E5.15896
G1 X89.899 Y107.716 E5.1936
G1 X90.355 Y106.773 E5.22579
G1 X90.79 Y105.717 E5.26089
G1 X91.122 Y104.754 E5.29219
G1 X91.413 Y103.702 E5.32573
G1 X91.645 Y102.629 E5.35947
G1 X91.806 Y101.558 E5.39275
G1 X91.905 Y100.48 E5.42602
G1 X91.949 Y98.749 E5.47923
G1 X92.098 Y98.139 E5.49853
G1 X92.386 Y97.636 E5.51634
G1 X92.608 Y97.387 E5.52659
G0 F6000 X93.003 Y97.764
G1 F900 X93.419 Y97.52 E5.54141
G1 X93.951 Y97.401 E5.55816
G1 X94.44 Y97.401 E5.57319
G1 X95.617 Y97.364 E5.60938
G1 X96.704 Y97.266 E5.64291
G1 X97.836 Y97.094 E5.6781
G1 X98.911 Y96.863 E5.71189
G1 X100.011 Y96.556 E5.74698
G1 X101.04 Y96.203 E5.78041
G1 X102.097 Y95.764 E5.81559
G1 X103.087 Y95.282 E5.84942
G1 X104.086 Y94.716 E5.88471
G1 X105.013 Y94.115 E5.91866
G1 X105.928 Y93.442 E5.95356
G1 X106.791 Y92.721 E5.98812
G1 X107.62 Y91.94 E6.02312
G1 X111.465 Y88.096 E6.1902
G1 X111.786 Y87.864 E6.20237
G1 X111.974 Y87.781 E6.20869
G1 X112.384 Y87.687 E6.22161
G1 X112.607 Y87.682 E6.22847
G1 X113.074 Y87.803 E6.24329
G1 X113.537 Y88.096 E6.26013
G1 X117.403 Y91.963 E6.42816
G1 X118.231 Y92.741 E6.46308
G1 X119.09 Y93.455 E6.4974
G1 X119.996 Y94.122 E6.53198
G1 X120.939 Y94.73 E6.56646
G1 X121.904 Y95.276 E6.60053
G1 X122.926 Y95.773 E6.63545
G1 X123.995 Y96.213 E6.67098
G1 X124.994 Y96.559 E6.70346
G1 X126.089 Y96.861 E6.73837
G1 X127.189 Y97.098 E6.77295
G1 X128.297 Y97.265 E6.80738
G1 X129.393 Y97.364 E6.8412
G1 X131.153 Y97.411 E6.8953
G1 X131.635 Y97.541 E6.91065
G1 X131.99 Y97.764 E6.92353
G1 X132.152 Y97.919 E6.93042
G1 X132.396 Y98.335 E6.94524
G1 X132.515 Y98.867 E6.96199
G1 X132.515 Y99.401 E6.9784
G1 X132.549 Y100.53 E7.01311
G1 X132.649 Y101.62 E7.04675
G1 X132.823 Y102.758 E7.08212
G1 X133.047 Y103.806 E7.11506
G1 X133.352 Y104.901 E7.14999
G1 X133.718 Y105.967 E7.18462
G1 X134.152 Y107.012 E7.2194
G1 X134.625 Y107.984 E7.25261
G1 X135.194 Y108.994 E7.28824
G1 X135.787 Y109.911 E7.3218
G1 X136.479 Y110.85 E7.35764
G1 X137.195 Y111.706 E7.39194
G1 X137.976 Y112.535 E7.42694
G1 X141.82 Y116.38 E7.59401
G1 X142.052 Y116.701 E7.60619
G1 X142.135 Y116.889 E7.6125
G1 X142.229 Y117.299 E7.62543
G1 X142.234 Y117.522 E7.63228
G1 X142.113 Y117.989 E7.64711
G1 X141.82 Y118.452 E7.66394
G1 X137.953 Y122.319 E7.832
G1 X137.163 Y123.159 E7.86744
G1 X136.466 Y123.997 E7.90093
G1 X135.789 Y124.917 E7.93603
G1 X135.193 Y125.841 E7.96982
G1 X134.63 Y126.839 E8.00503
G1 X134.155 Y127.817 E8.03845
G1 X133.709 Y128.897 E8.07435
G1 X133.355 Y129.922 E8.10768
G1 X133.054 Y131.005 E8.14222
G1 X132.82 Y132.097 E8.17654
G1 X132.651 Y133.212 E8.21119
G1 X132.55 Y134.31 E8.24508
G1 X132.505 Y136.069 E8.29915
G1 X132.375 Y136.551 E8.31449
G1 X132.152 Y136.906 E8.32737
G1 X131.997 Y137.068 E8.33426
G1 X131.581 Y137.312 E8.34908
G1 X131.049 Y137.431 E8.36584
G1 X93.95 Y137.431 E9.5059
G1 X93.561 Y137.369 E9.518
G1 X93.369 Y137.295 E9.52432
G1 X93.01 Y137.07 E9.53734
G1 X92.848 Y136.914 E9.54426
G1 X92.604 Y136.498 E9.55908
G1 X92.485 Y135.966 E9.57583
G1 X92.485 Y135.447 E9.59178
G1 X92.45 Y134.294 E9.62723
G1 X92.349 Y133.198 E9.66105
G1 X92.177 Y132.073 E9.69602
G1 X91.945 Y130.991 E9.73003
G1 X91.64 Y129.902 E9.76478
G1 X91.287 Y128.876 E9.79812
G1 X90.848 Y127.818 E9.83332
G1 X90.367 Y126.83 E9.86709
G1 X89.807 Y125.839 E9.90207
G1 X89.203 Y124.907 E9.9362
G1 X88.529 Y123.989 E9.9712
G1 X87.805 Y123.125 E10.00584
G1 X87.024 Y122.296 E10.04084
G1 X83.18 Y118.451 E10.20792
G1 X82.948 Y118.13 E10.22009
G1 X82.865 Y117.942 E10.2264
G1 X82.771 Y117.532 E10.23933
G1 X82.766 Y117.309 E10.24618
G1 X82.887 Y116.842 E10.26101
G1 X83.18 Y116.379 E10.27785
G1 X87.047 Y112.512 E10.4459
G1 X87.837 Y111.672 E10.48134
G1 X88.537 Y110.831 E10.51496
G1 X89.211 Y109.914 E10.54994
G1 X89.814 Y108.979 E10.58413
G1 X90.375 Y107.984 E10.61923
G1 X90.853 Y106.997 E10.65293
G1 X91.299 Y105.915 E10.68889
G1 X91.642 Y104.921 E10.7212
G1 X91.945 Y103.827 E10.75609
G1 X92.182 Y102.73 E10.79058
G1 X92.349 Y101.619 E10.8251
G1 X92.451 Y100.514 E10.8592
G1 X92.495 Y98.763 E10.91303
G1 X92.625 Y98.281 E10.92837
G1 X92.848 Y97.926 E10.94125
G1 X93.003 Y97.764 E10.94814
G1 F1500 E9.94814
G1 F600 Z0.35
G0 F6000 X93.728 Y98.567 Z0.35
G1 F600 Z0.15
G1 F1500 E10.94814
G1 F900 X93.618 Y98.698 E10.9534
G1 X93.578 Y98.865 E10.95868
G1 X93.577 Y99.386 E10.97469
G1 X93.541 Y100.586 E11.01158
G1 X93.435 Y101.747 E11.04741
G1 X93.256 Y102.928 E11.08411
G1 X93.009 Y104.077 E11.12023
G1 X92.685 Y105.246 E11.15751
G1 X92.317 Y106.311 E11.19213
G1 X91.857 Y107.428 E11.22926
G1 X91.327 Y108.52 E11.26656
G1 X90.747 Y109.549 E11.30286
G1 X90.117 Y110.524 E11.33853
G1 X89.397 Y111.504 E11.3759
G1 X88.643 Y112.409 E11.4121
G1 X87.843 Y113.26 E11.44799
G1 X83.952 Y117.151 E11.61709
G1 X83.847 Y117.362 E11.62433
G1 X83.862 Y117.533 E11.62961
G1 X83.952 Y117.679 E11.63488
G1 X87.807 Y121.535 E11.80243
G1 X88.626 Y122.404 E11.83913
G1 X89.389 Y123.316 E11.87567
G1 X90.103 Y124.287 E11.91271
G1 X90.741 Y125.273 E11.9488
G1 X91.337 Y126.328 E11.98603
G1 X91.842 Y127.366 E12.0215
G1 X92.309 Y128.488 E12.05885
G1 X92.686 Y129.588 E12.09458
G1 X93.009 Y130.743 E12.13144
G1 X93.253 Y131.887 E12.16739
G1 X93.435 Y133.076 E12.20435
G1 X93.541 Y134.232 E12.24002
G1 X93.577 Y135.43 E12.27685
G1 X93.577 Y135.966 E12.29333
G1 X93.651 Y136.189 E12.30055
G1 X93.783 Y136.3 E12.30585
G1 X93.95 Y136.339 E12.31112
G1 X131.049 Y136.339 E13.45117
G1 X131.272 Y136.265 E13.4584
G1 X131.382 Y136.134 E13.46365
G1 X131.422 Y135.967 E13.46893
G1 X131.423 Y135.445 E13.48497
G1 X131.459 Y134.244 E13.52189
G1 X131.565 Y133.084 E13.55769
G1 X131.744 Y131.903 E13.5944
G1 X131.991 Y130.752 E13.63057
G1 X132.311 Y129.598 E13.66737
G1 X132.691 Y128.499 E13.70311
G1 X133.157 Y127.371 E13.74061
G1 X133.664 Y126.327 E13.77628
G1 X134.255 Y125.279 E13.81325
G1 X134.883 Y124.307 E13.84881
G1 X135.603 Y123.327 E13.88618
G1 X136.357 Y122.422 E13.92238
G1 X137.157 Y121.571 E13.95827
G1 X141.048 Y117.68 E14.12737
G1 X141.153 Y117.469 E14.13461
G1 X141.138 Y117.298 E14.13989
G1 X141.048 Y117.152 E14.14516
G1 X137.193 Y113.296 E14.31272
G1 X136.374 Y112.427 E14.34941
G1 X135.61 Y111.513 E14.38602
G1 X134.896 Y110.543 E14.42303
G1 X134.255 Y109.552 E14.4593
G1 X133.663 Y108.503 E14.49632
G1 X133.158 Y107.464 E14.53182
G1 X132.69 Y106.341 E14.5692
G1 X132.314 Y105.243 E14.60487
G1 X131.989 Y104.079 E14.64201
G1 X131.747 Y102.944 E14.67767
G1 X131.565 Y101.754 E14.71466
G1 X131.459 Y100.598 E14.75034
G1 X131.423 Y99.401 E14.78714
G1 X131.423 Y98.867 E14.80355
G1 X131.349 Y98.644 E14.81077
G1 X131.218 Y98.534 E14.81602
G1 X131.051 Y98.494 E14.8213
G1 X130.53 Y98.493 E14.83731
G1 X129.329 Y98.456 E14.87424
G1 X128.169 Y98.351 E14.91003
G1 X126.988 Y98.172 E14.94674
G1 X125.849 Y97.927 E14.98254
G1 X124.659 Y97.598 E15.02048
G1 X123.603 Y97.233 E15.05481
G1 X122.482 Y96.771 E15.09207
G1 X121.402 Y96.246 E15.12898
G1 X120.365 Y95.66 E15.16558
G1 X119.39 Y95.031 E15.20123
G1 X118.41 Y94.311 E15.2386
G1 X117.505 Y93.558 E15.27478
G1 X116.655 Y92.759 E15.31063
G1 X112.765 Y88.868 E15.47971
G1 X112.554 Y88.763 E15.48695
G1 X112.383 Y88.778 E15.49223
G1 X112.237 Y88.868 E15.4975
G1 X108.381 Y92.723 E15.66505
G1 X107.512 Y93.542 E15.70175
G1 X106.6 Y94.304 E15.73827
G1 X105.633 Y95.015 E15.77515
G1 X104.652 Y95.65 E15.81107
G1 X103.589 Y96.252 E15.84861
G1 X102.549 Y96.758 E15.88415
G1 X101.428 Y97.225 E15.92147
G1 X100.33 Y97.601 E15.95713
G1 X99.173 Y97.924 E15.99405
G1 X98.028 Y98.169 E16.03003
G1 X96.838 Y98.351 E16.06702
G1 X95.681 Y98.456 E16.10272
G1 X94.474 Y98.493 E16.13983
G1 X93.951 Y98.493 E16.1559
G1 X93.728 Y98.567 E16.16312
G0 F6000 X93.556 Y98.049
G1 F900 X93.951 Y97.947 E16.17566
G1 X94.457 Y97.947 E16.19121
G1 X95.649 Y97.91 E16.22786
G1 X96.77 Y97.809 E16.26245
G1 X97.935 Y97.631 E16.29866
G1 X99.04 Y97.394 E16.33339
G1 X100.163 Y97.081 E16.36922
G1 X101.241 Y96.711 E16.40424
G1 X102.323 Y96.261 E16.44025
G1 X103.338 Y95.767 E16.47494
G1 X104.369 Y95.183 E16.51135
G1 X105.323 Y94.565 E16.54628
G1 X106.267 Y93.871 E16.58229
G1 X107.156 Y93.128 E16.61789
G1 X107.995 Y92.337 E16.65333
G1 X111.851 Y88.482 E16.82088
G1 X112.096 Y88.313 E16.83003
G1 X112.506 Y88.219 E16.84296
G1 X112.797 Y88.274 E16.85206
G1 X113.151 Y88.482 E16.86467
G1 X117.029 Y92.361 E17.03323
G1 X117.868 Y93.15 E17.06862
G1 X118.75 Y93.883 E17.10387
G1 X119.691 Y94.575 E17.13976
G1 X120.652 Y95.195 E17.1749
G1 X121.653 Y95.761 E17.21024
G1 X122.704 Y96.272 E17.24615
G1 X123.802 Y96.724 E17.28264
G1 X124.824 Y97.078 E17.31588
G1 X125.969 Y97.394 E17.35238
G1 X127.087 Y97.635 E17.38753
G1 X128.234 Y97.808 E17.42317
G1 X129.361 Y97.91 E17.45795
G1 X130.547 Y97.947 E17.49441
G1 X131.052 Y97.948 E17.50993
G1 X131.345 Y98.003 E17.51909
G1 X131.7 Y98.226 E17.53197
G1 X131.867 Y98.472 E17.54111
G1 X131.969 Y98.867 E17.55365
G1 X131.969 Y99.401 E17.57006
G1 X132.004 Y100.564 E17.60581
G1 X132.107 Y101.687 E17.64047
G1 X132.285 Y102.851 E17.67665
G1 X132.519 Y103.947 E17.71109
G1 X132.832 Y105.068 E17.74686
G1 X133.204 Y106.154 E17.78214
G1 X133.655 Y107.238 E17.81822
G1 X134.146 Y108.247 E17.8527
G1 X134.726 Y109.275 E17.88897
G1 X135.34 Y110.225 E17.92373
G1 X136.044 Y111.181 E17.96022
G1 X136.788 Y112.071 E17.99586
G1 X137.579 Y112.91 E18.0313
G1 X141.434 Y116.766 E18.19885
G1 X141.603 Y117.011 E18.208
G1 X141.697 Y117.421 E18.22093
G1 X141.642 Y117.712 E18.23003
G1 X141.434 Y118.066 E18.24264
G1 X137.555 Y121.945 E18.41122
G1 X136.755 Y122.796 E18.44711
G1 X136.038 Y123.657 E18.48155
G1 X135.336 Y124.612 E18.51797
G1 X134.724 Y125.56 E18.55264
G1 X134.147 Y126.583 E18.58874
G1 X133.656 Y127.594 E18.62328
G1 X133.2 Y128.698 E18.65998
G1 X132.833 Y129.76 E18.69451
G1 X132.523 Y130.877 E18.73013
G1 X132.282 Y132.001 E18.76546
G1 X132.108 Y133.148 E18.80111
G1 X132.004 Y134.278 E18.83598
G1 X131.969 Y135.461 E18.87235
G1 X131.968 Y135.968 E18.88793
G1 X131.913 Y136.261 E18.89709
G1 X131.69 Y136.616 E18.90998
G1 X131.444 Y136.783 E18.91911
G1 X131.049 Y136.885 E18.93165
G1 X93.95 Y136.885 E20.07171
G1 X93.659 Y136.832 E20.0808
G1 X93.3 Y136.607 E20.09382
G1 X93.133 Y136.361 E20.10296
G1 X93.031 Y135.966 E20.11549
G1 X93.031 Y135.43 E20.13196
G1 X92.995 Y134.26 E20.16793
G1 X92.893 Y133.143 E20.2024
G1 X92.715 Y131.98 E20.23856
G1 X92.477 Y130.867 E20.27353
G1 X92.166 Y129.755 E20.30902
G1 X91.795 Y128.675 E20.34411
G1 X91.345 Y127.592 E20.38015
G1 X90.852 Y126.579 E20.41477
G1 X90.274 Y125.556 E20.45088
G1 X89.653 Y124.597 E20.48599
G1 X88.957 Y123.65 E20.5221
G1 X88.212 Y122.76 E20.55777
G1 X87.421 Y121.921 E20.5932
G1 X83.566 Y118.065 E20.76076
G1 X83.397 Y117.82 E20.76991
G1 X83.303 Y117.41 E20.78283
G1 X83.358 Y117.119 E20.79193
G1 X83.566 Y116.765 E20.80455
G1 X87.445 Y112.886 E20.97313
G1 X88.245 Y112.035 E21.00902
G1 X88.962 Y111.174 E21.04345
G1 X89.664 Y110.219 E21.07988
G1 X90.278 Y109.268 E21.11466
G1 X90.851 Y108.252 E21.15051
G1 X91.355 Y107.212 E21.18602
G1 X91.808 Y106.113 E21.22255
G1 X92.163 Y105.085 E21.25597
G1 X92.477 Y103.952 E21.2921
G1 X92.719 Y102.829 E21.3274
G1 X92.892 Y101.683 E21.36302
G1 X92.996 Y100.548 E21.39805
G1 X93.031 Y99.37 E21.43426
G1 X93.032 Y98.864 E21.44981
G1 X93.087 Y98.571 E21.45897
G1 X93.31 Y98.216 E21.47186
G1 X93.556 Y98.049 E21.48099
G1 F1500 E20.48099
G1 F600 Z0.35
;MESH:Octahedroflake Base v2.stl
G0 F6000 X130.237 Y135.145 Z0.35
;TYPE:WALL-INNER
G1 F600 Z0.15
G1 F1500 E21.48099
G1 F900 X130.268 Y134.165 E21.51112
G1 X130.386 Y132.891 E21.55044
G1 X130.566 Y131.719 E21.58688
G1 X130.842 Y130.429 E21.62742
G1 X131.181 Y129.214 E21.66618
G1 X131.587 Y128.034 E21.70453
G1 X132.068 Y126.876 E21.74306
G1 X132.63 Y125.729 E21.78231
G1 X133.235 Y124.66 E21.82006
G1 X133.901 Y123.626 E21.85786
G1 X134.67 Y122.579 E21.89778
G1 X135.467 Y121.626 E21.93595
G1 X136.24 Y120.805 E21.97061
G1 X139.622 Y117.417 E22.11772
G1 X136.327 Y114.118 E22.261
