;FLAVOR:Marlin
;TIME:502
;Filament used: 0.183452m
;Layer height: 0.15
;MINX:53.789
;MINY:84.397
;MINZ:0.15
;MAXX:171.154
;MAXY:140.936
;MAXZ:0.5
;TARGET_MACHINE.NAME:ELEGOO NEPTUNE 3 Pro
;Generated with Cura_SteamEngine 5.8.1
M82 ;absolute extrusion mode
;;ELEGOO NEPTUNE 3 Pro
;M220 S100 ;Set the feed speed to 100%
;M221 S100 ;Set the flow rate to 100%
;G90 ;Absolute positioning
;G28 ;home
;;M420 S1 Z10;Uncomment to enable progressive compensation height of 10mm
;G92 E0 ;Reset Extruder
;G1 Z0.45 F300
;G1 X1.5 Y20 F5000.0 ;Move to start position
;G1 Y120.0 F600.0 E15 ;Draw the first line
;G1 X0.5 F1000.0 ;Move to side a little
;G1 Y20 F600 E30 ;Draw the second line
;G92 E0 ;Reset Extruder
;
;Use Klipper START_PRINT gcode macro
START_PRINT BED_TEMP=70 EXTRUDER_TEMP=210
G92 E0
G92 E0
G1 F1500 E-1
;LAYER_COUNT:2
;LAYER:0
M107
M204 S500
G1 F600 Z0.35
G0 F6000 X65.8 Y89.23 Z0.35
;TYPE:SKIRT
G1 F600 Z0.15
G1 F1500 E0
G1 F900 X66.384 Y88.897 E0.02066
G1 X67.057 Y88.773 E0.04169
G1 X83.816 Y88.773 E0.5567
G1 X84.291 Y88.842 E0.57145
G1 X84.687 Y88.992 E0.58446
G1 X85.046 Y89.217 E0.59748
G1 X85.288 Y89.432 E0.60743
G1 X85.656 Y89.988 E0.62792
G1 X85.823 Y90.643 E0.64869
G1 X85.905 Y91.8 E0.68433
G1 X86.108 Y92.808 E0.71593
G1 X86.431 Y93.765 E0.74697
G1 X86.884 Y94.686 E0.77851
G1 X87.455 Y95.551 E0.81036
G1 X88.119 Y96.318 E0.84154
G1 X88.97 Y97.081 E0.87666
G1 X90.486 Y98.402 E0.93845
G1 X91.881 Y99.867 E1.00062
G1 X93.045 Y101.334 E1.05816
G1 X94.234 Y103.158 E1.12507
G1 X95.151 Y104.909 E1.18581
G1 X95.937 Y106.831 E1.24963
G1 X96.403 Y108.366 E1.29892
G1 X96.403 Y91.433 E1.81928
G1 X96.472 Y90.958 E1.83403
G1 X96.622 Y90.562 E1.84704
G1 X96.847 Y90.203 E1.86006
G1 X97.073 Y89.952 E1.87044
G1 X97.672 Y89.574 E1.8922
G1 X98.353 Y89.422 E1.91365
G1 X158.96 Y89.422 E3.77611
G1 X159.435 Y89.491 E3.79086
G1 X159.831 Y89.641 E3.80387
G1 X160.19 Y89.866 E3.81689
G1 X160.441 Y90.092 E3.82727
G1 X160.777 Y90.625 E3.84664
G1 X160.908 Y91.09 E3.86148
G1 X160.908 Y86.408 E4.00536
G1 X160.977 Y85.933 E4.02011
G1 X161.127 Y85.537 E4.03312
G1 X161.352 Y85.178 E4.04614
G1 X161.578 Y84.927 E4.05652
G1 X162.177 Y84.549 E4.07829
G1 X162.858 Y84.397 E4.09973
G1 X169.143 Y84.397 E4.29287
G1 X169.618 Y84.466 E4.30762
G1 X170.014 Y84.616 E4.32063
G1 X170.373 Y84.841 E4.33365
G1 X170.624 Y85.067 E4.34403
G1 X171.002 Y85.666 E4.3658
G1 X171.154 Y86.347 E4.38724
G1 X171.154 Y138.925 E6.00297
G1 X171.085 Y139.4 E6.01772
G1 X170.852 Y139.985 E6.03707
G1 X170.39 Y140.482 E6.05792
G1 X170.063 Y140.712 E6.07021
G1 X169.303 Y140.936 E6.09456
G1 X162.919 Y140.936 E6.29074
G1 X162.444 Y140.867 E6.30549
G1 X162.048 Y140.717 E6.3185
G1 X161.689 Y140.492 E6.33152
G1 X161.438 Y140.266 E6.3419
G1 X161.06 Y139.667 E6.36367
G1 X160.908 Y138.986 E6.38511
G1 X160.908 Y127.138 E6.7492
G1 X160.672 Y127.759 E6.76962
G1 X160.207 Y128.258 E6.79058
G1 X159.88 Y128.488 E6.80286
G1 X159.12 Y128.712 E6.82721
G1 X98.414 Y128.712 E8.69272
G1 X97.939 Y128.643 E8.70747
G1 X97.543 Y128.493 E8.72048
G1 X97.184 Y128.268 E8.7335
G1 X96.933 Y128.042 E8.74388
G1 X96.555 Y127.443 E8.76564
G1 X96.403 Y126.762 E8.78709
G1 X96.403 Y119.764 E9.00214
G1 X96.146 Y120.712 E9.03232
G1 X95.419 Y122.654 E9.09604
G1 X94.582 Y124.387 E9.15518
G1 X93.501 Y126.177 E9.21944
G1 X92.272 Y127.833 E9.28282
G1 X91.023 Y129.228 E9.34036
G1 X89.424 Y130.711 E9.40737
G1 X87.858 Y131.908 E9.46795
G1 X86.263 Y132.916 E9.52593
G1 X84.286 Y133.915 E9.594
G1 X82.399 Y134.652 E9.65625
G1 X80.602 Y135.171 E9.71373
G1 X78.461 Y135.578 E9.7807
G1 X76.596 Y135.755 E9.83827
G1 X74.453 Y135.759 E9.90413
G1 X72.453 Y135.571 E9.96586
G1 X70.409 Y135.183 E10.02979
G1 X68.564 Y134.651 E10.0888
G1 X66.614 Y133.887 E10.15316
G1 X64.774 Y132.956 E10.21653
G1 X63.104 Y131.905 E10.27716
G1 X61.459 Y130.642 E10.3409
G1 X60.047 Y129.335 E10.40002
G1 X58.726 Y127.871 E10.46062
G1 X57.425 Y126.119 E10.52768
G1 X56.455 Y124.52 E10.58515
G1 X55.519 Y122.59 E10.65107
G1 X54.817 Y120.708 E10.71279
G1 X54.286 Y118.74 E10.77543
G1 X53.959 Y116.86 E10.83407
G1 X53.789 Y114.686 E10.90109
G1 X53.827 Y112.662 E10.96329
G1 X54.048 Y110.684 E11.02446
G1 X54.444 Y108.763 E11.08473
G1 X55.065 Y106.73 E11.15006
G1 X55.817 Y104.904 E11.21074
G1 X56.766 Y103.098 E11.27344
G1 X57.893 Y101.37 E11.33683
G1 X59.119 Y99.826 E11.39742
G1 X60.555 Y98.329 E11.46117
G1 X61.929 Y97.132 E11.51716
G1 X62.781 Y96.364 E11.55241
G1 X63.442 Y95.591 E11.58367
G1 X64.009 Y94.723 E11.61553
G1 X64.455 Y93.804 E11.64692
G1 X64.775 Y92.841 E11.6781
G1 X64.975 Y91.817 E11.71017
G1 X65.05 Y90.655 E11.74595
G1 X65.221 Y90.013 E11.76637
G1 X65.55 Y89.488 E11.7854
G1 X65.8 Y89.23 E11.79644
G0 F6000 X66.172 Y89.63
G1 F900 X66.573 Y89.417 E11.8104
G1 X67.057 Y89.319 E11.82557
G1 X83.816 Y89.319 E12.34058
G1 X84.205 Y89.381 E12.35269
G1 X84.397 Y89.455 E12.35901
G1 X84.756 Y89.68 E12.37203
G1 X84.912 Y89.828 E12.37864
G1 X85.149 Y90.212 E12.3925
G1 X85.278 Y90.682 E12.40748
G1 X85.362 Y91.869 E12.44405
G1 X85.58 Y92.95 E12.47794
G1 X85.926 Y93.975 E12.51118
G1 X86.41 Y94.96 E12.54491
G1 X87.017 Y95.879 E12.57875
G1 X87.729 Y96.702 E12.61219
G1 X88.612 Y97.493 E12.64862
G1 X90.091 Y98.779 E12.70885
G1 X91.453 Y100.206 E12.76947
G1 X92.617 Y101.673 E12.82702
G1 X93.75 Y103.411 E12.89078
G1 X94.667 Y105.162 E12.95152
G1 X95.415 Y106.99 E13.01221
G1 X95.988 Y108.877 E13.07282
G1 X96.386 Y110.814 E13.13358
G1 X96.598 Y112.773 E13.19414
G1 X96.631 Y114.646 E13.2517
G1 X96.473 Y116.718 E13.31556
G1 X96.135 Y118.666 E13.37632
G1 X95.619 Y120.569 E13.43691
G1 X94.927 Y122.417 E13.49755
G1 X94.09 Y124.15 E13.55669
G1 X93.062 Y125.852 E13.61779
G1 X91.865 Y127.469 E13.67962
G1 X90.616 Y128.864 E13.73716
G1 X89.092 Y130.277 E13.80102
G1 X87.526 Y131.474 E13.86159
G1 X85.972 Y132.454 E13.91805
G1 X84.087 Y133.407 E13.98296
G1 X82.247 Y134.127 E14.04368
G1 X80.45 Y134.646 E14.10116
G1 X78.409 Y135.034 E14.165
G1 X76.544 Y135.211 E14.22257
G1 X74.504 Y135.215 E14.28526
G1 X72.504 Y135.027 E14.34699
G1 X70.56 Y134.658 E14.4078
G1 X68.715 Y134.126 E14.46681
G1 X66.86 Y133.4 E14.52802
G1 X65.064 Y132.494 E14.58984
G1 X63.436 Y131.472 E14.64891
G1 X61.83 Y130.241 E14.71109
G1 X60.418 Y128.934 E14.77022
G1 X59.132 Y127.506 E14.82927
G1 X57.892 Y125.836 E14.89319
G1 X56.922 Y124.237 E14.95066
G1 X56.031 Y122.399 E15.01343
G1 X55.329 Y120.517 E15.07516
G1 X54.824 Y118.646 E15.13471
G1 X54.497 Y116.766 E15.19335
G1 X54.335 Y114.696 E15.25716
G1 X54.37 Y112.722 E15.31783
G1 X54.583 Y110.794 E15.37744
G1 X54.979 Y108.873 E15.43771
G1 X55.57 Y106.938 E15.49988
G1 X56.322 Y105.112 E15.56057
G1 X57.224 Y103.396 E15.62014
G1 X58.321 Y101.71 E15.68196
G1 X59.547 Y100.166 E15.74254
G1 X60.914 Y98.741 E15.80322
G1 X62.288 Y97.544 E15.85922
G1 X63.17 Y96.749 E15.89571
G1 X63.88 Y95.919 E15.92928
G1 X64.483 Y94.996 E15.96316
G1 X64.962 Y94.009 E15.99687
G1 X65.305 Y92.977 E16.03029
G1 X65.518 Y91.888 E16.06439
G1 X65.595 Y90.69 E16.10128
G1 X65.684 Y90.303 E16.11348
G1 X66.013 Y89.778 E16.13252
G1 X66.172 Y89.63 E16.1392
G1 F1500 E15.1392
G1 F600 Z0.35
G0 F6000 X66.853 Y90.472 Z0.35
G1 F600 Z0.15
G1 F1500 E16.1392
G1 F900 X67.057 Y90.411 E16.14574
G1 X83.816 Y90.411 E16.66075
G1 X83.983 Y90.45 E16.66602
G1 X84.115 Y90.561 E16.67132
G1 X84.188 Y90.758 E16.67778
G1 X84.276 Y92.008 E16.71628
G1 X84.524 Y93.234 E16.75472
G1 X84.915 Y94.392 E16.79228
G1 X85.461 Y95.505 E16.83038
G1 X86.145 Y96.539 E16.86848
G1 X86.949 Y97.47 E16.90628
G1 X87.891 Y98.313 E16.94512
G1 X89.302 Y99.534 E17.00247
G1 X90.597 Y100.884 E17.05995
G1 X91.761 Y102.351 E17.1175
G1 X92.784 Y103.92 E17.17506
G1 X93.657 Y105.577 E17.23261
G1 X94.371 Y107.309 E17.29018
G1 X94.918 Y109.099 E17.3477
G1 X95.3 Y110.933 E17.40527
G1 X95.506 Y112.793 E17.46278
G1 X95.539 Y114.666 E17.52034
G1 X95.397 Y116.533 E17.57788
G1 X95.081 Y118.382 E17.63553
G1 X94.596 Y120.188 E17.69299
G1 X93.943 Y121.943 E17.75054
G1 X93.13 Y123.631 E17.80811
G1 X92.183 Y125.204 E17.86453
G1 X91.051 Y126.741 E17.92319
G1 X89.802 Y128.136 E17.98074
G1 X88.428 Y129.411 E18.03834
G1 X86.944 Y130.55 E18.09582
G1 X85.39 Y131.53 E18.15228
G1 X83.688 Y132.391 E18.2109
G1 X81.943 Y133.077 E18.26852
G1 X80.146 Y133.596 E18.32599
G1 X78.305 Y133.946 E18.38358
G1 X76.44 Y134.123 E18.44115
G1 X74.604 Y134.127 E18.49757
G1 X72.705 Y133.953 E18.55617
G1 X70.862 Y133.608 E18.61379
G1 X69.064 Y133.092 E18.67128
G1 X67.35 Y132.424 E18.72781
G1 X65.644 Y131.568 E18.78646
G1 X64.058 Y130.575 E18.84396
G1 X62.571 Y129.439 E18.90147
G1 X61.195 Y128.168 E18.95903
G1 X59.944 Y126.776 E19.01654
G1 X58.826 Y125.27 E19.07418
G1 X57.856 Y123.671 E19.13165
G1 X57.053 Y122.016 E19.18818
G1 X56.383 Y120.23 E19.2468
G1 X55.9 Y118.458 E19.30324
G1 X55.573 Y116.578 E19.36188
G1 X55.427 Y114.713 E19.41937
G1 X55.456 Y112.84 E19.47693
G1 X55.653 Y111.013 E19.5334
G1 X56.036 Y109.142 E19.59209
G1 X56.58 Y107.352 E19.64958
G1 X57.29 Y105.618 E19.70716
G1 X58.14 Y103.99 E19.7636
G1 X59.177 Y102.388 E19.82225
G1 X60.337 Y100.92 E19.87974
G1 X61.63 Y99.565 E19.9373
G1 X63.012 Y98.362 E19.9936
G1 X63.952 Y97.514 E20.03251
G1 X64.756 Y96.575 E20.07049
G1 X65.431 Y95.542 E20.10841
G1 X65.976 Y94.419 E20.14677
G1 X66.365 Y93.249 E20.18466
G1 X66.604 Y92.03 E20.22284
G1 X66.685 Y90.76 E20.26194
G1 X66.735 Y90.596 E20.26721
G1 X66.853 Y90.472 E20.27247
G0 F6000 X66.697 Y89.949
G1 F900 X67.057 Y89.865 E20.28383
G1 X83.816 Y89.865 E20.79884
G1 X84.107 Y89.918 E20.80793
G1 X84.466 Y90.143 E20.82095
G1 X84.627 Y90.371 E20.82953
G1 X84.733 Y90.72 E20.84073
G1 X84.819 Y91.938 E20.87826
G1 X85.052 Y93.092 E20.91444
G1 X85.421 Y94.185 E20.94989
G1 X85.936 Y95.234 E20.9858
G1 X86.579 Y96.207 E21.02164
G1 X87.339 Y97.086 E21.05734
G1 X88.248 Y97.9 E21.09484
G1 X89.696 Y99.156 E21.15375
G1 X91.025 Y100.545 E21.21282
G1 X92.189 Y102.012 E21.27037
G1 X93.267 Y103.665 E21.33101
G1 X94.162 Y105.369 E21.39016
G1 X94.893 Y107.149 E21.44929
G1 X95.453 Y108.988 E21.50837
G1 X95.843 Y110.873 E21.56752
G1 X96.052 Y112.783 E21.62657
G1 X96.085 Y114.656 E21.68413
G1 X95.935 Y116.625 E21.74482
G1 X95.608 Y118.524 E21.80403
G1 X95.108 Y120.378 E21.86304
G1 X94.435 Y122.18 E21.92215
G1 X93.598 Y123.913 E21.9813
G1 X92.623 Y125.528 E22.03927
G1 X91.458 Y127.105 E22.09952
G1 X90.209 Y128.5 E22.15706
G1 X88.76 Y129.844 E22.21779
G1 X87.235 Y131.012 E22.27682
G1 X85.681 Y131.992 E22.33328
G1 X83.888 Y132.899 E22.39503
G1 X82.095 Y133.602 E22.45421
G1 X80.298 Y134.121 E22.51169
G1 X78.357 Y134.49 E22.57241
G1 X76.492 Y134.667 E22.62997
G1 X74.554 Y134.671 E22.68953
G1 X72.605 Y134.49 E22.74968
G1 X70.711 Y134.133 E22.80891
G1 X68.866 Y133.601 E22.86792
G1 X67.105 Y132.912 E22.92603
G1 X65.354 Y132.031 E22.98626
G1 X63.768 Y131.038 E23.04376
G1 X62.201 Y129.84 E23.10438
G1 X60.789 Y128.533 E23.16351
G1 X59.538 Y127.141 E23.22102
G1 X58.359 Y125.553 E23.2818
G1 X57.389 Y123.954 E23.33927
G1 X56.542 Y122.208 E23.3989
G1 X55.856 Y120.374 E23.45908
G1 X55.362 Y118.552 E23.51709
G1 X55.035 Y116.672 E23.57573
G1 X54.881 Y114.705 E23.63636
G1 X54.913 Y112.781 E23.69549
G1 X55.118 Y110.904 E23.75352
G1 X55.514 Y108.983 E23.81379
G1 X56.075 Y107.145 E23.87285
G1 X56.806 Y105.365 E23.93198
G1 X57.682 Y103.693 E23.98998
G1 X58.749 Y102.049 E24.05021
G1 X59.942 Y100.543 E24.10925
G1 X61.272 Y99.153 E24.16837
G1 X62.654 Y97.95 E24.22468
G1 X63.559 Y97.134 E24.26212
G1 X64.318 Y96.247 E24.298
G1 X64.957 Y95.269 E24.3339
G1 X65.469 Y94.214 E24.36994
G1 X65.835 Y93.113 E24.40559
G1 X66.061 Y91.959 E24.44173
G1 X66.14 Y90.725 E24.47972
G1 X66.213 Y90.437 E24.48885
G1 X66.457 Y90.096 E24.50174
G1 X66.697 Y89.949 E24.51039
G1 F1500 E23.51039
G1 F600 Z0.35
G0 F6000 X96.949 Y91.433 Z0.35
G1 F600 Z0.15
G1 F1500 E24.51039
G1 F900 X97.011 Y91.044 E24.52249
G1 X97.085 Y90.852 E24.52882
G1 X97.31 Y90.493 E24.54184
G1 X97.466 Y90.331 E24.54875
G1 X97.882 Y90.087 E24.56357
G1 X98.414 Y89.968 E24.58032
G1 X158.96 Y89.968 E26.44091
G1 X159.349 Y90.03 E26.45302
G1 X159.541 Y90.104 E26.45934
G1 X159.9 Y90.329 E26.47236
G1 X160.062 Y90.485 E26.47927
G1 X160.306 Y90.901 E26.49409
G1 X160.425 Y91.433 E26.51084
G1 X160.425 Y126.701 E27.59463
G1 X160.363 Y127.09 E27.60674
G1 X160.2 Y127.464 E27.61928
G1 X159.807 Y127.886 E27.637
G1 X159.643 Y127.988 E27.64293
G1 X159.04 Y128.166 E27.66225
G1 X98.414 Y128.166 E29.5253
G1 X98.025 Y128.104 E29.53741
G1 X97.833 Y128.03 E29.54373
G1 X97.474 Y127.805 E29.55675
G1 X97.312 Y127.649 E29.56366
G1 X97.068 Y127.233 E29.57848
G1 X96.949 Y126.701 E29.59523
G1 X96.949 Y91.433 E30.67903
G1 F1500 E29.67903
G1 F600 Z0.35
G0 F6000 X98.041 Y91.433 Z0.35
G1 F600 Z0.15
G1 F1500 E30.67903
G1 F900 X98.08 Y91.266 E30.6843
G1 X98.191 Y91.134 E30.6896
G1 X98.414 Y91.06 E30.69682
G1 X158.96 Y91.06 E32.55741
G1 X159.127 Y91.099 E32.56268
G1 X159.259 Y91.21 E32.56798
G1 X159.333 Y91.433 E32.5752
G1 X159.333 Y126.701 E33.65899
G1 X159.294 Y126.868 E33.66426
G1 X159.183 Y127 E33.66956
G1 X158.96 Y127.074 E33.67678
G1 X98.414 Y127.074 E35.53737
G1 X98.247 Y127.035 E35.54264
G1 X98.115 Y126.924 E35.54794
G1 X98.041 Y126.701 E35.55516
G1 X98.041 Y91.433 E36.63895
G0 F6000 X97.495 Y91.433
G1 F900 X97.548 Y91.142 E36.64804
G1 X97.773 Y90.783 E36.66106
G1 X98.019 Y90.616 E36.6702
G1 X98.414 Y90.514 E36.68273
G1 X158.96 Y90.514 E38.54332
G1 X159.251 Y90.567 E38.55241
G1 X159.61 Y90.792 E38.56543
G1 X159.777 Y91.038 E38.57457
G1 X159.879 Y91.433 E38.58711
G1 X159.879 Y126.701 E39.6709
G1 X159.826 Y126.992 E39.67999
G1 X159.712 Y127.219 E39.68779
G1 X159.439 Y127.482 E39.69944
G1 X158.96 Y127.62 E39.71476
G1 X98.414 Y127.62 E41.57535
G1 X98.123 Y127.567 E41.58444
G1 X97.764 Y127.342 E41.59746
G1 X97.597 Y127.096 E41.6066
G1 X97.495 Y126.701 E41.61913
G1 X97.495 Y91.433 E42.70293
G1 F1500 E41.70293
G1 F600 Z0.35
G0 F6000 X161.454 Y86.408 Z0.35
G1 F600 Z0.15
G1 F1500 E42.70293
G1 F900 X161.516 Y86.019 E42.71503
G1 X161.59 Y85.827 E42.72135
G1 X161.815 Y85.468 E42.73437
G1 X161.971 Y85.306 E42.74128
G1 X162.387 Y85.062 E42.75611
G1 X162.919 Y84.943 E42.77286
G1 X169.143 Y84.943 E42.96412
G1 X169.532 Y85.005 E42.97623
G1 X169.724 Y85.079 E42.98255
G1 X170.083 Y85.304 E42.99557
G1 X170.245 Y85.46 E43.00248
G1 X170.489 Y85.876 E43.0173
G1 X170.608 Y86.408 E43.03405
G1 X170.608 Y138.925 E44.64791
G1 X170.546 Y139.314 E44.66002
G1 X170.383 Y139.688 E44.67255
G1 X169.99 Y140.11 E44.69027
G1 X169.826 Y140.212 E44.69621
G1 X169.223 Y140.39 E44.71553
G1 X162.919 Y140.39 E44.90925
G1 X162.53 Y140.328 E44.92136
G1 X162.338 Y140.254 E44.92768
G1 X161.979 Y140.029 E44.9407
G1 X161.817 Y139.873 E44.94761
G1 X161.573 Y139.457 E44.96243
G1 X161.454 Y138.925 E44.97919
G1 X161.454 Y86.408 E46.59304
G1 F1500 E45.59304
G1 F600 Z0.35
G0 F6000 X162.546 Y86.408 Z0.35
G1 F600 Z0.15
G1 F1500 E46.59304
G1 F900 X162.585 Y86.241 E46.59831
G1 X162.696 Y86.109 E46.60361
G1 X162.919 Y86.035 E46.61083
G1 X169.143 Y86.035 E46.8021
G1 X169.31 Y86.074 E46.80737
G1 X169.442 Y86.185 E46.81267
G1 X169.516 Y86.408 E46.81989
G1 X169.516 Y138.925 E48.43374
G1 X169.477 Y139.092 E48.43901
G1 X169.366 Y139.224 E48.44431
G1 X169.143 Y139.298 E48.45153
G1 X162.919 Y139.298 E48.6428
G1 X162.752 Y139.259 E48.64807
G1 X162.62 Y139.148 E48.65337
G1 X162.546 Y138.925 E48.66059
G1 X162.546 Y86.408 E50.27445
G0 F6000 X162 Y86.408
G1 F900 X162.053 Y86.117 E50.28354
G1 X162.278 Y85.758 E50.29656
G1 X162.524 Y85.591 E50.30569
G1 X162.919 Y85.489 E50.31823
G1 X169.143 Y85.489 E50.50949
G1 X169.434 Y85.542 E50.51858
G1 X169.793 Y85.767 E50.5316
G1 X169.96 Y86.013 E50.54074
G1 X170.062 Y86.408 E50.55328
G1 X170.062 Y138.925 E52.16713
G1 X170.009 Y139.216 E52.17622
G1 X169.895 Y139.443 E52.18403
G1 X169.622 Y139.706 E52.19568
G1 X169.143 Y139.844 E52.211
G1 X162.919 Y139.844 E52.40226
G1 X162.628 Y139.791 E52.41135
G1 X162.269 Y139.566 E52.42437
G1 X162.102 Y139.32 E52.43351
G1 X162 Y138.925 E52.44605
G1 X162 Y86.408 E54.0599
G1 F1500 E53.0599
G1 F600 Z0.35
;MESH:M5 Multitronic Unit round display trim.stl
G0 F6000 X86.043 Y98.398 Z0.35
;TYPE:WALL-INNER
G1 F600 Z0.15
G1 F1500 E54.0599
G1 F733.4 X85.989 Y98.302 E54.06406
G1 F744.5 X85.572 Y97.756 E54.08958
G1 F841.4 X85.155 Y97.21 E54.11216
