;FLAVOR:Marlin
;TIME:7519
;Filament used: 2.57773m
;Layer height: 0.15
;MINX:69.579
;MINY:84.239
;MINZ:0.15
;MAXX:156.346
;MAXY:140.761
;MAXZ:3.2
;TARGET_MACHINE.NAME:ELEGOO NEPTUNE 3 Pro
;Generated with Cura_SteamEngine 5.8.1
M82 ;absolute extrusion mode
;;ELEGOO NEPTUNE 3 Pro
;M220 S100 ;Set the feed speed to 100%
;M221 S100 ;Set the flow rate to 100%
;G90 ;Absolute positioning
;G28 ;home
;;M420 S1 Z10;Uncomment to enable progressive compensation height of 10mm
;G92 E0 ;Reset Extruder
;G1 Z0.45 F300
;G1 X1.5 Y20 F5000.0 ;Move to start position
;G1 Y120.0 F600.0 E15 ;Draw the first line
;G1 X0.5 F1000.0 ;Move to side a little
;G1 Y20 F600 E30 ;Draw the second line
;G92 E0 ;Reset Extruder
;
;Use Klipper START_PRINT gcode macro
START_PRINT BED_TEMP=70 EXTRUDER_TEMP=210
G92 E0
G92 E0
G1 F1500 E-1
;LAYER_COUNT:20
;LAYER:0
M107
M204 S500
G1 F600 Z0.35
G0 F6000 X70.249 Y87.115 Z0.35
;TYPE:SKIRT
G1 F600 Z0.15
G1 F1500 E0
G1 F900 X70.848 Y86.737 E0.02177
G1 X71.529 Y86.585 E0.04321
G1 X83.186 Y86.585 E0.40143
G1 X86.101 Y84.564 E0.51043
G1 X86.759 Y84.291 E0.53232
G1 X87.102 Y84.239 E0.54298
G1 X94.335 Y84.239 E0.76526
G1 X94.81 Y84.308 E0.78001
G1 X95.206 Y84.458 E0.79302
G1 X95.565 Y84.683 E0.80604
G1 X95.816 Y84.909 E0.81642
G1 X96.194 Y85.508 E0.83818
G1 X96.346 Y86.189 E0.85963
G1 X96.346 Y108.75 E1.55293
G1 X96.277 Y109.225 E1.56768
G1 X96.127 Y109.621 E1.58069
G1 X95.902 Y109.98 E1.59371
G1 X95.676 Y110.231 E1.60409
G1 X95.077 Y110.609 E1.62586
G1 X94.396 Y110.761 E1.6473
G1 X87.143 Y110.761 E1.87019
G1 X86.454 Y110.614 E1.89184
G1 X86.137 Y110.461 E1.90265
G1 X83.186 Y108.415 E2.013
G1 X71.59 Y108.415 E2.36935
G1 X71.115 Y108.346 E2.3841
G1 X70.719 Y108.196 E2.39711
G1 X70.36 Y107.971 E2.41013
G1 X70.109 Y107.745 E2.42051
G1 X69.731 Y107.146 E2.44228
G1 X69.579 Y106.465 E2.46372
G1 X69.579 Y88.596 E3.01284
G1 X69.648 Y88.121 E3.02759
G1 X69.798 Y87.725 E3.0406
G1 X70.023 Y87.366 E3.05362
G1 X70.249 Y87.115 E3.064
G0 F6000 X70.642 Y87.494
G1 F900 X71.058 Y87.25 E3.07882
G1 X71.59 Y87.131 E3.09557
G1 X83.357 Y87.131 E3.45717
G1 X86.366 Y85.045 E3.56969
G1 X86.906 Y84.821 E3.58765
G1 X87.102 Y84.785 E3.59378
G1 X94.335 Y84.785 E3.81605
G1 X94.724 Y84.847 E3.82815
G1 X94.916 Y84.921 E3.83448
G1 X95.275 Y85.146 E3.8475
G1 X95.437 Y85.302 E3.85441
G1 X95.681 Y85.718 E3.86923
G1 X95.8 Y86.25 E3.88598
G1 X95.8 Y108.75 E4.57741
G1 X95.738 Y109.139 E4.58951
G1 X95.664 Y109.331 E4.59584
G1 X95.439 Y109.69 E4.60886
G1 X95.283 Y109.852 E4.61577
G1 X94.867 Y110.096 E4.63059
G1 X94.335 Y110.215 E4.64734
G1 X87.201 Y110.215 E4.86657
G1 X86.632 Y110.094 E4.88445
G1 X86.448 Y110.012 E4.89064
G1 X83.357 Y107.869 E5.00622
G1 X71.59 Y107.869 E5.36782
G1 X71.201 Y107.807 E5.37993
G1 X71.009 Y107.733 E5.38625
G1 X70.65 Y107.508 E5.39927
G1 X70.488 Y107.352 E5.40618
G1 X70.244 Y106.936 E5.421
G1 X70.125 Y106.404 E5.43775
G1 X70.125 Y88.596 E5.985
G1 X70.187 Y88.207 E5.9971
G1 X70.261 Y88.015 E6.00343
G1 X70.486 Y87.656 E6.01645
G1 X70.642 Y87.494 E6.02336
G1 F1500 E5.02336
G1 F600 Z0.35
G0 F6000 X71.367 Y88.297 Z0.35
G1 F600 Z0.15
G1 F1500 E6.02336
G1 F900 X71.59 Y88.223 E6.03058
G1 X83.699 Y88.223 E6.40269
G1 X86.988 Y85.943 E6.52567
G1 X87.201 Y85.877 E6.53252
G1 X94.335 Y85.877 E6.75175
G1 X94.502 Y85.916 E6.75702
G1 X94.634 Y86.027 E6.76232
G1 X94.708 Y86.25 E6.76954
G1 X94.708 Y108.75 E7.46097
G1 X94.669 Y108.917 E7.46624
G1 X94.558 Y109.049 E7.47154
G1 X94.335 Y109.123 E7.47876
G1 X87.201 Y109.123 E7.69799
G1 X86.988 Y109.057 E7.70484
G1 X83.699 Y106.777 E7.82783
G1 X71.59 Y106.777 E8.19994
G1 X71.423 Y106.738 E8.20521
G1 X71.291 Y106.627 E8.21051
G1 X71.217 Y106.404 E8.21773
G1 X71.217 Y88.596 E8.76497
G1 X71.256 Y88.429 E8.77024
G1 X71.367 Y88.297 E8.77554
G0 F6000 X71.195 Y87.779
G1 F900 X71.59 Y87.677 E8.78808
G1 X83.528 Y87.677 E9.15493
G1 X86.677 Y85.494 E9.27268
G1 X87.102 Y85.331 E9.28667
G1 X94.335 Y85.331 E9.50894
G1 X94.626 Y85.384 E9.51803
G1 X94.985 Y85.609 E9.53105
G1 X95.152 Y85.855 E9.54019
G1 X95.254 Y86.25 E9.55272
G1 X95.254 Y108.75 E10.24415
G1 X95.201 Y109.041 E10.25324
G1 X94.976 Y109.4 E10.26626
G1 X94.73 Y109.567 E10.2754
G1 X94.335 Y109.669 E10.28794
G1 X87.201 Y109.669 E10.50717
G1 X86.759 Y109.563 E10.52113
G1 X83.528 Y107.323 E10.64195
G1 X71.59 Y107.323 E11.00881
G1 X71.299 Y107.27 E11.0179
G1 X70.94 Y107.045 E11.03092
G1 X70.773 Y106.799 E11.04005
G1 X70.671 Y106.404 E11.05259
G1 X70.671 Y88.596 E11.59983
G1 X70.724 Y88.305 E11.60892
G1 X70.949 Y87.946 E11.62194
G1 X71.195 Y87.779 E11.63108
G1 F1500 E10.63108
G1 F600 Z0.35
G0 F6000 X71.529 Y116.585 Z0.35
G1 F600 Z0.15
G1 F1500 E11.63108
G1 F900 X83.186 Y116.585 E11.9893
G1 X86.101 Y114.564 E12.0983
G1 X86.759 Y114.291 E12.12019
G1 X87.102 Y114.239 E12.13086
G1 X94.335 Y114.239 E12.35313
G1 X94.81 Y114.308 E12.36788
G1 X95.206 Y114.458 E12.38089
G1 X95.565 Y114.683 E12.39391
G1 X95.816 Y114.909 E12.40429
G1 X96.194 Y115.508 E12.42606
G1 X96.346 Y116.189 E12.4475
G1 X96.346 Y138.75 E13.1408
G1 X96.277 Y139.225 E13.15555
G1 X96.044 Y139.81 E13.1749
G1 X95.582 Y140.307 E13.19575
G1 X95.255 Y140.537 E13.20804
G1 X94.495 Y140.761 E13.23239
G1 X87.143 Y140.761 E13.45832
G1 X86.454 Y140.614 E13.47997
G1 X86.137 Y140.461 E13.49078
G1 X83.186 Y138.415 E13.60113
G1 X71.59 Y138.415 E13.95748
G1 X71.115 Y138.346 E13.97223
G1 X70.719 Y138.196 E13.98524
G1 X70.36 Y137.971 E13.99826
G1 X70.109 Y137.745 E14.00864
G1 X69.731 Y137.146 E14.03041
G1 X69.579 Y136.465 E14.05185
G1 X69.579 Y118.596 E14.60097
G1 X69.648 Y118.121 E14.61572
G1 X69.798 Y117.725 E14.62873
G1 X70.023 Y117.366 E14.64175
G1 X70.249 Y117.115 E14.65213
G1 X70.848 Y116.737 E14.67389
G1 X71.529 Y116.585 E14.69534
G0 F6000 X71.59 Y117.131
G1 F900 X83.357 Y117.131 E15.05694
G1 X86.366 Y115.045 E15.16945
G1 X86.906 Y114.821 E15.18742
G1 X87.102 Y114.785 E15.19354
G1 X94.335 Y114.785 E15.41581
G1 X94.724 Y114.847 E15.42792
G1 X94.916 Y114.921 E15.43424
G1 X95.275 Y115.146 E15.44726
G1 X95.437 Y115.302 E15.45417
G1 X95.681 Y115.718 E15.46899
G1 X95.8 Y116.25 E15.48575
G1 X95.8 Y138.75 E16.17717
G1 X95.738 Y139.139 E16.18928
G1 X95.575 Y139.513 E16.20182
G1 X95.182 Y139.935 E16.21954
G1 X95.018 Y140.037 E16.22547
G1 X94.415 Y140.215 E16.24479
G1 X87.201 Y140.215 E16.46648
G1 X86.632 Y140.094 E16.48436
G1 X86.448 Y140.012 E16.49055
G1 X83.357 Y137.869 E16.60613
G1 X71.59 Y137.869 E16.96773
G1 X71.201 Y137.807 E16.97984
G1 X71.009 Y137.733 E16.98616
G1 X70.65 Y137.508 E16.99918
G1 X70.488 Y137.352 E17.00609
G1 X70.244 Y136.936 E17.02091
G1 X70.125 Y136.404 E17.03766
G1 X70.125 Y118.596 E17.58491
G1 X70.187 Y118.207 E17.59701
G1 X70.261 Y118.015 E17.60334
G1 X70.486 Y117.656 E17.61636
G1 X70.642 Y117.494 E17.62327
G1 X71.058 Y117.25 E17.63809
G1 X71.59 Y117.131 E17.65484
G1 F1500 E16.65484
G1 F600 Z0.35
G0 F6000 X71.59 Y118.223 Z0.35
G1 F600 Z0.15
G1 F1500 E17.65484
G1 F900 X83.699 Y118.223 E18.02695
G1 X86.988 Y115.943 E18.14993
G1 X87.201 Y115.877 E18.15679
G1 X94.335 Y115.877 E18.37602
G1 X94.502 Y115.916 E18.38129
G1 X94.634 Y116.027 E18.38659
G1 X94.708 Y116.25 E18.39381
G1 X94.708 Y138.75 E19.08523
G1 X94.669 Y138.917 E19.0905
G1 X94.558 Y139.049 E19.0958
G1 X94.335 Y139.123 E19.10303
G1 X87.201 Y139.123 E19.32225
G1 X86.988 Y139.057 E19.32911
G1 X83.699 Y136.777 E19.45209
G1 X71.59 Y136.777 E19.8242
G1 X71.423 Y136.738 E19.82947
G1 X71.291 Y136.627 E19.83477
G1 X71.217 Y136.404 E19.84199
G1 X71.217 Y118.596 E20.38923
G1 X71.256 Y118.429 E20.3945
G1 X71.367 Y118.297 E20.3998
G1 X71.59 Y118.223 E20.40702
G0 F6000 X71.59 Y117.677
G1 F900 X83.528 Y117.677 E20.77388
G1 X86.677 Y115.494 E20.89163
G1 X87.102 Y115.331 E20.90562
G1 X94.335 Y115.331 E21.12789
G1 X94.626 Y115.384 E21.13698
G1 X94.985 Y115.609 E21.15
G1 X95.152 Y115.855 E21.15913
G1 X95.254 Y116.25 E21.17167
G1 X95.254 Y138.75 E21.8631
G1 X95.201 Y139.041 E21.87219
G1 X95.087 Y139.268 E21.88
G1 X94.814 Y139.531 E21.89164
G1 X94.335 Y139.669 E21.90696
G1 X87.201 Y139.669 E22.12619
G1 X86.759 Y139.563 E22.14016
G1 X83.528 Y137.323 E22.26098
G1 X71.59 Y137.323 E22.62783
G1 X71.299 Y137.27 E22.63692
G1 X70.94 Y137.045 E22.64994
G1 X70.773 Y136.799 E22.65908
G1 X70.671 Y136.404 E22.67162
G1 X70.671 Y118.596 E23.21886
G1 X70.724 Y118.305 E23.22795
G1 X70.949 Y117.946 E23.24097
G1 X71.195 Y117.779 E23.25011
G1 X71.59 Y117.677 E23.26264
G1 F1500 E22.26264
G1 F600 Z0.35
G0 F6000 X99.579 Y118.596 Z0.35
G1 F600 Z0.15
G1 F1500 E23.26264
G1 F900 X99.648 Y118.121 E23.27739
G1 X99.798 Y117.725 E23.29041
G1 X100.023 Y117.366 E23.30343
G1 X100.249 Y117.115 E23.31381
G1 X100.848 Y116.737 E23.33557
G1 X101.529 Y116.585 E23.35701
G1 X113.186 Y116.585 E23.71524
G1 X116.101 Y114.564 E23.82424
G1 X116.759 Y114.291 E23.84613
G1 X117.102 Y114.239 E23.85679
G1 X124.335 Y114.239 E24.07906
G1 X124.81 Y114.308 E24.09381
G1 X125.206 Y114.458 E24.10682
G1 X125.565 Y114.683 E24.11984
G1 X125.816 Y114.909 E24.13022
G1 X126.194 Y115.508 E24.15199
G1 X126.346 Y116.189 E24.17343
G1 X126.346 Y138.75 E24.86673
G1 X126.277 Y139.225 E24.88149
G1 X126.127 Y139.621 E24.8945
G1 X125.902 Y139.98 E24.90752
G1 X125.676 Y140.231 E24.9179
G1 X125.077 Y140.609 E24.93966
G1 X124.396 Y140.761 E24.96111
G1 X117.143 Y140.761 E25.18399
G1 X116.454 Y140.614 E25.20564
G1 X116.137 Y140.461 E25.21646
G1 X113.186 Y138.415 E25.32681
G1 X101.59 Y138.415 E25.68315
G1 X101.115 Y138.346 E25.6979
G1 X100.719 Y138.196 E25.71092
G1 X100.36 Y137.971 E25.72394
G1 X100.109 Y137.745 E25.73432
G1 X99.731 Y137.146 E25.75608
G1 X99.579 Y136.465 E25.77752
G1 X99.579 Y118.596 E26.32664
G0 F6000 X100.125 Y118.596
G1 F900 X100.187 Y118.207 E26.33875
G1 X100.261 Y118.015 E26.34507
G1 X100.486 Y117.656 E26.35809
G1 X100.642 Y117.494 E26.365
G1 X101.058 Y117.25 E26.37982
G1 X101.59 Y117.131 E26.39657
G1 X113.357 Y117.131 E26.75818
G1 X116.366 Y115.045 E26.87069
G1 X116.906 Y114.821 E26.88866
G1 X117.102 Y114.785 E26.89478
G1 X124.335 Y114.785 E27.11705
G1 X124.724 Y114.847 E27.12916
G1 X124.916 Y114.921 E27.13548
G1 X125.275 Y115.146 E27.1485
G1 X125.437 Y115.302 E27.15541
G1 X125.681 Y115.718 E27.17023
G1 X125.8 Y116.25 E27.18698
G1 X125.8 Y138.75 E27.87841
G1 X125.738 Y139.139 E27.89052
G1 X125.664 Y139.331 E27.89684
G1 X125.439 Y139.69 E27.90986
G1 X125.283 Y139.852 E27.91677
G1 X124.867 Y140.096 E27.93159
G1 X124.335 Y140.215 E27.94834
G1 X117.201 Y140.215 E28.16757
G1 X116.632 Y140.094 E28.18545
G1 X116.448 Y140.012 E28.19164
G1 X113.357 Y137.869 E28.30722
G1 X101.59 Y137.869 E28.66882
G1 X101.201 Y137.807 E28.68093
G1 X101.009 Y137.733 E28.68725
G1 X100.65 Y137.508 E28.70027
G1 X100.488 Y137.352 E28.70718
G1 X100.244 Y136.936 E28.722
G1 X100.125 Y136.404 E28.73876
G1 X100.125 Y118.596 E29.286
G1 F1500 E28.286
G1 F600 Z0.35
G0 F6000 X101.217 Y118.596 Z0.35
G1 F600 Z0.15
G1 F1500 E29.286
G1 F900 X101.256 Y118.429 E29.29127
G1 X101.367 Y118.297 E29.29657
G1 X101.59 Y118.223 E29.30379
G1 X113.699 Y118.223 E29.6759
G1 X116.988 Y115.943 E29.79888
G1 X117.201 Y115.877 E29.80574
G1 X124.335 Y115.877 E30.02497
G1 X124.502 Y115.916 E30.03024
G1 X124.634 Y116.027 E30.03554
G1 X124.708 Y116.25 E30.04276
G1 X124.708 Y138.75 E30.73418
G1 X124.669 Y138.917 E30.73945
G1 X124.558 Y139.049 E30.74475
G1 X124.335 Y139.123 E30.75198
G1 X117.201 Y139.123 E30.9712
G1 X116.988 Y139.057 E30.97806
G1 X113.699 Y136.777 E31.10104
G1 X101.59 Y136.777 E31.47315
G1 X101.423 Y136.738 E31.47842
G1 X101.291 Y136.627 E31.48372
G1 X101.217 Y136.404 E31.49094
G1 X101.217 Y118.596 E32.03818
G0 F6000 X100.671 Y118.596
G1 F900 X100.724 Y118.305 E32.04727
G1 X100.949 Y117.946 E32.06029
G1 X101.195 Y117.779 E32.06943
G1 X101.59 Y117.677 E32.08197
G1 X113.528 Y117.677 E32.44882
G1 X116.677 Y115.494 E32.56657
G1 X117.102 Y115.331 E32.58056
G1 X124.335 Y115.331 E32.80283
G1 X124.626 Y115.384 E32.81192
G1 X124.985 Y115.609 E32.82494
G1 X125.152 Y115.855 E32.83408
G1 X125.254 Y116.25 E32.84661
G1 X125.254 Y138.75 E33.53804
G1 X125.201 Y139.041 E33.54713
G1 X124.976 Y139.4 E33.56015
G1 X124.73 Y139.567 E33.56929
G1 X124.335 Y139.669 E33.58183
G1 X117.201 Y139.669 E33.80106
G1 X116.759 Y139.563 E33.81502
G1 X113.528 Y137.323 E33.93584
G1 X101.59 Y137.323 E34.3027
G1 X101.299 Y137.27 E34.31179
G1 X100.94 Y137.045 E34.32481
G1 X100.773 Y136.799 E34.33394
G1 X100.671 Y136.404 E34.34648
G1 X100.671 Y118.596 E34.89372
G1 F1500 E33.89372
G1 F600 Z0.35
G0 F6000 X101.59 Y108.415 Z0.35
G1 F600 Z0.15
G1 F1500 E34.89372
G1 F900 X101.115 Y108.346 E34.90847
G1 X100.719 Y108.196 E34.92149
G1 X100.36 Y107.971 E34.93451
G1 X100.109 Y107.745 E34.94488
G1 X99.731 Y107.146 E34.96665
G1 X99.579 Y106.465 E34.98809
G1 X99.579 Y88.596 E35.53721
G1 X99.648 Y88.121 E35.55196
G1 X99.798 Y87.725 E35.56497
G1 X100.023 Y87.366 E35.57799
G1 X100.249 Y87.115 E35.58837
G1 X100.848 Y86.737 E35.61014
G1 X101.529 Y86.585 E35.63158
G1 X113.186 Y86.585 E35.9898
G1 X116.101 Y84.564 E36.0988
G1 X116.759 Y84.291 E36.1207
G1 X117.102 Y84.239 E36.13136
G1 X124.335 Y84.239 E36.35363
G1 X124.81 Y84.308 E36.36838
G1 X125.206 Y84.458 E36.38139
G1 X125.565 Y84.683 E36.39441
G1 X125.816 Y84.909 E36.40479
G1 X126.194 Y85.508 E36.42656
G1 X126.346 Y86.189 E36.448
G1 X126.346 Y108.75 E37.1413
G1 X126.277 Y109.225 E37.15605
G1 X126.127 Y109.621 E37.16907
G1 X125.902 Y109.98 E37.18209
G1 X125.676 Y110.231 E37.19246
G1 X125.077 Y110.609 E37.21423
G1 X124.396 Y110.761 E37.23567
G1 X117.143 Y110.761 E37.45856
G1 X116.454 Y110.614 E37.48021
G1 X116.137 Y110.461 E37.49103
G1 X113.186 Y108.415 E37.60137
G1 X101.59 Y108.415 E37.95772
G0 F6000 X101.59 Y107.869
G1 F900 X101.201 Y107.807 E37.96983
G1 X101.009 Y107.733 E37.97615
G1 X100.65 Y107.508 E37.98917
G1 X100.488 Y107.352 E37.99608
G1 X100.244 Y106.936 E38.0109
G1 X100.125 Y106.404 E38.02765
G1 X100.125 Y88.596 E38.5749
G1 X100.187 Y88.207 E38.587
G1 X100.261 Y88.015 E38.59332
G1 X100.486 Y87.656 E38.60634
G1 X100.642 Y87.494 E38.61326
G1 X101.058 Y87.25 E38.62808
G1 X101.59 Y87.131 E38.64483
G1 X113.357 Y87.131 E39.00643
G1 X116.366 Y85.045 E39.11894
G1 X116.906 Y84.821 E39.13691
G1 X117.102 Y84.785 E39.14303
G1 X124.335 Y84.785 E39.36531
G1 X124.724 Y84.847 E39.37741
G1 X124.916 Y84.921 E39.38373
G1 X125.275 Y85.146 E39.39675
G1 X125.437 Y85.302 E39.40366
G1 X125.681 Y85.718 E39.41848
G1 X125.8 Y86.25 E39.43524
G1 X125.8 Y108.75 E40.12667
G1 X125.738 Y109.139 E40.13877
G1 X125.664 Y109.331 E40.14509
G1 X125.439 Y109.69 E40.15811
G1 X125.283 Y109.852 E40.16503
G1 X124.867 Y110.096 E40.17985
G1 X124.335 Y110.215 E40.1966
G1 X117.201 Y110.215 E40.41583
G1 X116.632 Y110.094 E40.4337
G1 X116.448 Y110.012 E40.43989
G1 X113.357 Y107.869 E40.55548
G1 X101.59 Y107.869 E40.91708
G1 F1500 E39.91708
G1 F600 Z0.35
G0 F6000 X101.59 Y106.777 Z0.35
G1 F600 Z0.15
G1 F1500 E40.91708
G1 F900 X101.423 Y106.738 E40.92235
G1 X101.291 Y106.627 E40.92765
G1 X101.217 Y106.404 E40.93487
G1 X101.217 Y88.596 E41.48211
G1 X101.256 Y88.429 E41.48738
G1 X101.367 Y88.297 E41.49268
G1 X101.59 Y88.223 E41.4999
G1 X113.699 Y88.223 E41.87201
G1 X116.988 Y85.943 E41.995
G1 X117.201 Y85.877 E42.00185
G1 X124.335 Y85.877 E42.22108
G1 X124.502 Y85.916 E42.22635
G1 X124.634 Y86.027 E42.23165
G1 X124.708 Y86.25 E42.23887
G1 X124.708 Y108.75 E42.9303
G1 X124.669 Y108.917 E42.93557
G1 X124.558 Y109.049 E42.94087
G1 X124.335 Y109.123 E42.94809
G1 X117.201 Y109.123 E43.16732
G1 X116.988 Y109.057 E43.17417
G1 X113.699 Y106.777 E43.29715
G1 X101.59 Y106.777 E43.66926
G0 F6000 X101.59 Y107.323
G1 F900 X101.299 Y107.27 E43.67835
G1 X100.94 Y107.045 E43.69137
G1 X100.773 Y106.799 E43.70051
G1 X100.671 Y106.404 E43.71305
G1 X100.671 Y88.596 E44.26029
G1 X100.724 Y88.305 E44.26938
G1 X100.949 Y87.946 E44.2824
G1 X101.195 Y87.779 E44.29154
G1 X101.59 Y87.677 E44.30407
G1 X113.528 Y87.677 E44.67093
G1 X116.677 Y85.494 E44.78868
G1 X117.102 Y85.331 E44.80267
G1 X124.335 Y85.331 E45.02494
G1 X124.626 Y85.384 E45.03403
G1 X124.985 Y85.609 E45.04705
G1 X125.152 Y85.855 E45.05618
G1 X125.254 Y86.25 E45.06872
G1 X125.254 Y108.75 E45.76015
G1 X125.201 Y109.041 E45.76924
G1 X124.976 Y109.4 E45.78226
G1 X124.73 Y109.567 E45.7914
G1 X124.335 Y109.669 E45.80393
G1 X117.201 Y109.669 E46.02316
