;FLAVOR:Marlin
;TIME:4184
;Filament used: 1.41788m
;Layer height: 0.15
;MINX:66.559
;MINY:99.378
;MINZ:0.15
;MAXX:162.727
;MAXY:125.622
;MAXZ:7.1
;TARGET_MACHINE.NAME:ELEGOO NEPTUNE 3 Pro
;Generated with Cura_SteamEngine 5.8.1
M82 ;absolute extrusion mode
;;ELEGOO NEPTUNE 3 Pro
;M220 S100 ;Set the feed speed to 100%
;M221 S100 ;Set the flow rate to 100%
;G90 ;Absolute positioning
;G28 ;home
;;M420 S1 Z10;Uncomment to enable progressive compensation height of 10mm
;G92 E0 ;Reset Extruder
;G1 Z0.45 F300
;G1 X1.5 Y20 F5000.0 ;Move to start position
;G1 Y120.0 F600.0 E15 ;Draw the first line
;G1 X0.5 F1000.0 ;Move to side a little
;G1 Y20 F600 E30 ;Draw the second line
;G92 E0 ;Reset Extruder
;
;Use Klipper START_PRINT gcode macro
START_PRINT BED_TEMP=70 EXTRUDER_TEMP=210
G92 E0
G92 E0
G1 F1500 E-1
;LAYER_COUNT:47
;LAYER:0
M107
M204 S500
G1 F600 Z0.35
G0 F6000 X76.496 Y99.908 Z0.35
;TYPE:SKIRT
G1 F600 Z0.15
G1 F1500 E0
G1 F900 X77.095 Y99.53 E0.02177
G1 X77.776 Y99.378 E0.04321
G1 X94.216 Y99.385 E0.54841
G1 X95.023 Y99.461 E0.57332
G1 X96.013 Y99.637 E0.60422
G1 X97.144 Y99.967 E0.64043
G1 X98.434 Y100.499 E0.68331
G1 X99.6 Y101.229 E0.72558
G1 X100.482 Y101.918 E0.75998
G1 X101.107 Y102.492 E0.78605
G1 X101.665 Y102.928 E0.80781
G1 X102.277 Y103.254 E0.82912
G1 X102.799 Y103.46 E0.84637
G1 X103.325 Y103.602 E0.86311
G1 X103.938 Y103.692 E0.88215
G1 X104.459 Y103.746 E0.89825
G1 X104.7 Y103.695 E0.90582
G1 X113.075 Y103.375 E1.16337
G1 X113.608 Y103.457 E1.17994
G1 X114.001 Y103.353 E1.19243
G1 X115.263 Y103.336 E1.23122
G1 X115.914 Y103.456 E1.25156
G1 X116.536 Y103.78 E1.27311
G1 X116.824 Y104.07 E1.28567
G1 X117.065 Y104.449 E1.29947
G1 X128.444 Y104.449 E1.64915
G1 X128.446 Y103.996 E1.66307
G1 X128.65 Y103.261 E1.68651
G1 X128.985 Y102.78 E1.70453
G1 X129.429 Y102.312 E1.72435
G1 X130.093 Y101.899 E1.74838
G1 X130.799 Y101.698 E1.77094
G1 X131.32 Y101.653 E1.78701
G1 X131.729 Y101.701 E1.79966
G1 X132.18 Y101.653 E1.8136
G1 X132.556 Y101.697 E1.82524
G1 X132.936 Y101.652 E1.83699
G1 X133.399 Y101.702 E1.85131
G1 X133.858 Y101.653 E1.86549
G1 X134.253 Y101.701 E1.87772
G1 X134.698 Y101.653 E1.89147
G1 X135.093 Y101.701 E1.9037
G1 X135.538 Y101.653 E1.91745
G1 X135.913 Y101.697 E1.92906
G1 X136.287 Y101.653 E1.94063
G1 X136.751 Y101.703 E1.95497
G1 X137.215 Y101.653 E1.96931
G1 X137.61 Y101.701 E1.98154
G1 X138.054 Y101.653 E1.99526
G1 X138.449 Y101.701 E2.00749
G1 X138.893 Y101.653 E2.02122
G1 X139.266 Y101.697 E2.03276
G1 X139.639 Y101.653 E2.0443
G1 X140.103 Y101.703 E2.05864
G1 X140.567 Y101.653 E2.07298
G1 X140.957 Y101.7 E2.08505
G1 X141.397 Y101.653 E2.09865
G1 X141.792 Y101.701 E2.11088
G1 X142.236 Y101.653 E2.1246
G1 X142.606 Y101.696 E2.13605
G1 X142.976 Y101.653 E2.1475
G1 X143.44 Y101.703 E2.16184
G1 X143.904 Y101.653 E2.17618
G1 X144.299 Y101.701 E2.18841
G1 X144.744 Y101.653 E2.20216
G1 X145.139 Y101.701 E2.21439
G1 X145.584 Y101.653 E2.22814
G1 X145.948 Y101.695 E2.2394
G1 X146.312 Y101.653 E2.25066
G1 X146.776 Y101.703 E2.265
G1 X147.24 Y101.653 E2.27935
G1 X147.635 Y101.701 E2.29157
G1 X148.079 Y101.653 E2.3053
G1 X148.458 Y101.698 E2.31703
G1 X148.89 Y101.658 E2.33036
G1 X149.257 Y101.704 E2.34172
G1 X149.624 Y101.658 E2.35309
G1 X150.086 Y101.702 E2.36735
G1 X150.542 Y101.653 E2.38145
G1 X150.937 Y101.701 E2.39367
G1 X151.381 Y101.653 E2.4074
G1 X151.751 Y101.696 E2.41884
G1 X152.017 Y101.653 E2.42712
G1 X152.593 Y101.661 E2.44483
G1 X153.109 Y101.789 E2.46116
G1 X153.627 Y102.081 E2.47944
G1 X153.902 Y102.34 E2.49105
G1 X154.119 Y102.668 E2.50313
G1 X154.29 Y102.472 E2.51112
G1 X154.676 Y102.157 E2.52643
G1 X155.349 Y101.823 E2.54952
G1 X156.03 Y101.711 E2.57073
G1 X156.705 Y101.745 E2.5915
G1 X157.19 Y101.849 E2.60674
G1 X157.782 Y102.225 E2.62829
G1 X158.192 Y102.779 E2.64947
G1 X158.304 Y103.053 E2.65857
G1 X158.441 Y103.653 E2.67748
G1 X158.441 Y106.201 E2.75578
G1 X158.834 Y106.247 E2.76794
G1 X160.038 Y106.581 E2.80634
G1 X160.622 Y106.871 E2.82638
G1 X160.776 Y106.985 E2.83227
G1 X161.932 Y108.207 E2.88396
G1 X162.281 Y108.859 E2.90668
G1 X162.681 Y110.233 E2.95066
G1 X162.727 Y110.551 E2.96053
G1 X162.677 Y111.201 E2.98057
G1 X162.289 Y112.591 E3.02492
G1 X161.905 Y113.299 E3.04967
G1 X160.816 Y114.387 E3.09697
G1 X160.136 Y114.815 E3.12166
G1 X158.909 Y115.158 E3.16081
G1 X158.441 Y115.218 E3.17531
G1 X158.441 Y117.708 E3.25183
G1 X158.372 Y118.183 E3.26658
G1 X158.222 Y118.579 E3.27959
G1 X157.997 Y118.938 E3.29261
G1 X157.69 Y119.264 E3.30638
G1 X157.064 Y119.596 E3.32815
G1 X156.881 Y119.655 E3.33406
G1 X156.397 Y119.71 E3.34903
G1 X155.75 Y119.671 E3.36895
G1 X155.132 Y119.511 E3.38856
G1 X154.822 Y119.344 E3.39939
G1 X154.258 Y118.911 E3.42124
G1 X154.049 Y118.691 E3.43056
G1 X153.897 Y118.913 E3.43883
G1 X153.615 Y119.204 E3.45128
G1 X153.255 Y119.452 E3.46471
G1 X152.534 Y119.7 E3.48815
G1 X151.955 Y119.763 E3.50604
G1 X151.569 Y119.724 E3.51797
G1 X151.198 Y119.766 E3.52944
G1 X150.76 Y119.718 E3.54298
G1 X150.359 Y119.766 E3.55539
G1 X149.908 Y119.716 E3.56933
G1 X149.44 Y119.759 E3.58378
G1 X149.105 Y119.715 E3.59416
G1 X148.776 Y119.759 E3.60436
G1 X148.309 Y119.717 E3.61877
G1 X147.9 Y119.766 E3.63143
G1 X147.443 Y119.715 E3.64556
G1 X146.971 Y119.765 E3.66014
G1 X146.605 Y119.721 E3.67147
G1 X146.22 Y119.766 E3.68338
G1 X145.763 Y119.715 E3.69752
G1 X145.292 Y119.765 E3.71207
G1 X144.907 Y119.717 E3.72399
G1 X144.453 Y119.765 E3.73802
G1 X144.096 Y119.722 E3.74907
G1 X143.72 Y119.766 E3.76071
G1 X143.283 Y119.718 E3.77422
G1 X142.88 Y119.766 E3.78669
G1 X142.442 Y119.717 E3.80023
G1 X142.043 Y119.765 E3.81258
G1 X141.609 Y119.718 E3.826
G1 X141.213 Y119.765 E3.83825
G1 X140.782 Y119.718 E3.85157
G1 X140.382 Y119.766 E3.86395
G1 X139.944 Y119.717 E3.8775
G1 X139.541 Y119.766 E3.88997
G1 X139.085 Y119.715 E3.90407
G1 X138.613 Y119.765 E3.91866
G1 X138.247 Y119.721 E3.92999
G1 X137.862 Y119.766 E3.9419
G1 X137.405 Y119.716 E3.95603
G1 X136.934 Y119.765 E3.97058
G1 X136.569 Y119.721 E3.98188
G1 X136.184 Y119.766 E3.99379
G1 X135.728 Y119.715 E4.00789
G1 X135.257 Y119.765 E4.02244
G1 X134.881 Y119.719 E4.03408
G1 X134.463 Y119.763 E4.047
G1 X134.184 Y119.736 E4.05561
G1 X133.75 Y119.779 E4.06902
G1 X133.216 Y119.72 E4.08553
G1 X132.761 Y119.764 E4.09957
G1 X132.355 Y119.717 E4.11213
G1 X131.896 Y119.765 E4.12632
G1 X131.524 Y119.719 E4.13783
G1 X131.12 Y119.765 E4.15033
G1 X130.52 Y119.694 E4.1689
G1 X129.754 Y119.447 E4.19363
G1 X129.211 Y119.051 E4.21428
G1 X128.834 Y118.672 E4.23071
G1 X128.486 Y118.186 E4.24908
G1 X128.359 Y117.859 E4.25986
G1 X128.253 Y117.372 E4.27517
G1 X128.262 Y116.971 E4.2875
G1 X117.065 Y116.971 E4.63159
G1 X116.856 Y117.304 E4.64367
G1 X116.627 Y117.557 E4.65415
G1 X116.019 Y117.936 E4.67617
G1 X115.323 Y118.086 E4.69805
G1 X114.169 Y118.07 E4.73352
G1 X113.623 Y117.956 E4.75066
G1 X113.143 Y118.045 E4.76566
G1 X105.005 Y117.739 E5.01592
G1 X104.621 Y117.662 E5.02795
G1 X104.061 Y117.759 E5.04542
G1 X103.592 Y117.935 E5.06081
G1 X103.205 Y118.218 E5.07554
G1 X102.857 Y118.672 E5.09312
G1 X102.676 Y119.228 E5.11109
G1 X102.622 Y119.865 E5.13074
G1 X102.502 Y120.561 E5.15244
G1 X102.233 Y121.446 E5.18087
G1 X101.907 Y122.161 E5.20501
G1 X101.531 Y122.782 E5.22732
G1 X100.987 Y123.51 E5.25525
G1 X100.256 Y124.166 E5.28543
G1 X99.686 Y124.579 E5.30706
G1 X99.032 Y124.949 E5.33016
G1 X98.059 Y125.363 E5.36265
G1 X96.95 Y125.57 E5.39732
G1 X96.222 Y125.622 E5.41975
G1 X75.441 Y125.621 E6.05835
G1 X74.767 Y125.603 E6.07907
G1 X73.919 Y125.537 E6.10521
G1 X73.165 Y125.438 E6.12858
G1 X72.406 Y125.302 E6.15227
G1 X71.661 Y125.126 E6.1758
G1 X71.004 Y124.937 E6.19681
G1 X70.221 Y124.667 E6.22226
G1 X69.489 Y124.374 E6.24649
G1 X68.861 Y124.083 E6.26776
G1 X68.144 Y123.705 E6.29267
G1 X67.48 Y123.307 E6.31646
G1 X67.077 Y122.949 E6.33302
G1 X66.739 Y122.402 E6.35278
G1 X66.559 Y121.691 E6.37532
G1 X66.559 Y120.882 E6.40018
G1 X66.628 Y120.407 E6.41493
G1 X66.778 Y120.011 E6.42794
G1 X67.059 Y119.58 E6.44375
G1 X67.059 Y116.426 E6.54068
G1 X66.711 Y115.863 E6.56102
G1 X66.559 Y115.185 E6.58237
G1 X66.559 Y114.379 E6.60714
G1 X66.628 Y113.904 E6.62189
G1 X66.859 Y113.354 E6.64022
G1 X66.971 Y113.193 E6.64624
G1 X67.491 Y112.68 E6.66869
G1 X68.194 Y112.269 E6.69372
G1 X68.815 Y111.944 E6.71526
G1 X69.586 Y111.591 E6.74131
G1 X70.301 Y111.307 E6.76496
G1 X71.026 Y111.062 E6.78847
G1 X71.744 Y110.858 E6.81141
G1 X72.511 Y110.681 E6.8356
G1 X73.264 Y110.549 E6.85909
G1 X73.942 Y110.463 E6.88009
G1 X74.788 Y110.4 E6.90616
G1 X75.493 Y110.383 E6.92784
G1 X76.175 Y110.381 E6.94879
G1 X75.95 Y109.938 E6.96406
G1 X75.817 Y109.323 E6.9834
G1 X75.261 Y109.165 E7.00116
G1 X74.802 Y108.877 E7.01781
G1 X74.327 Y108.421 E7.03805
G1 X73.958 Y107.823 E7.05964
G1 X73.826 Y107.184 E7.07969
G1 X73.826 Y105.539 E7.13024
G1 X73.975 Y104.841 E7.15218
G1 X74.307 Y104.312 E7.17137
G1 X74.763 Y103.837 E7.1916
G1 X75.279 Y103.519 E7.21023
G1 X75.826 Y103.361 E7.22773
G1 X75.826 Y101.389 E7.28833
G1 X75.895 Y100.914 E7.30308
G1 X76.045 Y100.518 E7.31609
G1 X76.27 Y100.159 E7.32911
G1 X76.496 Y99.908 E7.33949
G0 F6000 X76.889 Y100.287
G1 F900 X77.305 Y100.043 E7.35431
G1 X77.837 Y99.924 E7.37106
G1 X94.166 Y99.929 E7.87285
G1 X94.927 Y99.999 E7.89634
G1 X95.917 Y100.175 E7.92724
G1 X96.936 Y100.472 E7.95985
G1 X98.182 Y100.986 E8.00127
G1 X99.31 Y101.692 E8.04217
G1 X100.113 Y102.32 E8.07349
G1 X100.754 Y102.909 E8.10025
G1 X101.37 Y103.39 E8.12426
G1 X102.046 Y103.75 E8.1478
G1 X102.628 Y103.979 E8.16702
G1 X103.212 Y104.137 E8.18561
G1 X103.87 Y104.234 E8.20605
G1 X104.506 Y104.3 E8.2257
G1 X104.721 Y104.241 E8.23255
G1 X113.096 Y103.921 E8.4901
G1 X113.65 Y104.019 E8.50739
G1 X114.008 Y103.899 E8.51899
G1 X115.27 Y103.882 E8.55778
G1 X115.661 Y103.94 E8.56993
G1 X116.209 Y104.226 E8.58892
G1 X116.376 Y104.382 E8.59594
G1 X116.55 Y104.632 E8.6053
G1 X116.695 Y104.995 E8.61732
G1 X129.17 Y104.995 E9.00068
G1 X129.002 Y104.63 E9.01302
G1 X128.972 Y104.142 E9.02805
G1 X129.151 Y103.496 E9.04865
G1 X129.381 Y103.156 E9.06126
G1 X129.778 Y102.738 E9.07898
G1 X130.316 Y102.403 E9.09845
G1 X130.897 Y102.238 E9.11701
G1 X131.367 Y102.197 E9.13151
G1 X131.717 Y102.252 E9.1424
G1 X132.238 Y102.196 E9.1585
G1 X132.558 Y102.252 E9.16848
G1 X132.878 Y102.195 E9.17847
G1 X133.399 Y102.251 E9.19458
G1 X133.916 Y102.196 E9.21055
G1 X134.234 Y102.252 E9.22048
G1 X134.756 Y102.196 E9.23661
G1 X135.074 Y102.252 E9.24653
G1 X135.596 Y102.196 E9.26266
G1 X135.912 Y102.251 E9.27252
G1 X136.229 Y102.196 E9.28241
G1 X136.751 Y102.252 E9.29854
G1 X137.273 Y102.196 E9.31467
G1 X137.591 Y102.252 E9.3246
G1 X138.112 Y102.196 E9.3407
G1 X138.43 Y102.252 E9.35062
G1 X138.951 Y102.196 E9.36673
G1 X139.266 Y102.251 E9.37655
G1 X139.581 Y102.196 E9.38638
G1 X140.103 Y102.252 E9.40251
G1 X140.625 Y102.196 E9.41864
G1 X140.938 Y102.251 E9.42841
G1 X141.455 Y102.196 E9.44439
G1 X141.773 Y102.252 E9.45431
G1 X142.294 Y102.196 E9.47041
G1 X142.606 Y102.25 E9.48014
G1 X142.918 Y102.196 E9.48987
G1 X143.44 Y102.252 E9.50601
G1 X143.962 Y102.196 E9.52214
G1 X144.28 Y102.252 E9.53206
G1 X144.802 Y102.196 E9.5482
G1 X145.12 Y102.252 E9.55812
G1 X145.642 Y102.196 E9.57425
G1 X145.948 Y102.249 E9.58379
G1 X146.254 Y102.196 E9.59334
G1 X146.776 Y102.252 E9.60947
G1 X147.298 Y102.196 E9.6256
G1 X147.616 Y102.252 E9.63553
G1 X148.137 Y102.196 E9.65163
G1 X148.445 Y102.25 E9.66124
G1 X148.822 Y102.2 E9.67293
G1 X149.257 Y102.255 E9.6864
G1 X149.692 Y102.2 E9.69987
G1 X150.079 Y102.252 E9.71187
G1 X150.6 Y102.196 E9.72798
G1 X150.918 Y102.252 E9.7379
G1 X151.439 Y102.196 E9.754
G1 X151.756 Y102.252 E9.76389
G1 X152.027 Y102.199 E9.77238
G1 X152.462 Y102.191 E9.78575
G1 X152.978 Y102.319 E9.80209
G1 X153.337 Y102.544 E9.81511
G1 X153.513 Y102.723 E9.82282
G1 X153.731 Y103.081 E9.8357
G1 X153.829 Y103.471 E9.84806
G1 X154.228 Y103.391 E9.86056
G1 X154.651 Y102.882 E9.8809
G1 X154.919 Y102.646 E9.89188
G1 X155.518 Y102.349 E9.91242
G1 X156.064 Y102.259 E9.92943
G1 X156.677 Y102.29 E9.94829
G1 X156.978 Y102.361 E9.95779
G1 X157.405 Y102.632 E9.97333
G1 X157.695 Y103.005 E9.98785
G1 X157.772 Y103.174 E9.99356
G1 X157.895 Y103.713 E10.01055
G1 X157.895 Y106.837 E10.10655
G1 X158.394 Y106.742 E10.12216
G1 X158.765 Y106.789 E10.13365
G1 X159.839 Y107.092 E10.16794
G1 X160.379 Y107.36 E10.18647
G1 X161.485 Y108.529 E10.23592
G1 X161.773 Y109.068 E10.2547
G1 X162.157 Y110.386 E10.29689
G1 X162.178 Y110.568 E10.30252
G1 X162.137 Y111.103 E10.31901
G1 X161.779 Y112.386 E10.35994
G1 X161.463 Y112.969 E10.38032
G1 X160.474 Y113.957 E10.42328
G1 X159.913 Y114.31 E10.44365
G1 X158.762 Y114.632 E10.48038
G1 X158.367 Y114.677 E10.49259
G1 X157.895 Y114.578 E10.50741
G1 X157.895 Y117.708 E10.6036
G1 X157.833 Y118.097 E10.6157
G1 X157.759 Y118.289 E10.62203
G1 X157.534 Y118.648 E10.63505
G1 X157.355 Y118.824 E10.64276
G1 X156.808 Y119.114 E10.66179
G1 X156.43 Y119.165 E10.67351
G1 X155.838 Y119.129 E10.69173
G1 X155.328 Y118.997 E10.70792
G1 X155.15 Y118.908 E10.71404
G1 X154.653 Y118.534 E10.73315
G1 X154.429 Y118.299 E10.74313
G1 X154.273 Y118.032 E10.75263
G1 X153.761 Y117.945 E10.76859
G1 X153.63 Y118.329 E10.78106
G1 X153.505 Y118.533 E10.78841
G1 X153.223 Y118.824 E10.80086
G1 X153.008 Y118.96 E10.80868
G1 X152.417 Y119.163 E10.82788
G1 X151.896 Y119.22 E10.84399
G1 X151.564 Y119.171 E10.8543
G1 X151.257 Y119.223 E10.86387
G1 X150.744 Y119.167 E10.87973
G1 X150.419 Y119.223 E10.88987
G1 X149.905 Y119.166 E10.90576
G1 X149.511 Y119.218 E10.91797
G1 X149.104 Y119.165 E10.93058
G1 X148.704 Y119.218 E10.94298
G1 X148.296 Y119.165 E10.95563
G1 X147.96 Y119.223 E10.9661
G1 X147.446 Y119.166 E10.982
G1 X146.914 Y119.222 E10.99843
G1 X146.606 Y119.166 E11.00805
G1 X146.28 Y119.223 E11.01822
G1 X145.766 Y119.166 E11.03412
G1 X145.235 Y119.222 E11.05052
G1 X144.927 Y119.166 E11.06014
G1 X144.396 Y119.222 E11.07655
G1 X144.097 Y119.168 E11.08589
G1 X143.78 Y119.223 E11.09578
G1 X143.266 Y119.166 E11.11167
G1 X142.94 Y119.223 E11.12184
G1 X142.426 Y119.166 E11.13773
G1 X142.102 Y119.222 E11.14784
G1 X141.593 Y119.167 E11.16357
G1 X141.272 Y119.222 E11.17358
G1 X140.765 Y119.167 E11.18925
G1 X140.442 Y119.223 E11.19932
G1 X139.927 Y119.166 E11.21524
G1 X139.601 Y119.223 E11.22541
G1 X139.088 Y119.166 E11.24128
G1 X138.556 Y119.222 E11.25772
G1 X138.247 Y119.166 E11.26737
G1 X137.921 Y119.223 E11.27754
G1 X137.408 Y119.167 E11.29339
G1 X136.878 Y119.222 E11.30977
G1 X136.57 Y119.166 E11.31939
G1 X136.244 Y119.223 E11.32956
G1 X135.731 Y119.166 E11.34542
G1 X135.2 Y119.222 E11.36183
G1 X134.892 Y119.166 E11.37145
G1 X134.516 Y119.22 E11.38312
G1 X134.17 Y119.186 E11.3938
G1 X133.81 Y119.236 E11.40497
G1 X133.223 Y119.171 E11.42312
G1 X132.708 Y119.221 E11.43902
G1 X132.37 Y119.167 E11.44954
G1 X131.84 Y119.222 E11.46592
G1 X131.532 Y119.166 E11.47554
G1 X131.174 Y119.222 E11.48667
G1 X130.687 Y119.174 E11.50171
G1 X130.004 Y118.954 E11.52376
G1 X129.598 Y118.666 E11.53906
G1 X129.221 Y118.287 E11.55548
G1 X128.971 Y117.927 E11.56895
G1 X128.893 Y117.743 E11.57509
G1 X128.787 Y117.256 E11.59041
G1 X128.827 Y116.759 E11.60573
G1 X128.986 Y116.425 E11.6171
G1 X116.698 Y116.425 E11.99471
G1 X116.618 Y116.655 E12.0022
G1 X116.393 Y117.014 E12.01522
G1 X116.235 Y117.177 E12.02219
G1 X115.813 Y117.422 E12.03719
G1 X115.268 Y117.539 E12.05432
G1 X114.177 Y117.524 E12.08785
G1 X113.625 Y117.396 E12.10526
G1 X113.164 Y117.499 E12.11978
G1 X105.026 Y117.193 E12.37003
G1 X104.603 Y117.098 E12.38336
G1 X104.435 Y117.148 E12.38874
G1 X103.922 Y117.229 E12.4047
G1 X103.329 Y117.451 E12.42416
G1 X102.818 Y117.824 E12.4436
G1 X102.381 Y118.395 E12.4657
G1 X102.236 Y118.745 E12.47734
G1 X102.136 Y119.139 E12.48983
G1 X102.084 Y119.772 E12.50935
G1 X101.964 Y120.468 E12.53105
G1 X101.735 Y121.222 E12.55527
G1 X101.439 Y121.88 E12.57744
G1 X101.094 Y122.455 E12.59805
G1 X100.583 Y123.139 E12.62429
G1 X99.891 Y123.76 E12.65286
G1 X99.415 Y124.105 E12.67092
G1 X98.818 Y124.446 E12.69205
G1 X97.898 Y124.837 E12.72277
G1 X96.85 Y125.033 E12.75554
G1 X96.222 Y125.076 E12.77488
G1 X75.456 Y125.075 E13.41302
G1 X74.782 Y125.057 E13.43374
G1 X73.99 Y124.996 E13.45815
