;FLAVOR:Marlin
;TIME:1639
;Filament used: 0.538303m
;Layer height: 0.15
;MINX:96.076
;MINY:75.914
;MINZ:0.15
;MAXX:128.924
;MAXY:149.086
;MAXZ:2.15
;TARGET_MACHINE.NAME:ELEGOO NEPTUNE 3 Pro
;Generated with Cura_SteamEngine 5.8.1
M82 ;absolute extrusion mode
;;ELEGOO NEPTUNE 3 Pro
;M220 S100 ;Set the feed speed to 100%
;M221 S100 ;Set the flow rate to 100%
;G90 ;Absolute positioning
;G28 ;home
;;M420 S1 Z10;Uncomment to enable progressive compensation height of 10mm
;G92 E0 ;Reset Extruder
;G1 Z0.45 F300
;G1 X1.5 Y20 F5000.0 ;Move to start position
;G1 Y120.0 F600.0 E15 ;Draw the first line
;G1 X0.5 F1000.0 ;Move to side a little
;G1 Y20 F600 E30 ;Draw the second line
;G92 E0 ;Reset Extruder
;
;Use Klipper START_PRINT gcode macro
START_PRINT BED_TEMP=70 EXTRUDER_TEMP=210
G92 E0
G92 E0
G1 F1500 E-1
;LAYER_COUNT:13
;LAYER:0
M107
M204 S500
G1 F600 Z0.35
G0 F6000 X96.477 Y76.74 Z0.35
;TYPE:SKIRT
G1 F600 Z0.15
G1 F1500 E0
G1 F900 X96.92 Y76.3 E0.01919
G1 X97.086 Y76.187 E0.02536
G1 X97.59 Y75.985 E0.04204
G1 X98.072 Y75.914 E0.05702
G1 X106.928 Y75.914 E0.32916
G1 X107.403 Y75.983 E0.34391
G1 X107.799 Y76.133 E0.35693
G1 X108.158 Y76.358 E0.36994
G1 X108.484 Y76.665 E0.38371
G1 X108.816 Y77.291 E0.40548
G1 X108.876 Y77.481 E0.4116
G1 X108.924 Y78.02 E0.42823
G1 X108.854 Y78.503 E0.44323
G1 X107.655 Y82.5 E0.57147
G1 X108.854 Y86.497 E0.6997
G1 X108.918 Y87.158 E0.72011
G1 X108.774 Y87.854 E0.74195
G1 X108.523 Y88.26 E0.75662
G1 X108.08 Y88.7 E0.77581
G1 X107.914 Y88.813 E0.78198
G1 X107.41 Y89.015 E0.79866
G1 X106.928 Y89.086 E0.81364
G1 X98.072 Y89.086 E1.08578
G1 X97.597 Y89.017 E1.10053
G1 X97.201 Y88.867 E1.11354
G1 X96.842 Y88.642 E1.12656
G1 X96.516 Y88.335 E1.14033
G1 X96.184 Y87.709 E1.1621
G1 X96.124 Y87.519 E1.16822
G1 X96.076 Y86.98 E1.18485
G1 X96.146 Y86.497 E1.19985
G1 X97.345 Y82.5 E1.32809
G1 X96.146 Y78.503 E1.45632
G1 X96.082 Y77.842 E1.47673
G1 X96.226 Y77.146 E1.49857
G1 X96.477 Y76.74 E1.51324
G0 F6000 X96.862 Y77.127
G1 F900 X97.305 Y76.687 E1.53243
G1 X97.677 Y76.524 E1.54491
G1 X98.072 Y76.46 E1.5572
G1 X106.928 Y76.46 E1.82935
G1 X107.317 Y76.522 E1.84146
G1 X107.509 Y76.596 E1.84778
G1 X107.868 Y76.821 E1.8608
G1 X108.044 Y77 E1.86851
G1 X108.334 Y77.547 E1.88754
G1 X108.383 Y77.949 E1.89998
G1 X108.331 Y78.346 E1.91229
G1 X107.085 Y82.5 E2.04556
G1 X108.331 Y86.654 E2.17883
G1 X108.383 Y87.048 E2.19104
G1 X108.258 Y87.653 E2.21003
G1 X108.138 Y87.873 E2.21773
G1 X107.695 Y88.313 E2.23692
G1 X107.323 Y88.476 E2.2494
G1 X106.928 Y88.54 E2.26169
G1 X98.072 Y88.54 E2.53384
G1 X97.683 Y88.478 E2.54595
G1 X97.491 Y88.404 E2.55227
G1 X97.132 Y88.179 E2.56529
G1 X96.956 Y88 E2.573
G1 X96.666 Y87.453 E2.59203
G1 X96.617 Y87.051 E2.60447
G1 X96.669 Y86.654 E2.61678
G1 X97.915 Y82.5 E2.75005
G1 X96.669 Y78.346 E2.88332
G1 X96.617 Y77.952 E2.89553
G1 X96.742 Y77.347 E2.91452
G1 X96.862 Y77.127 E2.92222
G1 F1500 E1.92222
G1 F600 Z0.35
G0 F6000 X97.772 Y77.703 Z0.35
G1 F600 Z0.15
G1 F1500 E2.92222
G1 F900 X97.903 Y77.592 E2.9275
G1 X98.072 Y77.552 E2.93283
G1 X106.928 Y77.552 E3.20498
G1 X107.095 Y77.591 E3.21025
G1 X107.227 Y77.702 E3.21555
G1 X107.295 Y77.859 E3.22081
G1 X107.285 Y78.032 E3.22613
G1 X105.945 Y82.5 E3.36948
G1 X107.285 Y86.968 E3.51282
G1 X107.295 Y87.139 E3.51809
G1 X107.228 Y87.297 E3.52336
G1 X107.097 Y87.408 E3.52864
G1 X106.928 Y87.448 E3.53397
G1 X98.072 Y87.448 E3.80612
G1 X97.905 Y87.409 E3.81139
G1 X97.773 Y87.298 E3.81669
G1 X97.705 Y87.141 E3.82195
G1 X97.715 Y86.968 E3.82727
G1 X99.055 Y82.5 E3.97062
G1 X97.715 Y78.032 E4.11396
G1 X97.705 Y77.861 E4.11923
G1 X97.772 Y77.703 E4.1245
G0 F6000 X97.269 Y77.49
G1 F900 X97.55 Y77.175 E4.13747
G1 X97.777 Y77.061 E4.14528
G1 X98.072 Y77.006 E4.1545
G1 X106.928 Y77.006 E4.42664
G1 X107.219 Y77.059 E4.43573
G1 X107.578 Y77.284 E4.44875
G1 X107.796 Y77.642 E4.46163
G1 X107.84 Y77.891 E4.46941
G1 X107.808 Y78.189 E4.47862
G1 X106.515 Y82.5 E4.61692
G1 X107.808 Y86.811 E4.75523
G1 X107.84 Y87.107 E4.76438
G1 X107.731 Y87.51 E4.77721
G1 X107.45 Y87.825 E4.79018
G1 X107.223 Y87.939 E4.79799
G1 X106.928 Y87.994 E4.80721
G1 X98.072 Y87.994 E5.07936
G1 X97.781 Y87.941 E5.08845
G1 X97.422 Y87.716 E5.10147
G1 X97.204 Y87.358 E5.11435
G1 X97.16 Y87.109 E5.12212
G1 X97.192 Y86.811 E5.13133
G1 X98.485 Y82.5 E5.26964
G1 X97.192 Y78.189 E5.40794
G1 X97.16 Y77.893 E5.41709
G1 X97.269 Y77.49 E5.42992
G1 F1500 E4.42992
G1 F600 Z0.35
G0 F6000 X98.072 Y95.914 Z0.35
G1 F600 Z0.15
G1 F1500 E5.42992
G1 F900 X106.928 Y95.914 E5.70207
G1 X107.403 Y95.983 E5.71682
G1 X107.799 Y96.133 E5.72983
G1 X108.158 Y96.358 E5.74285
G1 X108.484 Y96.665 E5.75661
G1 X108.816 Y97.291 E5.77839
G1 X108.876 Y97.481 E5.78451
G1 X108.924 Y98.02 E5.80114
G1 X108.854 Y98.503 E5.81614
G1 X107.655 Y102.5 E5.94437
G1 X108.854 Y106.497 E6.07261
G1 X108.918 Y107.158 E6.09302
G1 X108.774 Y107.854 E6.11486
G1 X108.523 Y108.26 E6.12953
G1 X108.08 Y108.7 E6.14871
G1 X107.914 Y108.813 E6.15488
G1 X107.41 Y109.015 E6.17157
G1 X106.928 Y109.086 E6.18654
G1 X98.072 Y109.086 E6.45869
G1 X97.597 Y109.017 E6.47344
G1 X97.201 Y108.867 E6.48645
G1 X96.842 Y108.642 E6.49947
G1 X96.516 Y108.335 E6.51323
G1 X96.184 Y107.709 E6.53501
G1 X96.124 Y107.519 E6.54113
G1 X96.076 Y106.98 E6.55776
G1 X96.146 Y106.497 E6.57276
G1 X97.345 Y102.5 E6.70099
G1 X96.146 Y98.503 E6.82923
G1 X96.082 Y97.842 E6.84964
G1 X96.226 Y97.146 E6.87148
G1 X96.477 Y96.74 E6.88615
G1 X96.92 Y96.3 E6.90533
G1 X97.086 Y96.187 E6.9115
G1 X97.59 Y95.985 E6.92819
G1 X98.072 Y95.914 E6.94316
G0 F6000 X98.072 Y96.46
G1 F900 X106.928 Y96.46 E7.21531
G1 X107.317 Y96.522 E7.22741
G1 X107.509 Y96.596 E7.23374
G1 X107.868 Y96.821 E7.24676
G1 X108.044 Y97 E7.25447
G1 X108.334 Y97.547 E7.2735
G1 X108.383 Y97.949 E7.28594
G1 X108.331 Y98.346 E7.29824
G1 X107.085 Y102.5 E7.43152
G1 X108.331 Y106.654 E7.56479
G1 X108.383 Y107.048 E7.577
G1 X108.258 Y107.653 E7.59599
G1 X108.138 Y107.873 E7.60369
G1 X107.695 Y108.313 E7.62287
G1 X107.323 Y108.476 E7.63536
G1 X106.928 Y108.54 E7.64765
G1 X98.072 Y108.54 E7.9198
G1 X97.683 Y108.478 E7.9319
G1 X97.491 Y108.404 E7.93823
G1 X97.132 Y108.179 E7.95125
G1 X96.956 Y108 E7.95896
G1 X96.666 Y107.453 E7.97799
G1 X96.617 Y107.051 E7.99043
G1 X96.669 Y106.654 E8.00274
G1 X97.915 Y102.5 E8.13601
G1 X96.669 Y98.346 E8.26928
G1 X96.617 Y97.952 E8.28149
G1 X96.742 Y97.347 E8.30048
G1 X96.862 Y97.127 E8.30818
G1 X97.305 Y96.687 E8.32736
G1 X97.677 Y96.524 E8.33985
G1 X98.072 Y96.46 E8.35214
G1 F1500 E7.35214
G1 F600 Z0.35
G0 F6000 X98.072 Y97.552 Z0.35
G1 F600 Z0.15
G1 F1500 E8.35214
G1 F900 X106.928 Y97.552 E8.62429
G1 X107.095 Y97.591 E8.62956
G1 X107.227 Y97.702 E8.63486
G1 X107.295 Y97.859 E8.64012
G1 X107.285 Y98.032 E8.64544
G1 X105.945 Y102.5 E8.78879
G1 X107.285 Y106.968 E8.93213
G1 X107.295 Y107.139 E8.93739
G1 X107.228 Y107.297 E8.94267
G1 X107.097 Y107.408 E8.94794
G1 X106.928 Y107.448 E8.95328
G1 X98.072 Y107.448 E9.22543
G1 X97.905 Y107.409 E9.2307
G1 X97.773 Y107.298 E9.236
G1 X97.705 Y107.141 E9.24126
G1 X97.715 Y106.968 E9.24658
G1 X99.055 Y102.5 E9.38993
G1 X97.715 Y98.032 E9.53327
G1 X97.705 Y97.861 E9.53853
G1 X97.772 Y97.703 E9.54381
G1 X97.903 Y97.592 E9.54908
G1 X98.072 Y97.552 E9.55442
G0 F6000 X98.072 Y97.006
G1 F900 X106.928 Y97.006 E9.82657
G1 X107.219 Y97.059 E9.83566
G1 X107.578 Y97.284 E9.84868
G1 X107.796 Y97.642 E9.86156
G1 X107.84 Y97.891 E9.86933
G1 X107.808 Y98.189 E9.87854
G1 X106.515 Y102.5 E10.01685
G1 X107.808 Y106.811 E10.15515
G1 X107.84 Y107.107 E10.1643
G1 X107.731 Y107.51 E10.17713
G1 X107.45 Y107.825 E10.1901
G1 X107.223 Y107.939 E10.19791
G1 X106.928 Y107.994 E10.20713
G1 X98.072 Y107.994 E10.47928
G1 X97.781 Y107.941 E10.48837
G1 X97.422 Y107.716 E10.50139
G1 X97.204 Y107.358 E10.51427
G1 X97.16 Y107.109 E10.52204
G1 X97.192 Y106.811 E10.53125
G1 X98.485 Y102.5 E10.66956
G1 X97.192 Y98.189 E10.80787
G1 X97.16 Y97.893 E10.81702
G1 X97.269 Y97.49 E10.82984
G1 X97.55 Y97.175 E10.84282
G1 X97.777 Y97.061 E10.85062
G1 X98.072 Y97.006 E10.85984
G1 F1500 E9.85984
G1 F600 Z0.35
G0 F6000 X116.082 Y97.842 Z0.35
G1 F600 Z0.15
G1 F1500 E10.85984
G1 F900 X116.226 Y97.146 E10.88169
G1 X116.477 Y96.74 E10.89635
G1 X116.92 Y96.3 E10.91554
G1 X117.086 Y96.187 E10.92171
G1 X117.59 Y95.985 E10.9384
G1 X118.072 Y95.914 E10.95337
G1 X126.928 Y95.914 E11.22552
G1 X127.403 Y95.983 E11.24027
G1 X127.799 Y96.133 E11.25328
G1 X128.158 Y96.358 E11.2663
G1 X128.484 Y96.665 E11.28006
G1 X128.816 Y97.291 E11.30183
G1 X128.876 Y97.481 E11.30796
G1 X128.924 Y98.02 E11.32459
G1 X128.854 Y98.503 E11.33958
G1 X127.655 Y102.5 E11.46782
G1 X128.854 Y106.497 E11.59606
G1 X128.918 Y107.158 E11.61646
G1 X128.793 Y107.763 E11.63545
G1 X128.663 Y108.071 E11.64572
G1 X128.251 Y108.586 E11.66599
G1 X127.661 Y108.931 E11.68699
G1 X127.479 Y108.998 E11.69295
G1 X126.928 Y109.086 E11.7101
G1 X118.072 Y109.086 E11.98224
G1 X117.597 Y109.017 E11.99699
G1 X117.201 Y108.867 E12.01001
G1 X116.842 Y108.642 E12.02303
G1 X116.516 Y108.335 E12.03679
G1 X116.184 Y107.709 E12.05856
G1 X116.124 Y107.519 E12.06469
G1 X116.076 Y106.98 E12.08132
G1 X116.146 Y106.497 E12.09631
G1 X117.345 Y102.5 E12.22455
G1 X116.146 Y98.503 E12.35279
G1 X116.082 Y97.842 E12.37319
G0 F6000 X116.617 Y97.952
G1 F900 X116.742 Y97.347 E12.39218
G1 X116.862 Y97.127 E12.39988
G1 X117.305 Y96.687 E12.41907
G1 X117.677 Y96.524 E12.43155
G1 X118.072 Y96.46 E12.44384
G1 X126.928 Y96.46 E12.71599
G1 X127.317 Y96.522 E12.72809
G1 X127.509 Y96.596 E12.73442
G1 X127.868 Y96.821 E12.74744
G1 X128.044 Y97 E12.75515
G1 X128.334 Y97.547 E12.77418
G1 X128.383 Y97.949 E12.78662
G1 X128.331 Y98.346 E12.79893
G1 X127.085 Y102.5 E12.9322
G1 X128.331 Y106.654 E13.06547
G1 X128.383 Y107.048 E13.07768
G1 X128.258 Y107.653 E13.09667
G1 X128.171 Y107.833 E13.10281
G1 X127.888 Y108.166 E13.11624
G1 X127.385 Y108.46 E13.13414
G1 X126.928 Y108.54 E13.1484
G1 X118.072 Y108.54 E13.42055
G1 X117.683 Y108.478 E13.43265
G1 X117.491 Y108.404 E13.43898
G1 X117.132 Y108.179 E13.452
G1 X116.956 Y108 E13.45971
G1 X116.666 Y107.453 E13.47874
G1 X116.617 Y107.051 E13.49118
G1 X116.669 Y106.654 E13.50349
G1 X117.915 Y102.5 E13.63676
G1 X116.669 Y98.346 E13.77003
G1 X116.617 Y97.952 E13.78224
G1 F1500 E12.78224
G1 F600 Z0.35
G0 F6000 X117.705 Y97.861 Z0.35
G1 F600 Z0.15
G1 F1500 E13.78224
G1 F900 X117.772 Y97.703 E13.78752
G1 X117.903 Y97.592 E13.79279
G1 X118.072 Y97.552 E13.79813
G1 X126.928 Y97.552 E14.07028
G1 X127.095 Y97.591 E14.07555
G1 X127.227 Y97.702 E14.08085
G1 X127.295 Y97.859 E14.0861
G1 X127.285 Y98.032 E14.09143
G1 X125.945 Y102.5 E14.23477
G1 X127.285 Y106.968 E14.37812
G1 X127.295 Y107.139 E14.38338
G1 X127.228 Y107.297 E14.38866
G1 X127.097 Y107.408 E14.39393
G1 X126.928 Y107.448 E14.39927
G1 X118.072 Y107.448 E14.67142
G1 X117.905 Y107.409 E14.67669
G1 X117.773 Y107.298 E14.68199
G1 X117.705 Y107.141 E14.68724
G1 X117.715 Y106.968 E14.69257
G1 X119.055 Y102.5 E14.83591
G1 X117.715 Y98.032 E14.97926
G1 X117.705 Y97.861 E14.98452
G0 F6000 X117.16 Y97.893
G1 F900 X117.269 Y97.49 E14.99735
G1 X117.55 Y97.175 E15.01032
G1 X117.777 Y97.061 E15.01813
G1 X118.072 Y97.006 E15.02735
G1 X126.928 Y97.006 E15.2995
G1 X127.219 Y97.059 E15.30859
G1 X127.578 Y97.284 E15.32161
G1 X127.796 Y97.642 E15.33449
G1 X127.84 Y97.891 E15.34226
G1 X127.808 Y98.189 E15.35147
G1 X126.515 Y102.5 E15.48978
G1 X127.808 Y106.811 E15.62808
G1 X127.84 Y107.107 E15.63723
G1 X127.731 Y107.51 E15.65006
G1 X127.581 Y107.714 E15.65784
G1 X127.269 Y107.926 E15.66943
G1 X126.928 Y107.994 E15.68012
G1 X118.072 Y107.994 E15.95227
G1 X117.781 Y107.941 E15.96136
G1 X117.422 Y107.716 E15.97438
G1 X117.204 Y107.358 E15.98726
G1 X117.16 Y107.109 E15.99503
G1 X117.192 Y106.811 E16.00424
G1 X118.485 Y102.5 E16.14255
G1 X117.192 Y98.189 E16.28085
G1 X117.16 Y97.893 E16.29
G1 F1500 E15.29
G1 F600 Z0.35
G0 F6000 X117.597 Y89.017 Z0.35
G1 F600 Z0.15
G1 F1500 E16.29
G1 F900 X118.072 Y89.086 E16.30475
G1 X126.928 Y89.086 E16.5769
G1 X127.479 Y88.998 E16.59405
G1 X127.661 Y88.931 E16.60001
G1 X128.251 Y88.586 E16.62101
G1 X128.663 Y88.071 E16.64128
G1 X128.793 Y87.763 E16.65155
G1 X128.918 Y87.158 E16.67053
G1 X128.854 Y86.497 E16.69094
G1 X127.655 Y82.5 E16.81918
G1 X128.854 Y78.503 E16.94741
G1 X128.924 Y78.02 E16.96241
G1 X128.876 Y77.481 E16.97904
G1 X128.816 Y77.291 E16.98516
G1 X128.484 Y76.665 E17.00694
G1 X128.158 Y76.358 E17.0207
G1 X127.799 Y76.133 E17.03372
G1 X127.403 Y75.983 E17.04673
G1 X126.928 Y75.914 E17.06148
G1 X118.072 Y75.914 E17.33363
G1 X117.59 Y75.985 E17.3486
G1 X117.086 Y76.187 E17.36529
G1 X116.92 Y76.3 E17.37146
G1 X116.477 Y76.74 E17.39064
G1 X116.226 Y77.146 E17.40531
G1 X116.082 Y77.842 E17.42715
G1 X116.146 Y78.503 E17.44756
G1 X117.345 Y82.5 E17.5758
G1 X116.146 Y86.497 E17.70403
G1 X116.076 Y86.98 E17.71903
G1 X116.124 Y87.519 E17.73566
G1 X116.184 Y87.709 E17.74178
G1 X116.516 Y88.335 E17.76356
G1 X116.842 Y88.642 E17.77732
G1 X117.201 Y88.867 E17.79034
G1 X117.597 Y89.017 E17.80335
G0 F6000 X117.683 Y88.478
G1 F900 X117.491 Y88.404 E17.80968
G1 X117.132 Y88.179 E17.8227
G1 X116.956 Y88 E17.83041
G1 X116.666 Y87.453 E17.84943
G1 X116.617 Y87.051 E17.86188
G1 X116.669 Y86.654 E17.87418
G1 X117.915 Y82.5 E18.00746
G1 X116.669 Y78.346 E18.14073
G1 X116.617 Y77.952 E18.15294
G1 X116.742 Y77.347 E18.17193
G1 X116.862 Y77.127 E18.17963
G1 X117.305 Y76.687 E18.19881
G1 X117.677 Y76.524 E18.21129
G1 X118.072 Y76.46 E18.22359
G1 X126.928 Y76.46 E18.49574
G1 X127.317 Y76.522 E18.50784
G1 X127.509 Y76.596 E18.51417
G1 X127.868 Y76.821 E18.52719
G1 X128.044 Y77 E18.5349
G1 X128.334 Y77.547 E18.55393
G1 X128.383 Y77.949 E18.56637
G1 X128.331 Y78.346 E18.57867
G1 X127.085 Y82.5 E18.71195
G1 X128.331 Y86.654 E18.84522
G1 X128.383 Y87.048 E18.85743
G1 X128.258 Y87.653 E18.87642
G1 X128.171 Y87.833 E18.88256
G1 X127.888 Y88.166 E18.89599
G1 X127.385 Y88.46 E18.91389
G1 X126.928 Y88.54 E18.92815
G1 X118.072 Y88.54 E19.2003
G1 X117.683 Y88.478 E19.2124
G1 F1500 E18.2124
G1 F600 Z0.35
G0 F6000 X117.905 Y87.409 Z0.35
G1 F600 Z0.15
G1 F1500 E19.2124
G1 F900 X117.773 Y87.298 E19.2177
G1 X117.705 Y87.141 E19.22296
G1 X117.715 Y86.968 E19.22828
G1 X119.055 Y82.5 E19.37163
G1 X117.715 Y78.032 E19.51497
G1 X117.705 Y77.861 E19.52024
G1 X117.772 Y77.703 E19.52551
G1 X117.903 Y77.592 E19.53079
G1 X118.072 Y77.552 E19.53612
G1 X126.928 Y77.552 E19.80827
G1 X127.095 Y77.591 E19.81354
G1 X127.227 Y77.702 E19.81884
G1 X127.295 Y77.859 E19.8241
G1 X127.285 Y78.032 E19.82942
G1 X125.945 Y82.5 E19.97277
G1 X127.285 Y86.968 E20.11611
G1 X127.295 Y87.139 E20.12138
G1 X127.228 Y87.297 E20.12665
G1 X127.097 Y87.408 E20.13193
G1 X126.928 Y87.448 E20.13726
G1 X118.072 Y87.448 E20.40941
G1 X117.905 Y87.409 E20.41468
G0 F6000 X117.781 Y87.941
G1 F900 X117.422 Y87.716 E20.4277
G1 X117.204 Y87.358 E20.44058
G1 X117.16 Y87.109 E20.44835
G1 X117.192 Y86.811 E20.45756
G1 X118.485 Y82.5 E20.59587
G1 X117.192 Y78.189 E20.73418
G1 X117.16 Y77.893 E20.74333
G1 X117.269 Y77.49 E20.75616
G1 X117.55 Y77.175 E20.76913
G1 X117.777 Y77.061 E20.77693
G1 X118.072 Y77.006 E20.78616
G1 X126.928 Y77.006 E21.0583
G1 X127.219 Y77.059 E21.06739
G1 X127.578 Y77.284 E21.08041
G1 X127.796 Y77.642 E21.09329
G1 X127.84 Y77.891 E21.10106
G1 X127.808 Y78.189 E21.11027
G1 X126.515 Y82.5 E21.24858
G1 X127.808 Y86.811 E21.38689
G1 X127.84 Y87.107 E21.39604
G1 X127.731 Y87.51 E21.40887
G1 X127.581 Y87.714 E21.41665
G1 X127.269 Y87.926 E21.42824
G1 X126.928 Y87.994 E21.43893
G1 X118.072 Y87.994 E21.71107
G1 X117.781 Y87.941 E21.72016
G1 F1500 E20.72016
G1 F600 Z0.35
G0 F6000 X118.072 Y115.914 Z0.35
G1 F600 Z0.15
G1 F1500 E21.72016
G1 F900 X126.928 Y115.914 E21.99231
G1 X127.403 Y115.983 E22.00706
G1 X127.799 Y116.133 E22.02007
G1 X128.158 Y116.358 E22.03309
G1 X128.484 Y116.665 E22.04685
G1 X128.816 Y117.291 E22.06863
G1 X128.876 Y117.481 E22.07475
G1 X128.924 Y118.02 E22.09138
G1 X128.854 Y118.503 E22.10638
G1 X127.655 Y122.5 E22.23461
G1 X128.854 Y126.497 E22.36285
G1 X128.918 Y127.158 E22.38326
G1 X128.793 Y127.763 E22.40224
G1 X128.663 Y128.071 E22.41251
G1 X128.304 Y128.52 E22.43018
G1 X127.883 Y128.83 E22.44625
G1 X127.471 Y128.999 E22.45993
