;FLAVOR:Marlin
;TIME:1248
;Filament used: 0.429178m
;Layer height: 0.15
;MINX:99.579
;MINY:99.239
;MINZ:0.15
;MAXX:126.346
;MAXY:125.761
;MAXZ:3.2
;TARGET_MACHINE.NAME:ELEGOO NEPTUNE 3 Pro
;Generated with Cura_SteamEngine 5.8.1
M82 ;absolute extrusion mode
;;ELEGOO NEPTUNE 3 Pro
;M220 S100 ;Set the feed speed to 100%
;M221 S100 ;Set the flow rate to 100%
;G90 ;Absolute positioning
;G28 ;home
;;M420 S1 Z10;Uncomment to enable progressive compensation height of 10mm
;G92 E0 ;Reset Extruder
;G1 Z0.45 F300
;G1 X1.5 Y20 F5000.0 ;Move to start position
;G1 Y120.0 F600.0 E15 ;Draw the first line
;G1 X0.5 F1000.0 ;Move to side a little
;G1 Y20 F600 E30 ;Draw the second line
;G92 E0 ;Reset Extruder
;
;Use Klipper START_PRINT gcode macro
START_PRINT BED_TEMP=70 EXTRUDER_TEMP=210
G92 E0
G92 E0
G1 F1500 E-1
;LAYER_COUNT:20
;LAYER:0
M107
M204 S500
G1 F600 Z0.35
G0 F6000 X100.249 Y102.115 Z0.35
;TYPE:SKIRT
G1 F600 Z0.15
G1 F1500 E0
G1 F900 X100.848 Y101.737 E0.02177
G1 X101.529 Y101.585 E0.04321
G1 X113.186 Y101.585 E0.40143
G1 X116.101 Y99.564 E0.51043
G1 X116.759 Y99.291 E0.53232
G1 X117.102 Y99.239 E0.54298
G1 X124.335 Y99.239 E0.76526
G1 X124.81 Y99.308 E0.78001
G1 X125.206 Y99.458 E0.79302
G1 X125.565 Y99.683 E0.80604
G1 X125.816 Y99.909 E0.81642
G1 X126.194 Y100.508 E0.83818
G1 X126.346 Y101.189 E0.85963
G1 X126.346 Y123.75 E1.55293
G1 X126.277 Y124.225 E1.56768
G1 X126.044 Y124.81 E1.58703
G1 X125.582 Y125.307 E1.60788
G1 X125.255 Y125.537 E1.62017
G1 X124.495 Y125.761 E1.64452
G1 X117.143 Y125.761 E1.87045
G1 X116.454 Y125.614 E1.89209
G1 X116.137 Y125.461 E1.90291
G1 X113.186 Y123.415 E2.01326
G1 X101.59 Y123.415 E2.36961
G1 X101.115 Y123.346 E2.38436
G1 X100.719 Y123.196 E2.39737
G1 X100.36 Y122.971 E2.41039
G1 X100.109 Y122.745 E2.42077
G1 X99.731 Y122.146 E2.44254
G1 X99.579 Y121.465 E2.46398
G1 X99.579 Y103.596 E3.0131
G1 X99.648 Y103.121 E3.02785
G1 X99.798 Y102.725 E3.04086
G1 X100.023 Y102.366 E3.05388
G1 X100.249 Y102.115 E3.06426
G0 F6000 X100.642 Y102.494
G1 F900 X101.058 Y102.25 E3.07908
G1 X101.59 Y102.131 E3.09583
G1 X113.357 Y102.131 E3.45743
G1 X116.366 Y100.045 E3.56995
G1 X116.906 Y99.821 E3.58791
G1 X117.102 Y99.785 E3.59404
G1 X124.335 Y99.785 E3.81631
G1 X124.724 Y99.847 E3.82841
G1 X124.916 Y99.921 E3.83474
G1 X125.275 Y100.146 E3.84775
G1 X125.437 Y100.302 E3.85467
G1 X125.681 Y100.718 E3.86949
G1 X125.8 Y101.25 E3.88624
G1 X125.8 Y123.75 E4.57767
G1 X125.738 Y124.139 E4.58977
G1 X125.575 Y124.513 E4.60231
G1 X125.182 Y124.935 E4.62003
G1 X125.018 Y125.037 E4.62597
G1 X124.415 Y125.215 E4.64529
G1 X117.201 Y125.215 E4.86697
G1 X116.632 Y125.094 E4.88485
G1 X116.448 Y125.012 E4.89104
G1 X113.357 Y122.869 E5.00662
G1 X101.59 Y122.869 E5.36823
G1 X101.201 Y122.807 E5.38033
G1 X101.009 Y122.733 E5.38665
G1 X100.65 Y122.508 E5.39967
G1 X100.488 Y122.352 E5.40659
G1 X100.244 Y121.936 E5.42141
G1 X100.125 Y121.404 E5.43816
G1 X100.125 Y103.596 E5.9854
G1 X100.187 Y103.207 E5.99751
G1 X100.261 Y103.015 E6.00383
G1 X100.486 Y102.656 E6.01685
G1 X100.642 Y102.494 E6.02376
G1 F1500 E5.02376
G1 F600 Z0.35
G0 F6000 X101.367 Y103.297 Z0.35
G1 F600 Z0.15
G1 F1500 E6.02376
G1 F900 X101.59 Y103.223 E6.03098
G1 X113.699 Y103.223 E6.40309
G1 X116.988 Y100.943 E6.52607
G1 X117.201 Y100.877 E6.53293
G1 X124.335 Y100.877 E6.75216
G1 X124.502 Y100.916 E6.75743
G1 X124.634 Y101.027 E6.76273
G1 X124.708 Y101.25 E6.76995
G1 X124.708 Y123.75 E7.46138
G1 X124.669 Y123.917 E7.46665
G1 X124.558 Y124.049 E7.47195
G1 X124.335 Y124.123 E7.47917
G1 X117.201 Y124.123 E7.69839
G1 X116.988 Y124.057 E7.70525
G1 X113.699 Y121.777 E7.82823
G1 X101.59 Y121.777 E8.20034
G1 X101.423 Y121.738 E8.20561
G1 X101.291 Y121.627 E8.21091
G1 X101.217 Y121.404 E8.21813
G1 X101.217 Y103.596 E8.76537
G1 X101.256 Y103.429 E8.77064
G1 X101.367 Y103.297 E8.77594
G0 F6000 X101.195 Y102.779
G1 F900 X101.59 Y102.677 E8.78848
G1 X113.528 Y102.677 E9.15534
G1 X116.677 Y100.494 E9.27309
G1 X117.102 Y100.331 E9.28707
G1 X124.335 Y100.331 E9.50935
G1 X124.626 Y100.384 E9.51843
G1 X124.985 Y100.609 E9.53145
G1 X125.152 Y100.855 E9.54059
G1 X125.254 Y101.25 E9.55313
G1 X125.254 Y123.75 E10.24456
G1 X125.201 Y124.041 E10.25365
G1 X125.087 Y124.268 E10.26145
G1 X124.814 Y124.531 E10.2731
G1 X124.335 Y124.669 E10.28842
G1 X117.201 Y124.669 E10.50765
G1 X116.759 Y124.563 E10.52162
G1 X113.528 Y122.323 E10.64243
G1 X101.59 Y122.323 E11.00929
G1 X101.299 Y122.27 E11.01838
G1 X100.94 Y122.045 E11.0314
G1 X100.773 Y121.799 E11.04054
G1 X100.671 Y121.404 E11.05307
G1 X100.671 Y103.596 E11.60032
G1 X100.724 Y103.305 E11.60941
G1 X100.949 Y102.946 E11.62243
G1 X101.195 Y102.779 E11.63156
G1 F1500 E10.63156
G1 F600 Z0.35
G0 F6000 X107.943 Y111.123 Z0.35
G1 F600 Z0.15
G1 F1500 E11.63156
G1 F900 X108.681 Y110.916 E11.65512
G1 X109.448 Y111.132 E11.6796
G1 X110.003 Y111.713 E11.7043
G1 X110.207 Y112.419 E11.72688
G1 X109.985 Y113.211 E11.75216
G1 X109.362 Y113.835 E11.77925
G1 X108.621 Y114.042 E11.80289
G1 X107.915 Y113.835 E11.8255
G1 X107.34 Y113.26 E11.85049
G1 X107.112 Y112.49 E11.87517
G1 X107.316 Y111.783 E11.89778
G1 X107.943 Y111.123 E11.92576
G0 F6000 X108.235 Y111.608
G1 F900 X108.682 Y111.483 E11.94002
G1 X109.155 Y111.616 E11.95512
G1 X109.515 Y111.993 E11.97114
G1 X109.639 Y112.423 E11.98489
G1 X109.498 Y112.925 E12.00092
G1 X109.076 Y113.348 E12.01928
G1 X108.624 Y113.474 E12.0337
G1 X108.203 Y113.351 E12.04717
G1 X107.823 Y112.971 E12.06369
G1 X107.681 Y112.49 E12.0791
G1 X107.805 Y112.062 E12.09279
G1 X108.235 Y111.608 E12.11201
G0 F6000 X108.529 Y112.092
G1 F900 X108.68 Y112.05 E12.11683
G1 X108.864 Y112.102 E12.1227
G1 X109.028 Y112.274 E12.13001
G1 X109.072 Y112.425 E12.13484
G1 X109.012 Y112.64 E12.1417
G1 X108.791 Y112.861 E12.1513
G1 X108.628 Y112.906 E12.1565
G1 X108.49 Y112.866 E12.16091
G1 X108.308 Y112.684 E12.16882
G1 X108.25 Y112.487 E12.17513
G1 X108.292 Y112.342 E12.17977
G1 X108.529 Y112.092 E12.19036
G1 F1500 E11.19036
G1 F600 Z0.35
G0 F6000 X117.112 Y112.49 Z0.35
G1 F600 Z0.15
G1 F1500 E12.19036
G1 F900 X117.316 Y111.783 E12.21297
G1 X117.943 Y111.123 E12.24095
G1 X118.681 Y110.916 E12.2645
G1 X119.486 Y111.144 E12.29021
G1 X120.052 Y111.737 E12.3154
G1 X120.278 Y112.509 E12.34012
G1 X120.073 Y113.249 E12.36372
G1 X119.533 Y113.789 E12.38719
G1 X118.621 Y114.042 E12.41627
G1 X117.915 Y113.835 E12.43888
G1 X117.34 Y113.26 E12.46387
G1 X117.112 Y112.49 E12.48855
G0 F6000 X117.681 Y112.49
G1 F900 X117.805 Y112.062 E12.50224
G1 X118.235 Y111.608 E12.52146
G1 X118.681 Y111.483 E12.53569
G1 X119.193 Y111.628 E12.55204
G1 X119.565 Y112.018 E12.56861
G1 X119.71 Y112.514 E12.58449
G1 X119.586 Y112.964 E12.59883
G1 X119.248 Y113.302 E12.61352
G1 X118.625 Y113.474 E12.63338
G1 X118.203 Y113.351 E12.64689
G1 X117.823 Y112.971 E12.6634
G1 X117.681 Y112.49 E12.67881
G0 F6000 X118.25 Y112.487
G1 F900 X118.292 Y112.342 E12.68345
G1 X118.529 Y112.092 E12.69404
G1 X118.68 Y112.05 E12.69886
G1 X118.902 Y112.113 E12.70595
G1 X119.078 Y112.297 E12.71377
G1 X119.143 Y112.518 E12.72085
G1 X119.098 Y112.68 E12.72602
G1 X118.964 Y112.814 E12.73184
G1 X118.63 Y112.907 E12.7425
G1 X118.49 Y112.866 E12.74698
G1 X118.308 Y112.684 E12.75489
G1 X118.25 Y112.487 E12.7612
G1 F1500 E11.7612
G1 F600 Z0.35
;MESH:xxx_-_declaration_ring_det4_w_b_2x.stl 2
G0 F6000 X118.48 Y115.983 Z0.35
;TYPE:WALL-INNER
G1 F600 Z0.15
G1 F1500 E12.7612
G1 F900 X117.906 Y115.906 E12.779
G1 X117.321 Y115.712 E12.79794
G1 X116.842 Y115.467 E12.81447
G1 X116.247 Y115.004 E12.83764
G1 X115.85 Y114.527 E12.85671
G1 X115.547 Y114.016 E12.87496
G1 X115.313 Y113.37 E12.89608
G1 X115.212 Y112.781 E12.91444
G1 X115.219 Y112.147 E12.93393
G1 X115.308 Y111.645 E12.94959
G1 X115.473 Y111.143 E12.96583
G1 X115.749 Y110.617 E12.98409
G1 X116.006 Y110.268 E12.99741
G1 X116.401 Y109.853 E13.01501
G1 X116.909 Y109.497 E13.03407
G1 X117.414 Y109.247 E13.05139
G1 X117.814 Y109.119 E13.0643
G1 X118.415 Y109.012 E13.08306
G1 X119.034 Y109.022 E13.10208
G1 X119.545 Y109.111 E13.11802
G1 X120.1 Y109.3 E13.13604
G1 X120.612 Y109.58 E13.15397
G1 X121.152 Y110.006 E13.17511
G1 X121.547 Y110.484 E13.19416
G1 X121.859 Y111.025 E13.21335
G1 X122.092 Y111.672 E13.23449
G1 X122.179 Y112.288 E13.2536
G1 X122.17 Y112.837 E13.27048
G1 X122.108 Y113.242 E13.28307
G1 X121.944 Y113.775 E13.3002
G1 X121.698 Y114.281 E13.31749
G1 X121.397 Y114.709 E13.33357
G1 X121.028 Y115.096 E13.35001
G1 X120.534 Y115.476 E13.36916
G1 X119.981 Y115.746 E13.38807
G1 X119.449 Y115.91 E13.40518
G1 X119.028 Y115.974 E13.41826
G1 X118.48 Y115.983 E13.43511
G1 F1500 E12.43511
G1 F600 Z0.35
G0 F6000 X123.513 Y122.929 Z0.35
G1 F600 Z0.15
G1 F1500 E13.43511
G1 F900 X123.513 Y102.067 E14.0762
G1 X117.457 Y102.067 E14.2623
G1 X114.198 Y104.321 E14.38407
G1 X113.896 Y104.416 E14.3938
G1 X102.408 Y104.416 E14.74683
G1 X102.408 Y120.584 E15.24367
G1 X113.873 Y120.587 E15.59599
G1 X114.206 Y120.683 E15.60664
G1 X117.456 Y122.929 E15.72805
G1 X123.513 Y122.929 E15.91418
G1 F1500 E14.91418
G1 F600 Z0.35
G0 F6000 X108.48 Y115.983 Z0.35
G1 F600 Z0.15
G1 F1500 E15.91418
G1 F900 X107.966 Y115.914 E15.93012
G1 X107.354 Y115.73 E15.94975
G1 X106.819 Y115.451 E15.9683
G1 X106.305 Y115.048 E15.98837
G1 X105.915 Y114.615 E16.00628
G1 X105.559 Y114.053 E16.02672
G1 X105.297 Y113.329 E16.05038
G1 X105.209 Y112.708 E16.06965
G1 X105.218 Y112.158 E16.08656
G1 X105.308 Y111.645 E16.10256
G1 X105.443 Y111.221 E16.11624
G1 X105.69 Y110.715 E16.13354
G1 X105.991 Y110.287 E16.14962
G1 X106.353 Y109.904 E16.16581
G1 X106.822 Y109.549 E16.18389
G1 X107.345 Y109.269 E16.20212
G1 X107.933 Y109.091 E16.221
G1 X108.484 Y109.013 E16.2381
G1 X109.034 Y109.022 E16.255
G1 X109.545 Y109.111 E16.27094
G1 X110.1 Y109.3 E16.28896
G1 X110.611 Y109.58 E16.30687
G1 X111.147 Y110.002 E16.32783
G1 X111.485 Y110.396 E16.34378
G1 X111.825 Y110.937 E16.36342
G1 X112.075 Y111.626 E16.38594
G1 X112.17 Y112.161 E16.40264
G1 X112.176 Y112.783 E16.42176
G1 X112.1 Y113.292 E16.43757
G1 X111.915 Y113.853 E16.45572
G1 X111.629 Y114.393 E16.4745
G1 X111.386 Y114.724 E16.48712
G1 X111.028 Y115.096 E16.50299
G1 X110.53 Y115.478 E16.52227
G1 X109.981 Y115.746 E16.54105
G1 X109.466 Y115.907 E16.55763
G1 X109.028 Y115.974 E16.57124
G1 X108.48 Y115.983 E16.58809
G0 F6000 X108.946 Y115.434
;TYPE:WALL-OUTER
G1 F600 X108.438 Y115.434 E16.6037
G1 X108.009 Y115.365 E16.61705
G1 X107.54 Y115.212 E16.63221
G1 X107.114 Y114.991 E16.64696
G1 X106.643 Y114.619 E16.6654
G1 X106.331 Y114.261 E16.68
G1 X106.043 Y113.785 E16.69709
G1 X105.826 Y113.172 E16.71707
G1 X105.758 Y112.752 E16.73015
G1 X105.755 Y112.284 E16.74453
G1 X105.818 Y111.854 E16.75789
G1 X105.98 Y111.347 E16.77424
G1 X106.199 Y110.926 E16.78883
G1 X106.456 Y110.581 E16.80205
G1 X106.779 Y110.254 E16.81617
G1 X107.161 Y109.981 E16.8306
G1 X107.537 Y109.785 E16.84363
G1 X108.02 Y109.63 E16.85922
G1 X108.44 Y109.562 E16.87229
G1 X108.95 Y109.562 E16.88796
G1 X109.379 Y109.631 E16.90132
G1 X109.85 Y109.785 E16.91655
G1 X110.273 Y110.009 E16.93125
G1 X110.783 Y110.417 E16.95132
G1 X111.061 Y110.74 E16.96442
G1 X111.339 Y111.196 E16.98083
G1 X111.553 Y111.787 E17.00015
G1 X111.63 Y112.245 E17.01442
G1 X111.632 Y112.736 E17.02951
G1 X111.57 Y113.147 E17.04228
G1 X111.415 Y113.634 E17.05799
G1 X111.189 Y114.07 E17.07308
G1 X110.953 Y114.391 E17.08532
G1 X110.607 Y114.74 E17.10042
G1 X110.225 Y115.02 E17.11498
G1 X109.849 Y115.212 E17.12795
G1 X109.41 Y115.36 E17.14219
G1 X108.946 Y115.434 E17.15663
G0 F6000 X108.746 Y115.434
G1 F1500 E16.15663
G1 F600 Z0.35
G0 F6000 X118.946 Y115.434 Z0.35
G1 F600 Z0.15
G1 F1500 E17.15663
G1 F600 X118.438 Y115.434 E17.17224
G1 X118.009 Y115.365 E17.18559
G1 X117.581 Y115.229 E17.19939
G1 X117.136 Y115.007 E17.21467
G1 X116.627 Y114.606 E17.23459
G1 X116.327 Y114.256 E17.24875
G1 X116.049 Y113.8 E17.26516
G1 X115.835 Y113.209 E17.28448
G1 X115.756 Y112.733 E17.29931
G1 X115.759 Y112.231 E17.31473
G1 X115.828 Y111.812 E17.32778
G1 X115.973 Y111.362 E17.34231
G1 X116.199 Y110.926 E17.3574
G1 X116.436 Y110.604 E17.36969
G1 X116.761 Y110.269 E17.38403
G1 X117.161 Y109.981 E17.39918
G1 X117.58 Y109.767 E17.41364
G1 X117.98 Y109.639 E17.42654
G1 X118.44 Y109.562 E17.44088
G1 X118.95 Y109.562 E17.45655
G1 X119.379 Y109.631 E17.4699
G1 X119.85 Y109.785 E17.48513
G1 X120.274 Y110.009 E17.49987
G1 X120.783 Y110.417 E17.51991
G1 X121.081 Y110.769 E17.53409
G1 X121.345 Y111.211 E17.54991
G1 X121.562 Y111.824 E17.56989
G1 X121.63 Y112.244 E17.58296
G1 X121.63 Y112.754 E17.59864
G1 X121.57 Y113.148 E17.61088
G1 X121.408 Y113.649 E17.62706
G1 X121.212 Y114.033 E17.64031
G1 X120.957 Y114.386 E17.6537
G1 X120.639 Y114.712 E17.66769
G1 X120.225 Y115.02 E17.68355
G1 X119.849 Y115.212 E17.69652
G1 X119.41 Y115.36 E17.71076
G1 X118.946 Y115.434 E17.7252
G0 F6000 X118.746 Y115.434
G1 F1500 E16.7252
G1 F600 Z0.35
G0 F6000 X124.059 Y123.475 Z0.35
G1 F600 Z0.15
G1 F1500 E17.7252
G1 F600 X124.059 Y101.521 E18.39985
G1 X117.286 Y101.521 E18.60798
G1 X113.944 Y103.838 E18.73295
G1 X113.854 Y103.867 E18.73586
G1 X101.862 Y103.87 E19.10437
G1 X101.862 Y121.13 E19.63478
G1 X113.855 Y121.133 E20.00332
G1 X113.946 Y121.163 E20.00627
G1 X117.286 Y123.475 E20.1311
G1 X124.059 Y123.475 E20.33923
G0 F6000 X124.059 Y123.275
G1 F1500 E19.33923
G1 F600 Z0.35
G0 F6000 X108.444 Y116.503 Z0.35
;TYPE:SKIN
G1 F600 Z0.15
G1 F1500 E20.33923
G1 F900 X109.07 Y116.493 E20.35847
G1 X109.546 Y116.422 E20.37326
G1 X110.14 Y116.246 E20.3923
G1 X110.783 Y115.938 E20.41421
G1 X111.38 Y115.484 E20.43726
G1 X111.783 Y115.064 E20.45515
G1 X112.082 Y114.655 E20.47071
G1 X112.404 Y114.034 E20.49221
G1 X112.609 Y113.413 E20.51231
G1 X112.696 Y112.838 E20.53018
G1 X112.701 Y112.143 E20.55154
G1 X112.573 Y111.466 E20.57271
G1 X112.279 Y110.673 E20.5987
G1 X111.884 Y110.054 E20.62126
G1 X111.489 Y109.6 E20.63976
G1 X110.902 Y109.145 E20.66258
G1 X110.35 Y108.837 E20.682
G1 X109.709 Y108.613 E20.70287
G1 X109.117 Y108.503 E20.72137
G1 X108.446 Y108.489 E20.742
G1 X107.796 Y108.582 E20.76218
G1 X107.164 Y108.774 E20.78247
G1 X106.521 Y109.115 E20.80484
G1 X105.968 Y109.541 E20.82629
G1 X105.588 Y109.949 E20.84343
G1 X105.218 Y110.48 E20.86331
G1 X104.954 Y111.024 E20.8819
G1 X104.807 Y111.482 E20.89668
G1 X104.699 Y112.076 E20.91523
G1 X104.685 Y112.745 E20.93579
G1 X104.777 Y113.421 E20.95676
G1 X105.035 Y114.15 E20.98052
G1 X105.381 Y114.774 E21.00245
G1 X105.858 Y115.364 E21.02576
G1 X106.507 Y115.872 E21.05109
G1 X107.132 Y116.206 E21.07287
G1 X107.892 Y116.431 E21.09722
G1 X108.444 Y116.503 E21.11433
G1 F1500 E20.11433
G1 F600 Z0.35
G0 F6000 X122.834 Y112.03 Z0.35
G1 F600 Z0.15
G1 F1500 E21.11433
G1 F703 X122.564 Y111.447 E21.13961
G1 F900 X122.349 Y110.843 E21.15931
G1 X122.003 Y110.218 E21.18126
G1 X121.499 Y109.614 E21.20544
G1 X120.847 Y109.094 E21.23107
G1 X120.163 Y108.758 E21.25448
G1 X119.508 Y108.562 E21.27549
G1 X119.114 Y108.502 E21.28774
G1 X118.447 Y108.489 E21.30824
G1 X117.851 Y108.569 E21.32672
G1 X117.181 Y108.766 E21.34818
G1 X116.558 Y109.091 E21.36978
G1 X116.061 Y109.457 E21.38874
G1 X115.616 Y109.909 E21.40824
G1 X115.302 Y110.34 E21.42462
G1 X114.999 Y110.913 E21.44454
G1 X114.808 Y111.482 E21.46298
G1 X114.688 Y112.136 E21.48342
G1 X114.695 Y112.886 E21.50647
G1 X114.803 Y113.493 E21.52541
G1 X115.089 Y114.294 E21.55155
G1 X115.497 Y114.934 E21.57487
G1 X115.899 Y115.39 E21.59355
G1 X116.572 Y115.918 E21.61984
G1 X117.126 Y116.2 E21.63894
G1 X117.766 Y116.412 E21.65966
G1 X118.445 Y116.503 E21.68071
G1 X119.068 Y116.497 E21.69986
G1 X119.709 Y116.385 E21.71986
G1 X120.346 Y116.157 E21.74065
G1 X120.866 Y115.877 E21.7588
G1 X121.406 Y115.457 E21.77982
G1 X121.821 Y115.016 E21.79843
G1 X122.145 Y114.548 E21.81592
G1 X122.442 Y113.933 E21.83691
G1 F771.4 X122.813 Y113.346 E21.8618
G1 X122.987 Y114.014 E21.88655
G1 F900 X122.987 Y122.403 E22.14435
G1 X117.622 Y122.403 E22.30922
G1 X114.478 Y120.229 E22.42668
G1 X114.184 Y120.111 E22.43642
G1 X113.903 Y120.059 E22.4452
G1 X102.934 Y120.058 E22.78228
G1 X102.934 Y104.941 E23.24682
G1 X113.895 Y104.936 E23.58366
G1 X114.468 Y104.776 E23.60194
G1 X117.622 Y102.589 E23.71988
G1 X122.987 Y102.589 E23.88475
