;FLAVOR:Marlin
;TIME:6971
;Filament used: 2.42263m
;Layer height: 0.15
;MINX:74.595
;MINY:75.406
;MINZ:0.15
;MAXX:150.412
;MAXY:149.62
;MAXZ:16.8
;TARGET_MACHINE.NAME:ELEGOO NEPTUNE 3 Pro
;Generated with Cura_SteamEngine 5.8.1
M82 ;absolute extrusion mode
;;ELEGOO NEPTUNE 3 Pro
;M220 S100 ;Set the feed speed to 100%
;M221 S100 ;Set the flow rate to 100%
;G90 ;Absolute positioning
;G28 ;home
;;M420 S1 Z10;Uncomment to enable progressive compensation height of 10mm
;G92 E0 ;Reset Extruder
;G1 Z0.45 F300
;G1 X1.5 Y20 F5000.0 ;Move to start position
;G1 Y120.0 F600.0 E15 ;Draw the first line
;G1 X0.5 F1000.0 ;Move to side a little
;G1 Y20 F600 E30 ;Draw the second line
;G92 E0 ;Reset Extruder
;
;Use Klipper START_PRINT gcode macro
START_PRINT BED_TEMP=70 EXTRUDER_TEMP=210
G92 E0
G92 E0
G1 F1500 E-1
;LAYER_COUNT:112
;LAYER:0
M107
M204 S500
G1 F600 Z0.35
G0 F6000 X80.258 Y84.522 Z0.35
;TYPE:SKIRT
G1 F600 Z0.15
G1 F1500 E0
G1 F900 X80.832 Y84.151 E0.021
G1 X81.475 Y83.988 E0.04139
G1 X103.545 Y83.151 E0.72009
G1 X103.757 Y82.924 E0.72963
G1 X104.164 Y82.618 E0.74528
G1 X104.847 Y82.313 E0.76827
G1 X105.551 Y82.213 E0.79012
G1 X107.163 Y82.211 E0.83966
G1 X107.367 Y81.276 E0.86907
G1 X107.644 Y80.655 E0.88996
G1 X107.848 Y80.388 E0.90029
G1 X108.383 Y79.877 E0.92302
G1 X108.78 Y79.596 E0.93797
G1 X108.97 Y79.511 E0.94437
G1 X109.645 Y79.352 E0.96568
G1 X130.193 Y75.406 E1.60866
G1 X130.924 Y75.42 E1.63113
G1 X131.489 Y75.629 E1.64964
G1 X132.16 Y76.033 E1.67371
G1 X132.695 Y76.534 E1.69623
G1 X132.974 Y77.063 E1.71461
G1 X135.146 Y84.109 E1.94119
G1 X135.211 Y84.801 E1.96255
G1 X135.055 Y85.408 E1.98181
G1 X134.824 Y85.841 E1.99689
G1 X134.282 Y86.576 E2.02495
G1 X133.894 Y86.917 E2.04083
G1 X133.388 Y87.178 E2.05832
G1 X132.785 Y87.305 E2.07726
G1 X128.25 Y87.305 E2.21662
G1 X128.25 Y89.456 E2.28272
G1 X128.419 Y89.471 E2.28793
G1 X129.05 Y89.623 E2.30788
G1 X129.599 Y89.983 E2.32805
G1 X130.205 Y90.589 E2.35439
G1 X130.617 Y91.236 E2.37796
G1 X130.75 Y91.88 E2.39817
G1 X130.75 Y94.025 E2.46409
G1 X130.585 Y94.775 E2.48769
G1 X130.223 Y95.327 E2.50797
G1 X129.617 Y95.933 E2.53431
G1 X129.054 Y96.291 E2.55481
G1 X128.451 Y96.464 E2.57409
G1 X128.25 Y96.478 E2.58028
G1 X128.25 Y97.966 E2.62601
G1 X134.602 Y97.967 E2.8212
G1 X135.281 Y98.11 E2.84253
G1 X135.584 Y98.253 E2.85282
G1 X136.174 Y98.646 E2.87461
G1 X136.654 Y99.134 E2.89564
G1 X136.83 Y99.424 E2.90607
G1 X137.237 Y100.398 E2.93851
G1 X137.485 Y100.635 E2.94905
G1 X137.753 Y101.052 E2.96428
G1 X138.351 Y102.486 E3.01203
G1 X138.434 Y102.869 E3.02407
G1 X138.432 Y103.257 E3.03599
G1 X140.795 Y108.912 E3.22433
G1 X140.93 Y109.516 E3.24335
G1 X140.905 Y110.051 E3.25981
G1 X140.81 Y110.358 E3.26969
G1 X140.487 Y110.974 E3.29106
G1 X140.08 Y111.323 E3.30754
G1 X139.675 Y111.538 E3.32163
G1 X139.384 Y111.619 E3.33091
G1 X144.316 Y125.172 E3.77412
G1 X146.311 Y125.172 E3.83542
G1 X146.988 Y125.312 E3.85667
G1 X147.498 Y125.616 E3.87491
G1 X147.815 Y125.93 E3.88862
G1 X148.082 Y126.343 E3.90374
G1 X150.35 Y131.766 E4.08437
G1 X150.412 Y132.685 E4.11268
G1 X150.286 Y133.34 E4.13318
G1 X149.454 Y135.491 E4.20405
G1 X149.54 Y136.145 E4.22432
G1 X149.412 Y136.78 E4.24423
G1 X149.044 Y137.731 E4.27556
G1 X148.75 Y138.177 E4.29198
G1 X148.652 Y138.749 E4.30981
G1 X148.256 Y139.774 E4.34358
G1 X148.05 Y140.107 E4.35561
G1 X147.688 Y140.491 E4.37183
G1 X147.465 Y140.638 E4.38004
G1 X146.102 Y144.163 E4.49618
G1 X145.882 Y144.541 E4.50962
G1 X145.559 Y144.867 E4.52372
G1 X145.559 Y146.667 E4.57903
G1 X145.394 Y147.417 E4.60263
G1 X145.032 Y147.969 E4.62292
G1 X143.926 Y149.075 E4.67098
G1 X143.279 Y149.487 E4.69455
G1 X142.635 Y149.62 E4.71476
G1 X130.243 Y149.62 E5.09557
G1 X129.493 Y149.455 E5.11917
G1 X128.941 Y149.093 E5.13946
G1 X127.835 Y147.987 E5.18752
G1 X127.423 Y147.34 E5.21109
G1 X127.29 Y146.696 E5.2313
G1 X127.29 Y145.343 E5.27288
G1 X126.838 Y145.186 E5.28758
G1 X126.479 Y144.961 E5.3006
G1 X126.153 Y144.654 E5.31436
G1 X125.822 Y144.03 E5.33607
G1 X125.761 Y143.834 E5.34238
G1 X125.717 Y143.266 E5.35988
G1 X125.786 Y142.819 E5.37378
G1 X125.947 Y142.389 E5.38789
G1 X129.456 Y137.736 E5.56698
G1 X129.85 Y137.382 E5.58326
G1 X130.006 Y137.013 E5.59557
G1 X130.993 Y135.702 E5.646
G1 X131.178 Y135.524 E5.65389
G1 X130.269 Y135.26 E5.68298
G1 X129.586 Y134.884 E5.70694
G1 X128.664 Y133.964 E5.74696
G1 X128.263 Y133.391 E5.76845
G1 X127.889 Y132.111 E5.80943
G1 X127.832 Y131.446 E5.82994
G1 X127.878 Y131.121 E5.84003
G1 X128.209 Y129.994 E5.87613
G1 X128.518 Y129.403 E5.89662
G1 X128.963 Y128.958 E5.91596
G1 X128.01 Y127.859 E5.96066
G1 X127.194 Y128.676 E5.99615
G1 X126.598 Y129.087 E6.01839
G1 X125.019 Y129.528 E6.06877
G1 X124.366 Y129.578 E6.0889
G1 X124.049 Y129.532 E6.09874
G1 X122.679 Y129.131 E6.14261
G1 X121.994 Y128.753 E6.16665
G1 X120.867 Y127.627 E6.21561
G1 X120.446 Y126.966 E6.23969
G1 X120.028 Y125.535 E6.2855
G1 X119.971 Y124.872 E6.30595
G1 X120.017 Y124.549 E6.31598
G1 X120.415 Y123.185 E6.35964
G1 X120.775 Y122.518 E6.38293
G1 X121.795 Y121.444 E6.42845
G1 X122.19 Y121.149 E6.4436
G1 X119.25 Y117.758 E6.58152
G1 X118.658 Y118.35 E6.60725
G1 X118.062 Y118.761 E6.6295
G1 X116.47 Y119.206 E6.68029
G1 X115.82 Y119.256 E6.70033
G1 X115.502 Y119.21 E6.7102
G1 X114.114 Y118.806 E6.75462
G1 X113.43 Y118.43 E6.77861
G1 X112.288 Y117.288 E6.82824
G1 X111.869 Y116.628 E6.85226
G1 X111.444 Y115.183 E6.89855
G1 X111.387 Y114.516 E6.91912
G1 X111.433 Y114.193 E6.92915
G1 X111.837 Y112.811 E6.97339
G1 X112.189 Y112.154 E6.9963
G1 X113.121 Y111.173 E7.03788
G1 X113.365 Y110.978 E7.04748
G1 X108.085 Y104.89 E7.29512
G1 X107.737 Y104.268 E7.31703
G1 X107.596 Y103.725 E7.33427
G1 X105.448 Y103.725 E7.40027
G1 X104.728 Y103.574 E7.42288
G1 X104.119 Y103.288 E7.44356
G1 X103.73 Y102.989 E7.45863
G1 X103.539 Y102.783 E7.46727
G1 X81.529 Y101.947 E8.14413
G1 X80.963 Y101.84 E8.16183
G1 X80.347 Y101.473 E8.18386
G1 X80.082 Y101.228 E8.19495
G1 X79.732 Y100.642 E8.21593
G1 X79.595 Y99.992 E8.23634
G1 X79.595 Y97.978 E8.29823
G1 X77.548 Y97.978 E8.36114
G1 X76.798 Y97.813 E8.38474
G1 X76.246 Y97.451 E8.40502
G1 X75.14 Y96.345 E8.45309
G1 X74.728 Y95.698 E8.47666
G1 X74.595 Y95.054 E8.49687
G1 X74.595 Y90.909 E8.62424
G1 X74.76 Y90.159 E8.64784
G1 X75.122 Y89.607 E8.66813
G1 X76.228 Y88.501 E8.71619
G1 X76.875 Y88.089 E8.73976
G1 X77.519 Y87.956 E8.75997
G1 X79.595 Y87.956 E8.82377
G1 X79.595 Y85.997 E8.88397
G1 X79.664 Y85.522 E8.89872
G1 X79.814 Y85.126 E8.91173
G1 X80.039 Y84.767 E8.92475
G1 X80.258 Y84.522 E8.93485
G0 F6000 X80.653 Y84.899
G1 F900 X80.502 Y85.057 E8.94157
G1 X80.277 Y85.416 E8.95459
G1 X80.203 Y85.608 E8.96091
G1 X80.141 Y85.997 E8.97301
G1 X80.141 Y88.502 E9.04999
G1 X77.519 Y88.502 E9.13057
G1 X77.084 Y88.604 E9.1443
G1 X76.57 Y88.931 E9.16302
G1 X75.508 Y89.993 E9.20917
G1 X75.271 Y90.375 E9.22299
G1 X75.141 Y90.967 E9.24161
G1 X75.141 Y95.054 E9.36721
G1 X75.243 Y95.489 E9.38094
G1 X75.57 Y96.003 E9.39966
G1 X76.632 Y97.065 E9.44581
G1 X77.014 Y97.302 E9.45963
G1 X77.606 Y97.432 E9.47825
G1 X80.141 Y97.432 E9.55615
G1 X80.141 Y99.936 E9.6331
G1 X80.247 Y100.439 E9.6489
G1 X80.473 Y100.847 E9.66323
G1 X80.626 Y101.004 E9.66997
G1 X81.159 Y101.321 E9.68902
G1 X81.55 Y101.401 E9.70129
G1 X103.793 Y102.246 E10.38531
G1 X104.078 Y102.568 E10.39853
G1 X104.351 Y102.794 E10.40942
G1 X104.903 Y103.053 E10.42816
G1 X105.503 Y103.179 E10.447
G1 X108.037 Y103.179 E10.52487
G1 X108.214 Y104.002 E10.55074
G1 X108.535 Y104.576 E10.57095
G1 X114.247 Y111.162 E10.83885
G1 X113.831 Y111.31 E10.85242
G1 X113.517 Y111.549 E10.86454
G1 X112.635 Y112.477 E10.90389
G1 X112.345 Y113.018 E10.92275
G1 X111.957 Y114.346 E10.96527
G1 X111.936 Y114.532 E10.97102
G1 X111.983 Y115.081 E10.98795
G1 X112.371 Y116.4 E11.0302
G1 X112.718 Y116.946 E11.05008
G1 X113.76 Y117.988 E11.09537
G1 X114.327 Y118.299 E11.11524
G1 X115.655 Y118.686 E11.15775
G1 X115.837 Y118.707 E11.16338
G1 X116.372 Y118.666 E11.17987
G1 X117.829 Y118.259 E11.22635
G1 X118.306 Y117.93 E11.24416
G1 X118.931 Y117.305 E11.27132
G1 X119.191 Y116.856 E11.28727
G1 X123.117 Y121.384 E11.47143
G1 X122.565 Y121.551 E11.48916
G1 X122.191 Y121.82 E11.50331
G1 X121.219 Y122.843 E11.54668
G1 X120.923 Y123.391 E11.56582
G1 X120.541 Y124.702 E11.60778
G1 X120.52 Y124.888 E11.61353
G1 X120.567 Y125.435 E11.6304
G1 X120.948 Y126.737 E11.67209
G1 X121.296 Y127.284 E11.69201
G1 X122.325 Y128.312 E11.73671
G1 X122.891 Y128.624 E11.75657
G1 X124.202 Y129.008 E11.79855
G1 X124.384 Y129.029 E11.80418
G1 X124.921 Y128.988 E11.82073
G1 X126.365 Y128.585 E11.8668
G1 X126.842 Y128.256 E11.88461
G1 X127.614 Y127.485 E11.91814
G1 X127.835 Y127.185 E11.92959
G1 X127.935 Y126.938 E11.93778
G1 X129.854 Y129.152 E12.02781
G1 X129.565 Y129.23 E12.03701
G1 X129.345 Y129.348 E12.04468
G1 X128.905 Y129.789 E12.06383
G1 X128.733 Y130.148 E12.07606
G1 X128.402 Y131.275 E12.11216
G1 X128.381 Y131.462 E12.11794
G1 X128.428 Y132.011 E12.13487
G1 X128.762 Y133.152 E12.17141
G1 X129.083 Y133.611 E12.18862
G1 X129.915 Y134.442 E12.22476
G1 X130.482 Y134.753 E12.24463
G1 X131.543 Y135.062 E12.27859
G1 X132.161 Y135.058 E12.29758
G1 X131.966 Y135.317 E12.30754
G1 X131.845 Y135.667 E12.31892
G1 X131.429 Y136.03 E12.33589
G1 X130.442 Y137.341 E12.38632
G1 X130.32 Y137.698 E12.39791
G1 X129.892 Y138.065 E12.41524
G1 X126.43 Y142.656 E12.59194
G1 X126.326 Y142.902 E12.60014
G1 X126.257 Y143.349 E12.61404
G1 X126.304 Y143.774 E12.62718
G1 X126.593 Y144.319 E12.64614
G1 X126.769 Y144.498 E12.65385
G1 X127.128 Y144.723 E12.66687
G1 X127.32 Y144.797 E12.6732
G1 X127.836 Y144.859 E12.68917
G1 X127.836 Y146.696 E12.74562
G1 X127.938 Y147.131 E12.75935
G1 X128.265 Y147.645 E12.77807
G1 X129.327 Y148.707 E12.82422
G1 X129.709 Y148.944 E12.83804
G1 X130.301 Y149.074 E12.85666
G1 X142.635 Y149.074 E13.23569
G1 X143.07 Y148.972 E13.24942
G1 X143.584 Y148.645 E13.26814
G1 X144.646 Y147.583 E13.31429
G1 X144.883 Y147.201 E13.32811
G1 X145.013 Y146.609 E13.34673
G1 X145.013 Y144.624 E13.40773
G1 X145.41 Y144.266 E13.42416
G1 X145.61 Y143.923 E13.43636
G1 X147.029 Y140.253 E13.55728
G1 X147.301 Y140.106 E13.56678
G1 X147.585 Y139.82 E13.57917
G1 X147.766 Y139.527 E13.58975
G1 X148.123 Y138.604 E13.62016
G1 X148.208 Y138.144 E13.63454
G1 X148.202 Y137.957 E13.64029
G1 X148.375 Y137.779 E13.64791
G1 X148.554 Y137.486 E13.65847
G1 X148.903 Y136.583 E13.68821
G1 X148.987 Y136.125 E13.70252
G1 X148.944 Y135.686 E13.71608
G1 X148.871 Y135.485 E13.72265
G1 X149.76 Y133.188 E13.79834
G1 X149.862 Y132.654 E13.81505
G1 X149.811 Y131.894 E13.83845
G1 X147.578 Y126.554 E14.01632
G1 X147.363 Y126.236 E14.02812
G1 X147.126 Y126.015 E14.03808
G1 X146.789 Y125.829 E14.04991
G1 X146.253 Y125.718 E14.06673
G1 X143.934 Y125.718 E14.13799
G1 X138.633 Y111.152 E14.61433
G1 X138.939 Y111.152 E14.62373
G1 X139.419 Y111.056 E14.63877
G1 X139.824 Y110.841 E14.65286
G1 X140.052 Y110.628 E14.66245
G1 X140.327 Y110.104 E14.68064
G1 X140.377 Y109.913 E14.6867
G1 X140.384 Y109.507 E14.69918
G1 X140.291 Y109.122 E14.71135
G1 X137.881 Y103.353 E14.90348
G1 X137.9 Y102.985 E14.91481
G1 X137.827 Y102.648 E14.9254
G1 X137.249 Y101.262 E14.97155
G1 X137.032 Y100.94 E14.98348
G1 X136.784 Y100.731 E14.99345
G1 X136.326 Y99.634 E15.02998
G1 X136.22 Y99.471 E15.03596
G1 X135.824 Y99.069 E15.0533
G1 X135.281 Y98.707 E15.07335
G1 X135.104 Y98.63 E15.07928
G1 X134.547 Y98.513 E15.09677
G1 X127.704 Y98.512 E15.30706
G1 X127.704 Y95.932 E15.38634
G1 X128.326 Y95.932 E15.40546
G1 X128.761 Y95.83 E15.41919
G1 X129.275 Y95.503 E15.43791
G1 X129.837 Y94.941 E15.46233
G1 X130.074 Y94.559 E15.47615
G1 X130.204 Y93.967 E15.49477
G1 X130.204 Y91.88 E15.55891
G1 X130.102 Y91.445 E15.57264
G1 X129.775 Y90.931 E15.59136
G1 X129.213 Y90.369 E15.61578
G1 X128.831 Y90.132 E15.6296
G1 X128.291 Y90.002 E15.64667
G1 X127.704 Y90.002 E15.6647
G1 X127.704 Y86.759 E15.76436
G1 X132.729 Y86.759 E15.91878
G1 X133.275 Y86.644 E15.93593
G1 X133.621 Y86.444 E15.94821
G1 X133.875 Y86.208 E15.95886
G1 X134.385 Y85.517 E15.98526
G1 X134.57 Y85.158 E15.99767
G1 X134.658 Y84.76 E16.01019
G1 X134.607 Y84.215 E16.02701
G1 X132.452 Y77.224 E16.25182
G1 X132.255 Y76.87 E16.26427
G1 X131.83 Y76.472 E16.28217
G1 X131.207 Y76.097 E16.30451
G1 X130.822 Y75.964 E16.31703
G1 X130.238 Y75.953 E16.33498
G1 X109.748 Y79.888 E16.97615
G1 X109.095 Y80.042 E16.99676
G1 X108.698 Y80.323 E17.01171
G1 X108.229 Y80.779 E17.03181
G1 X108.117 Y80.935 E17.03771
G1 X107.888 Y81.449 E17.05501
G1 X107.602 Y82.757 E17.09615
G1 X105.552 Y82.759 E17.15915
G1 X105.001 Y82.843 E17.17628
G1 X104.387 Y83.117 E17.19694
G1 X104.1 Y83.349 E17.20828
G1 X103.797 Y83.688 E17.22225
G1 X81.55 Y84.532 E17.9064
G1 X81.052 Y84.658 E17.92218
G1 X80.653 Y84.899 E17.93651
G1 F1500 E16.93651
G1 F600 Z0.35
G0 F6000 X81.383 Y85.698 Z0.35
G1 F600 Z0.15
G1 F1500 E17.93651
G1 F900 X81.592 Y85.624 E17.94332
G1 X104.44 Y84.757 E18.64595
G1 X104.539 Y84.496 E18.65453
G1 X104.914 Y84.077 E18.67181
G1 X105.261 Y83.907 E18.68368
G1 X105.554 Y83.851 E18.69285
G1 X108.48 Y83.847 E18.78276
G1 X108.954 Y81.683 E18.85084
G1 X109.058 Y81.496 E18.85742
G1 X109.46 Y81.105 E18.87465
G1 X109.607 Y81.016 E18.87993
G1 X109.817 Y81.024 E18.88639
G1 X109.954 Y80.96 E18.89104
G1 X130.444 Y77.025 E19.5322
G1 X130.643 Y77.033 E19.53832
G1 X131.266 Y77.408 E19.56067
G1 X131.408 Y77.546 E19.56675
G1 X132.614 Y81.458 E19.69255
G1 X132.623 Y81.586 E19.6965
G1 X132.691 Y81.708 E19.70079
G1 X133.563 Y84.537 E19.79176
G1 X133.575 Y84.708 E19.79703
G1 X133.507 Y84.869 E19.8024
G1 X133.029 Y85.516 E19.82712
G1 X132.898 Y85.626 E19.83238
G1 X132.729 Y85.667 E19.83772
G1 X126.894 Y85.667 E20.01703
G1 X126.612 Y85.949 E20.02929
G1 X126.612 Y91.094 E20.18739
G1 X128.239 Y91.094 E20.23739
G1 X128.441 Y91.141 E20.24376
G1 X129.003 Y91.703 E20.26819
G1 X129.112 Y91.88 E20.27458
G1 X129.112 Y93.967 E20.33871
G1 X129.065 Y94.169 E20.34508
G1 X128.503 Y94.731 E20.36951
G1 X128.326 Y94.84 E20.37589
G1 X126.612 Y94.84 E20.42857
G1 X126.612 Y99.601 E20.57487
G1 X127.242 Y99.605 E20.59423
G1 X127.401 Y99.643 E20.59926
G1 X127.532 Y99.605 E20.60345
G1 X134.547 Y99.605 E20.81902
G1 X134.754 Y99.668 E20.82567
G1 X135.218 Y99.977 E20.8428
G1 X135.355 Y100.143 E20.84941
G1 X135.929 Y101.517 E20.89517
G1 X136.09 Y101.555 E20.90026
G1 X136.241 Y101.682 E20.90632
G1 X136.799 Y103.02 E20.95087
G1 X136.827 Y103.19 E20.95617
G1 X136.721 Y103.411 E20.9637
G1 X137.655 Y105.646 E21.03814
G1 X137.678 Y105.787 E21.04253
G1 X137.759 Y105.896 E21.0467
G1 X139.283 Y109.543 E21.16816
G1 X139.311 Y109.712 E21.17343
G1 X139.26 Y109.876 E21.17871
G1 X139.142 Y110 E21.18397
G1 X138.939 Y110.06 E21.19047
G1 X137.073 Y110.06 E21.24781
G1 X143.17 Y126.81 E21.79558
G1 X146.253 Y126.81 E21.89032
G1 X146.42 Y126.849 E21.89559
G1 X146.57 Y126.976 E21.90163
G1 X148.733 Y132.149 E22.07394
G1 X148.767 Y132.654 E22.08949
G1 X148.742 Y132.794 E22.09386
G1 X147.617 Y135.701 E22.18965
G1 X147.704 Y135.721 E22.19239
G1 X147.836 Y135.832 E22.19769
G1 X147.904 Y135.989 E22.20295
G1 X147.885 Y136.189 E22.20913
G1 X147.555 Y137.044 E22.23729
G1 X147.458 Y137.186 E22.24257
G1 X147.308 Y137.269 E22.24784
G1 X147.007 Y137.283 E22.2571
G1 X146.837 Y137.721 E22.27154
G1 X146.924 Y137.741 E22.27428
G1 X147.056 Y137.852 E22.27958
G1 X147.124 Y138.009 E22.28484
G1 X147.105 Y138.21 E22.29105
G1 X146.767 Y139.083 E22.31981
G1 X146.67 Y139.224 E22.32507
G1 X146.52 Y139.307 E22.33034
G1 X146.219 Y139.321 E22.3396
G1 X145.827 Y140.334 E22.37298
G1 X145.732 Y140.473 E22.37815
G1 X145.725 Y140.599 E22.38203
G1 X144.592 Y143.529 E22.47857
G1 X144.495 Y143.67 E22.48383
G1 X144.345 Y143.753 E22.4891
G1 X143.921 Y143.767 E22.50213
G1 X143.921 Y146.609 E22.58947
G1 X143.874 Y146.811 E22.59584
G1 X142.812 Y147.873 E22.64199
G1 X142.635 Y147.982 E22.64838
G1 X130.301 Y147.982 E23.02741
G1 X130.099 Y147.935 E23.03378
G1 X129.037 Y146.873 E23.07994
G1 X128.928 Y146.696 E23.08632
G1 X128.928 Y143.767 E23.17633
G1 X127.709 Y143.767 E23.21379
G1 X127.542 Y143.728 E23.21906
G1 X127.41 Y143.617 E23.22436
G1 X127.342 Y143.46 E23.22962
G1 X127.353 Y143.246 E23.2362
G1 X130.764 Y138.723 E23.41029
