;FLAVOR:Marlin
;TIME:4641
;Filament used: 1.53674m
;Layer height: 0.15
;MINX:62.288
;MINY:99.379
;MINZ:0.15
;MAXX:158.441
;MAXY:125.62
;MAXZ:8.75
;TARGET_MACHINE.NAME:ELEGOO NEPTUNE 3 Pro
;Generated with Cura_SteamEngine 5.8.1
M82 ;absolute extrusion mode
;;ELEGOO NEPTUNE 3 Pro
;M220 S100 ;Set the feed speed to 100%
;M221 S100 ;Set the flow rate to 100%
;G90 ;Absolute positioning
;G28 ;home
;;M420 S1 Z10;Uncomment to enable progressive compensation height of 10mm
;G92 E0 ;Reset Extruder
;G1 Z0.45 F300
;G1 X1.5 Y20 F5000.0 ;Move to start position
;G1 Y120.0 F600.0 E15 ;Draw the first line
;G1 X0.5 F1000.0 ;Move to side a little
;G1 Y20 F600 E30 ;Draw the second line
;G92 E0 ;Reset Extruder
;
;Use Klipper START_PRINT gcode macro
START_PRINT BED_TEMP=70 EXTRUDER_TEMP=210
G92 E0
G92 E0
G1 F1500 E-1
;LAYER_COUNT:57
;LAYER:0
M107
M204 S500
G1 F600 Z0.35
G0 F6000 X67.311 Y102.155 Z0.35
;TYPE:SKIRT
G1 F600 Z0.15
G1 F1500 E0
G1 F900 X67.938 Y101.823 E0.0218
G1 X68.12 Y101.765 E0.02767
G1 X68.606 Y101.71 E0.0427
G1 X69.28 Y101.758 E0.06347
G1 X69.773 Y101.885 E0.07911
G1 X70.411 Y102.217 E0.10121
G1 X70.876 Y102.655 E0.12084
G1 X71.173 Y102.256 E0.13613
G1 X71.714 Y101.855 E0.15682
G1 X72.106 Y101.715 E0.16961
G1 X72.589 Y101.649 E0.1846
G1 X73.129 Y101.658 E0.20119
G1 X73.411 Y101.701 E0.20996
G1 X73.756 Y101.658 E0.22064
G1 X74.211 Y101.701 E0.23469
G1 X74.552 Y101.658 E0.24525
G1 X75.014 Y101.702 E0.25951
G1 X75.471 Y101.653 E0.27363
G1 X75.86 Y101.699 E0.28567
G1 X76.303 Y101.658 E0.29934
G1 X76.673 Y101.705 E0.3108
G1 X77.042 Y101.658 E0.32224
G1 X77.505 Y101.702 E0.33653
G1 X77.962 Y101.653 E0.35065
G1 X78.357 Y101.701 E0.36288
G1 X78.801 Y101.653 E0.3766
G1 X79.196 Y101.701 E0.38883
G1 X79.641 Y101.653 E0.40259
G1 X80.006 Y101.695 E0.41388
G1 X80.371 Y101.653 E0.42517
G1 X80.835 Y101.703 E0.43951
G1 X81.299 Y101.653 E0.45385
G1 X81.668 Y101.696 E0.46527
G1 X82.037 Y101.653 E0.47668
G1 X82.501 Y101.703 E0.49102
G1 X82.965 Y101.653 E0.50536
G1 X83.36 Y101.701 E0.51759
G1 X83.804 Y101.653 E0.53132
G1 X84.194 Y101.7 E0.54339
G1 X84.634 Y101.653 E0.55699
G1 X85.029 Y101.701 E0.56921
G1 X85.474 Y101.653 E0.58297
G1 X85.869 Y101.701 E0.59519
G1 X86.314 Y101.653 E0.60895
G1 X86.709 Y101.701 E0.62118
G1 X87.154 Y101.653 E0.63493
G1 X87.529 Y101.697 E0.64653
G1 X87.903 Y101.653 E0.65811
G1 X88.367 Y101.703 E0.67245
G1 X88.831 Y101.653 E0.68679
G1 X89.206 Y101.697 E0.69839
G1 X89.579 Y101.653 E0.70993
G1 X90.018 Y101.699 E0.7235
G1 X90.744 Y101.645 E0.74587
G1 X91.022 Y101.683 E0.75449
G1 X91.432 Y101.658 E0.76712
G1 X91.73 Y101.701 E0.77637
G1 X92.185 Y101.659 E0.79041
G1 X92.529 Y101.704 E0.80107
G1 X92.941 Y101.653 E0.81383
G1 X93.392 Y101.701 E0.82777
G1 X93.8 Y101.653 E0.84039
G1 X94.372 Y101.713 E0.85806
G1 X94.995 Y101.89 E0.87797
G1 X95.664 Y102.283 E0.90181
G1 X96.135 Y102.78 E0.92285
G1 X96.475 Y103.271 E0.9412
G1 X96.676 Y104.016 E0.96492
G1 X96.676 Y104.449 E0.97822
G1 X107.936 Y104.449 E1.32425
G1 X108.144 Y104.117 E1.33628
G1 X108.373 Y103.864 E1.34677
G1 X108.981 Y103.485 E1.36879
G1 X109.677 Y103.335 E1.39067
G1 X110.831 Y103.351 E1.42613
G1 X111.358 Y103.457 E1.44265
G1 X111.885 Y103.374 E1.45905
G1 X120.07 Y103.685 E1.71075
G1 X120.45 Y103.768 E1.72271
G1 X121.082 Y103.691 E1.74227
G1 X121.812 Y103.583 E1.76495
G1 X122.619 Y103.311 E1.79112
G1 X123.334 Y102.928 E1.81605
G1 X123.898 Y102.486 E1.83807
G1 X124.481 Y101.948 E1.86244
G1 X125.49 Y101.167 E1.90165
G1 X126.36 Y100.634 E1.93301
G1 X127.687 Y100.004 E1.97815
G1 X128.996 Y99.636 E2.01993
G1 X130.153 Y99.44 E2.056
G1 X130.984 Y99.383 E2.08159
G1 X147.163 Y99.379 E2.57878
G1 X147.812 Y99.507 E2.5991
G1 X148.437 Y99.845 E2.62094
G1 X148.735 Y100.164 E2.63435
G1 X149.042 Y100.739 E2.65438
G1 X149.174 Y101.329 E2.67296
G1 X149.174 Y103.369 E2.73565
G1 X149.739 Y103.529 E2.7537
G1 X150.198 Y103.817 E2.77035
G1 X150.673 Y104.273 E2.79059
G1 X151.042 Y104.871 E2.81218
G1 X151.174 Y105.51 E2.83223
G1 X151.174 Y107.155 E2.88278
G1 X151.025 Y107.853 E2.90471
G1 X150.693 Y108.382 E2.92391
G1 X150.237 Y108.857 E2.94414
G1 X149.721 Y109.175 E2.96277
G1 X149.172 Y109.333 E2.98032
G1 X149.075 Y109.891 E2.99773
G1 X148.827 Y110.381 E3.0146
G1 X149.556 Y110.383 E3.03701
G1 X150.237 Y110.401 E3.05794
G1 X151.087 Y110.466 E3.08414
G1 X151.764 Y110.553 E3.10511
G1 X152.599 Y110.705 E3.13119
G1 X153.346 Y110.881 E3.15478
G1 X154.001 Y111.069 E3.17572
G1 X154.807 Y111.348 E3.20193
G1 X155.517 Y111.635 E3.22546
G1 X156.206 Y111.955 E3.24881
G1 X156.813 Y112.273 E3.26987
G1 X157.499 Y112.677 E3.29433
G1 X157.841 Y112.963 E3.30803
G1 X158.184 Y113.433 E3.32591
G1 X158.262 Y113.607 E3.33177
G1 X158.441 Y114.313 E3.35415
G1 X158.441 Y115.122 E3.37901
G1 X158.372 Y115.597 E3.39376
G1 X158.222 Y115.993 E3.40678
G1 X157.941 Y116.424 E3.42259
G1 X157.941 Y119.578 E3.51951
G1 X158.289 Y120.141 E3.53985
G1 X158.441 Y120.819 E3.5612
G1 X158.441 Y121.625 E3.58597
G1 X158.372 Y122.1 E3.60072
G1 X158.138 Y122.654 E3.6192
G1 X158.026 Y122.813 E3.62518
G1 X157.506 Y123.325 E3.64761
G1 X156.796 Y123.74 E3.67288
G1 X156.166 Y124.069 E3.69472
G1 X155.42 Y124.411 E3.71994
G1 X154.709 Y124.695 E3.74346
G1 X154.061 Y124.917 E3.76451
G1 X153.261 Y125.145 E3.79008
G1 X152.494 Y125.322 E3.81427
G1 X151.742 Y125.454 E3.83773
G1 X151.066 Y125.54 E3.85867
G1 X150.217 Y125.604 E3.88483
G1 X149.51 Y125.62 E3.90657
G1 X128.725 Y125.62 E4.54529
G1 X128.046 Y125.57 E4.56622
G1 X127.328 Y125.44 E4.58864
G1 X126.663 Y125.243 E4.60995
G1 X125.799 Y124.863 E4.63896
G1 X125.063 Y124.408 E4.66555
G1 X124.497 Y123.955 E4.68783
G1 X123.889 Y123.331 E4.7146
G1 X123.437 Y122.733 E4.73763
G1 X122.89 Y121.743 E4.77239
G1 X122.534 Y120.816 E4.80291
G1 X122.378 Y119.882 E4.83201
G1 X122.314 Y119.091 E4.85639
G1 X122.133 Y118.65 E4.87104
G1 X121.968 Y118.407 E4.88007
G1 X121.627 Y118.075 E4.89469
G1 X121.091 Y117.785 E4.91342
G1 X120.373 Y117.67 E4.93577
G1 X120.055 Y117.736 E4.94575
G1 X111.917 Y118.045 E5.19601
G1 X111.421 Y117.95 E5.21153
G1 X110.999 Y118.068 E5.225
G1 X109.737 Y118.085 E5.26378
G1 X109.086 Y117.965 E5.28412
G1 X108.464 Y117.641 E5.30567
G1 X108.176 Y117.351 E5.31823
G1 X107.935 Y116.971 E5.33206
G1 X96.817 Y116.971 E5.67372
G1 X96.822 Y117.393 E5.68669
G1 X96.69 Y117.986 E5.70536
G1 X96.605 Y118.178 E5.71181
G1 X96.268 Y118.663 E5.72996
G1 X95.785 Y119.146 E5.75095
G1 X95.139 Y119.531 E5.77406
G1 X94.496 Y119.709 E5.79456
G1 X93.923 Y119.765 E5.81226
G1 X93.543 Y119.72 E5.82401
G1 X93.153 Y119.766 E5.83608
G1 X92.697 Y119.715 E5.85018
G1 X92.226 Y119.765 E5.86474
G1 X91.841 Y119.717 E5.87666
G1 X91.386 Y119.765 E5.89072
G1 X91.02 Y119.721 E5.90205
G1 X90.635 Y119.766 E5.91396
G1 X90.198 Y119.718 E5.92747
G1 X89.796 Y119.766 E5.93991
G1 X89.359 Y119.718 E5.95342
G1 X88.957 Y119.766 E5.96586
G1 X88.52 Y119.718 E5.97937
G1 X88.118 Y119.766 E5.99181
G1 X87.661 Y119.715 E6.00594
G1 X87.19 Y119.765 E6.0205
G1 X86.805 Y119.717 E6.03242
G1 X86.351 Y119.765 E6.04645
G1 X85.988 Y119.721 E6.05769
G1 X85.604 Y119.766 E6.06957
G1 X85.167 Y119.718 E6.08308
G1 X84.764 Y119.766 E6.09555
G1 X84.308 Y119.715 E6.10965
G1 X83.836 Y119.765 E6.12424
G1 X83.47 Y119.721 E6.13557
G1 X83.086 Y119.766 E6.14745
G1 X82.655 Y119.719 E6.16077
G1 X82.261 Y119.766 E6.17296
G1 X81.83 Y119.719 E6.18629
G1 X81.435 Y119.766 E6.19851
G1 X80.978 Y119.715 E6.21264
G1 X80.506 Y119.765 E6.22723
G1 X80.121 Y119.717 E6.23915
G1 X79.666 Y119.765 E6.25321
G1 X79.281 Y119.717 E6.26513
G1 X78.827 Y119.765 E6.27916
G1 X78.47 Y119.722 E6.29021
G1 X78.094 Y119.766 E6.30185
G1 X77.657 Y119.718 E6.31536
G1 X77.254 Y119.766 E6.32783
G1 X76.798 Y119.715 E6.34193
G1 X76.327 Y119.765 E6.35648
G1 X75.948 Y119.718 E6.36822
G1 X75.499 Y119.759 E6.38207
G1 X75.197 Y119.72 E6.39143
G1 X74.574 Y119.788 E6.41069
G1 X74.205 Y119.733 E6.42215
G1 X73.778 Y119.761 E6.4353
G1 X73.461 Y119.716 E6.44514
G1 X73.015 Y119.769 E6.45895
G1 X72.573 Y119.727 E6.47259
G1 X72.016 Y119.569 E6.49038
G1 X71.507 Y119.292 E6.50819
G1 X71.067 Y118.856 E6.52722
G1 X70.952 Y118.693 E6.53336
G1 X70.581 Y119.08 E6.54983
G1 X70.063 Y119.427 E6.56899
G1 X69.6 Y119.598 E6.58416
G1 X68.979 Y119.708 E6.60354
G1 X68.297 Y119.675 E6.62452
G1 X67.81 Y119.572 E6.63982
G1 X67.217 Y119.195 E6.66141
G1 X66.808 Y118.641 E6.68257
G1 X66.696 Y118.367 E6.69167
G1 X66.559 Y117.767 E6.71058
G1 X66.559 Y115.185 E6.78993
G1 X66.08 Y115.133 E6.80473
G1 X64.997 Y114.818 E6.83939
G1 X64.314 Y114.442 E6.86335
G1 X63.184 Y113.314 E6.91242
G1 X62.763 Y112.653 E6.9365
G1 X62.345 Y111.222 E6.98231
G1 X62.288 Y110.559 E7.00276
G1 X62.334 Y110.236 E7.01279
G1 X62.732 Y108.872 E7.05645
G1 X63.092 Y108.205 E7.07974
G1 X64.155 Y107.084 E7.12722
G1 X64.871 Y106.622 E7.1534
G1 X66.098 Y106.277 E7.19257
G1 X66.559 Y106.217 E7.20686
G1 X66.559 Y103.712 E7.28384
G1 X66.628 Y103.237 E7.29859
G1 X66.778 Y102.841 E7.3116
G1 X67.003 Y102.482 E7.32462
G1 X67.311 Y102.155 E7.33842
G0 F6000 X67.645 Y102.596
G1 F900 X68.193 Y102.306 E7.35748
G1 X68.572 Y102.255 E7.36923
G1 X69.165 Y102.292 E7.38749
G1 X69.521 Y102.369 E7.39868
G1 X70.09 Y102.665 E7.41839
G1 X70.538 Y103.086 E7.43728
G1 X70.724 Y103.389 E7.44821
G1 X71.166 Y103.452 E7.46193
G1 X71.308 Y102.993 E7.47669
G1 X71.498 Y102.695 E7.48755
G1 X71.977 Y102.34 E7.50587
G1 X72.188 Y102.255 E7.51286
G1 X72.585 Y102.195 E7.5252
G1 X73.046 Y102.198 E7.53937
G1 X73.403 Y102.253 E7.55047
G1 X73.824 Y102.2 E7.56351
G1 X74.211 Y102.252 E7.57551
G1 X74.621 Y102.2 E7.58821
G1 X75.007 Y102.252 E7.60018
G1 X75.529 Y102.196 E7.61631
G1 X75.847 Y102.252 E7.62623
G1 X76.234 Y102.2 E7.63823
G1 X76.673 Y102.256 E7.65183
G1 X77.111 Y102.2 E7.6654
G1 X77.498 Y102.252 E7.6774
G1 X78.02 Y102.196 E7.69354
G1 X78.338 Y102.252 E7.70346
G1 X78.859 Y102.196 E7.71956
G1 X79.177 Y102.252 E7.72948
G1 X79.699 Y102.196 E7.74562
G1 X80.006 Y102.249 E7.75519
G1 X80.313 Y102.196 E7.76476
G1 X80.835 Y102.252 E7.7809
G1 X81.357 Y102.196 E7.79703
G1 X81.668 Y102.25 E7.80673
G1 X81.979 Y102.196 E7.81643
G1 X82.501 Y102.252 E7.83256
G1 X83.023 Y102.196 E7.8487
G1 X83.341 Y102.252 E7.85862
G1 X83.862 Y102.196 E7.87472
G1 X84.175 Y102.251 E7.88449
G1 X84.692 Y102.196 E7.90046
G1 X85.01 Y102.252 E7.91039
G1 X85.532 Y102.196 E7.92652
G1 X85.85 Y102.252 E7.93644
G1 X86.372 Y102.196 E7.95258
G1 X86.69 Y102.252 E7.9625
G1 X87.212 Y102.196 E7.97863
G1 X87.528 Y102.251 E7.98849
G1 X87.845 Y102.196 E7.99838
G1 X88.367 Y102.252 E8.01451
G1 X88.889 Y102.196 E8.03064
G1 X89.205 Y102.251 E8.0405
G1 X89.522 Y102.196 E8.05039
G1 X90.042 Y102.251 E8.06645
G1 X90.316 Y102.198 E8.07503
G1 X90.753 Y102.191 E8.08846
G1 X91.002 Y102.233 E8.09622
G1 X91.355 Y102.199 E8.10712
G1 X91.726 Y102.252 E8.11864
G1 X92.114 Y102.2 E8.13067
G1 X92.544 Y102.256 E8.14399
G1 X92.883 Y102.196 E8.15457
G1 X93.404 Y102.252 E8.17067
G1 X93.753 Y102.197 E8.18153
G1 X94.223 Y102.238 E8.19603
G1 X94.776 Y102.395 E8.21369
G1 X95.322 Y102.716 E8.23316
G1 X95.739 Y103.156 E8.25179
G1 X95.972 Y103.503 E8.26463
G1 X96.149 Y104.158 E8.28548
G1 X96.114 Y104.646 E8.30052
G1 X95.95 Y104.995 E8.31237
G1 X108.303 Y104.995 E8.69198
G1 X108.382 Y104.766 E8.69942
G1 X108.607 Y104.407 E8.71244
G1 X108.765 Y104.244 E8.71942
G1 X109.187 Y103.999 E8.73441
G1 X109.732 Y103.882 E8.75154
G1 X110.823 Y103.897 E8.78507
G1 X111.346 Y104.014 E8.80154
G1 X111.864 Y103.92 E8.81772
G1 X120.049 Y104.231 E9.06943
G1 X120.451 Y104.332 E9.08216
G1 X120.7 Y104.267 E9.09007
G1 X121.144 Y104.233 E9.10376
G1 X121.939 Y104.116 E9.12845
G1 X122.838 Y103.813 E9.1576
G1 X123.633 Y103.387 E9.18532
G1 X124.258 Y102.898 E9.20971
G1 X124.852 Y102.349 E9.23456
G1 X125.775 Y101.633 E9.27046
G1 X126.645 Y101.1 E9.30181
G1 X127.878 Y100.518 E9.34371
G1 X129.144 Y100.162 E9.38413
G1 X130.19 Y99.985 E9.41673
G1 X131.021 Y99.928 E9.44232
G1 X147.163 Y99.925 E9.93837
G1 X147.552 Y99.987 E9.95048
G1 X148.101 Y100.284 E9.96966
G1 X148.264 Y100.441 E9.97661
G1 X148.509 Y100.858 E9.99147
G1 X148.628 Y101.39 E10.00823
G1 X148.628 Y103.882 E10.08481
G1 X149.011 Y103.891 E10.09658
G1 X149.461 Y103.999 E10.1108
G1 X149.82 Y104.211 E10.12361
G1 X150.245 Y104.619 E10.14172
G1 X150.526 Y105.075 E10.15818
G1 X150.628 Y105.51 E10.17191
G1 X150.628 Y107.097 E10.22068
G1 X150.511 Y107.645 E10.2379
G1 X150.299 Y108.004 E10.25071
G1 X149.891 Y108.429 E10.26881
G1 X149.435 Y108.71 E10.28527
G1 X149 Y108.812 E10.299
G1 X148.628 Y108.812 E10.31043
G1 X148.628 Y109.306 E10.32561
G1 X148.566 Y109.695 E10.33772
G1 X148.492 Y109.887 E10.34404
G1 X148.267 Y110.246 E10.35706
G1 X148.113 Y110.406 E10.36389
G1 X147.703 Y110.649 E10.37853
G1 X147.318 Y110.752 E10.39078
G1 X146.894 Y110.794 E10.40387
G1 X146.892 Y110.922 E10.40781
G1 X149.542 Y110.929 E10.48924
G1 X150.223 Y110.947 E10.51018
G1 X151.017 Y111.008 E10.53465
G1 X151.694 Y111.095 E10.55562
G1 X152.474 Y111.237 E10.57999
G1 X153.195 Y111.406 E10.60274
G1 X153.85 Y111.594 E10.62369
G1 X154.603 Y111.854 E10.64817
G1 X155.287 Y112.13 E10.67083
G1 X155.953 Y112.439 E10.69339
G1 X156.56 Y112.757 E10.71445
G1 X157.222 Y113.147 E10.73806
G1 X157.482 Y113.374 E10.74867
G1 X157.733 Y113.741 E10.76233
G1 X157.895 Y114.38 E10.78259
G1 X157.895 Y115.122 E10.80539
G1 X157.833 Y115.511 E10.8175
G1 X157.759 Y115.703 E10.82382
G1 X157.534 Y116.062 E10.83684
G1 X157.395 Y116.205 E10.84297
G1 X157.395 Y119.798 E10.95338
G1 X157.529 Y119.93 E10.95916
G1 X157.775 Y120.347 E10.97404
G1 X157.895 Y120.881 E10.99086
G1 X157.895 Y121.625 E11.01372
G1 X157.833 Y122.014 E11.02583
G1 X157.643 Y122.424 E11.03971
G1 X157.172 Y122.888 E11.06003
G1 X156.543 Y123.256 E11.08243
G1 X155.913 Y123.585 E11.10427
G1 X155.217 Y123.904 E11.1278
G1 X154.532 Y124.178 E11.15047
G1 X153.884 Y124.4 E11.17152
G1 X153.138 Y124.613 E11.19536
G1 X152.399 Y124.784 E11.21867
G1 X151.673 Y124.912 E11.24132
G1 X150.997 Y124.998 E11.26226
G1 X150.204 Y125.058 E11.2867
G1 X149.51 Y125.074 E11.30803
G1 X128.765 Y125.075 E11.94553
G1 X128.086 Y125.025 E11.96645
G1 X127.483 Y124.916 E11.98528
G1 X126.818 Y124.719 E12.0066
G1 X126.084 Y124.397 E12.03123
G1 X125.402 Y123.98 E12.05579
G1 X124.886 Y123.572 E12.07601
G1 X124.325 Y123.002 E12.10058
G1 X123.873 Y122.404 E12.12362
G1 X123.4 Y121.547 E12.1537
G1 X123.064 Y120.672 E12.1825
G1 X122.917 Y119.792 E12.20992
G1 X122.874 Y119.252 E12.22657
G1 X122.794 Y118.824 E12.23995
G1 X122.617 Y118.391 E12.25432
G1 X122.387 Y118.053 E12.26689
G1 X121.954 Y117.631 E12.28547
G1 X121.377 Y117.319 E12.30563
G1 X121.079 Y117.231 E12.31517
G1 X120.503 Y117.141 E12.33309
G1 X120.38 Y117.107 E12.33701
G1 X120.034 Y117.19 E12.34794
G1 X111.896 Y117.499 E12.59821
G1 X111.39 Y117.382 E12.61417
G1 X110.992 Y117.522 E12.62713
G1 X109.73 Y117.539 E12.66592
G1 X109.339 Y117.481 E12.67806
G1 X108.791 Y117.195 E12.69706
G1 X108.624 Y117.039 E12.70408
G1 X108.45 Y116.789 E12.71344
G1 X108.304 Y116.425 E12.72549
G1 X96.09 Y116.425 E13.10083
G1 X96.258 Y116.789 E13.11315
G1 X96.289 Y117.274 E13.12809
G1 X96.157 Y117.867 E13.14676
G1 X95.85 Y118.309 E13.16329
G1 X95.447 Y118.712 E13.18081
G1 X94.923 Y119.024 E13.19955
G1 X94.35 Y119.183 E13.21782
G1 X93.879 Y119.221 E13.23234
G1 X93.539 Y119.166 E13.24293
G1 X93.213 Y119.223 E13.2531
G1 X92.7 Y119.166 E13.26896
G1 X92.169 Y119.222 E13.28537
G1 X91.861 Y119.166 E13.29499
G1 X91.329 Y119.222 E13.31143
G1 X91.021 Y119.166 E13.32105
G1 X90.695 Y119.223 E13.33122
G1 X90.181 Y119.166 E13.34711
G1 X89.856 Y119.223 E13.35725
G1 X89.342 Y119.166 E13.37314
G1 X89.017 Y119.223 E13.38328
G1 X88.503 Y119.166 E13.39917
G1 X88.178 Y119.223 E13.40931
G1 X87.664 Y119.166 E13.4252
G1 X87.133 Y119.222 E13.44161
G1 X86.825 Y119.166 E13.45123
G1 X86.294 Y119.222 E13.46764
G1 X85.989 Y119.167 E13.47716
G1 X85.664 Y119.223 E13.4873
G1 X85.15 Y119.166 E13.50319
G1 X84.824 Y119.223 E13.51336
G1 X84.311 Y119.166 E13.52922
G1 X83.779 Y119.222 E13.54566
G1 X83.471 Y119.166 E13.55528
G1 X83.145 Y119.223 E13.56545
G1 X82.638 Y119.168 E13.58112
G1 X82.32 Y119.223 E13.59104
G1 X81.813 Y119.168 E13.60671
G1 X81.495 Y119.223 E13.61663
G1 X80.981 Y119.166 E13.63252
G1 X80.449 Y119.222 E13.64896
G1 X80.141 Y119.166 E13.65858
G1 X79.609 Y119.222 E13.67502
G1 X79.301 Y119.166 E13.68464
