;FLAVOR:Marlin
;TIME:1247
;Filament used: 0.429493m
;Layer height: 0.15
;MINX:99.579
;MINY:106.363
;MINZ:0.15
;MAXX:126.346
;MAXY:132.885
;MAXZ:3.2
;TARGET_MACHINE.NAME:ELEGOO NEPTUNE 3 Pro
;Generated with Cura_SteamEngine 5.8.1
M82 ;absolute extrusion mode
;;ELEGOO NEPTUNE 3 Pro
;M220 S100 ;Set the feed speed to 100%
;M221 S100 ;Set the flow rate to 100%
;G90 ;Absolute positioning
;G28 ;home
;;M420 S1 Z10;Uncomment to enable progressive compensation height of 10mm
;G92 E0 ;Reset Extruder
;G1 Z0.45 F300
;G1 X1.5 Y20 F5000.0 ;Move to start position
;G1 Y120.0 F600.0 E15 ;Draw the first line
;G1 X0.5 F1000.0 ;Move to side a little
;G1 Y20 F600 E30 ;Draw the second line
;G92 E0 ;Reset Extruder
;
;Use Klipper START_PRINT gcode macro
START_PRINT BED_TEMP=70 EXTRUDER_TEMP=210
G92 E0
G92 E0
G1 F1500 E-1
;LAYER_COUNT:20
;LAYER:0
M107
M204 S500
G1 F600 Z0.35
G0 F6000 X100.249 Y109.24 Z0.35
;TYPE:SKIRT
G1 F600 Z0.15
G1 F1500 E0
G1 F900 X100.848 Y108.862 E0.02177
G1 X101.529 Y108.71 E0.04321
G1 X113.188 Y108.71 E0.40149
G1 X116.102 Y106.689 E0.51047
G1 X116.757 Y106.416 E0.53227
G1 X117.102 Y106.363 E0.543
G1 X124.335 Y106.363 E0.76527
G1 X124.81 Y106.432 E0.78002
G1 X125.206 Y106.582 E0.79304
G1 X125.565 Y106.807 E0.80606
G1 X125.816 Y107.033 E0.81643
G1 X126.194 Y107.632 E0.8382
G1 X126.346 Y108.313 E0.85964
G1 X126.346 Y130.874 E1.55295
G1 X126.277 Y131.349 E1.5677
G1 X126.044 Y131.934 E1.58705
G1 X125.582 Y132.431 E1.6079
G1 X125.255 Y132.661 E1.62019
G1 X124.495 Y132.885 E1.64453
G1 X117.143 Y132.885 E1.87046
G1 X116.454 Y132.738 E1.89211
G1 X116.137 Y132.585 E1.90293
G1 X113.186 Y130.539 E2.01328
G1 X101.59 Y130.539 E2.36962
G1 X101.115 Y130.47 E2.38437
G1 X100.719 Y130.32 E2.39739
G1 X100.36 Y130.095 E2.41041
G1 X100.109 Y129.869 E2.42079
G1 X99.731 Y129.27 E2.44255
G1 X99.579 Y128.589 E2.46399
G1 X99.579 Y110.721 E3.01308
G1 X99.648 Y110.246 E3.02783
G1 X99.798 Y109.85 E3.04084
G1 X100.023 Y109.491 E3.05386
G1 X100.249 Y109.24 E3.06424
G0 F6000 X100.642 Y109.619
G1 F900 X101.058 Y109.375 E3.07906
G1 X101.59 Y109.256 E3.09582
G1 X113.359 Y109.256 E3.45748
G1 X116.366 Y107.17 E3.56994
G1 X116.905 Y106.946 E3.58788
G1 X117.102 Y106.909 E3.59404
G1 X124.335 Y106.909 E3.81631
G1 X124.724 Y106.971 E3.82842
G1 X124.916 Y107.045 E3.83474
G1 X125.275 Y107.27 E3.84776
G1 X125.437 Y107.426 E3.85467
G1 X125.681 Y107.842 E3.86949
G1 X125.8 Y108.374 E3.88624
G1 X125.8 Y130.874 E4.57767
G1 X125.738 Y131.263 E4.58978
G1 X125.575 Y131.637 E4.60231
G1 X125.182 Y132.059 E4.62004
G1 X125.018 Y132.161 E4.62597
G1 X124.415 Y132.339 E4.64529
G1 X117.201 Y132.339 E4.86698
G1 X116.632 Y132.218 E4.88485
G1 X116.448 Y132.136 E4.89105
G1 X113.357 Y129.993 E5.00663
G1 X101.59 Y129.993 E5.36823
G1 X101.201 Y129.931 E5.38034
G1 X101.009 Y129.857 E5.38666
G1 X100.65 Y129.632 E5.39968
G1 X100.488 Y129.476 E5.40659
G1 X100.244 Y129.06 E5.42141
G1 X100.125 Y128.528 E5.43816
G1 X100.125 Y110.721 E5.98537
G1 X100.187 Y110.332 E5.99748
G1 X100.261 Y110.14 E6.0038
G1 X100.486 Y109.781 E6.01682
G1 X100.642 Y109.619 E6.02373
G1 F1500 E5.02373
G1 F600 Z0.35
G0 F6000 X101.367 Y110.422 Z0.35
G1 F600 Z0.15
G1 F1500 E6.02373
G1 F900 X101.59 Y110.348 E6.03095
G1 X113.701 Y110.348 E6.40313
G1 X116.988 Y108.068 E6.52606
G1 X117.201 Y108.001 E6.53292
G1 X124.335 Y108.001 E6.75215
G1 X124.502 Y108.04 E6.75742
G1 X124.634 Y108.151 E6.76272
G1 X124.708 Y108.374 E6.76994
G1 X124.708 Y130.874 E7.46137
G1 X124.669 Y131.041 E7.46664
G1 X124.558 Y131.173 E7.47194
G1 X124.335 Y131.247 E7.47916
G1 X117.201 Y131.247 E7.69839
G1 X116.988 Y131.181 E7.70524
G1 X113.699 Y128.901 E7.82822
G1 X101.59 Y128.901 E8.20033
G1 X101.423 Y128.862 E8.2056
G1 X101.291 Y128.751 E8.2109
G1 X101.217 Y128.528 E8.21812
G1 X101.217 Y110.721 E8.76534
G1 X101.256 Y110.554 E8.77061
G1 X101.367 Y110.422 E8.77591
G0 F6000 X101.195 Y109.904
G1 F900 X101.59 Y109.802 E8.78844
G1 X113.53 Y109.802 E9.15536
G1 X116.677 Y107.619 E9.27306
G1 X117.102 Y107.455 E9.28706
G1 X124.335 Y107.455 E9.50933
G1 X124.626 Y107.508 E9.51842
G1 X124.985 Y107.733 E9.53144
G1 X125.152 Y107.979 E9.54058
G1 X125.254 Y108.374 E9.55311
G1 X125.254 Y130.874 E10.24454
G1 X125.201 Y131.165 E10.25363
G1 X125.087 Y131.392 E10.26144
G1 X124.814 Y131.655 E10.27309
G1 X124.335 Y131.793 E10.28841
G1 X117.201 Y131.793 E10.50763
G1 X116.759 Y131.687 E10.5216
G1 X113.528 Y129.447 E10.64242
G1 X101.59 Y129.447 E11.00928
G1 X101.299 Y129.394 E11.01837
G1 X100.94 Y129.169 E11.03139
G1 X100.773 Y128.923 E11.04052
G1 X100.671 Y128.528 E11.05306
G1 X100.671 Y110.721 E11.60027
G1 X100.724 Y110.43 E11.60936
G1 X100.949 Y110.071 E11.62238
G1 X101.195 Y109.904 E11.63152
G1 F1500 E10.63152
G1 F600 Z0.35
G0 F6000 X107.883 Y118.282 Z0.35
G1 F600 Z0.15
G1 F1500 E11.63152
G1 F900 X108.664 Y118.062 E11.65645
G1 X108.731 Y118.061 E11.65851
G1 X109.503 Y118.276 E11.68314
G1 X110.048 Y118.849 E11.70744
G1 X110.263 Y119.596 E11.73133
G1 X110.266 Y119.657 E11.7332
G1 X110.051 Y120.426 E11.75774
G1 X109.493 Y120.984 E11.78199
G1 X108.699 Y121.206 E11.80733
G1 X107.945 Y120.985 E11.83147
G1 X107.319 Y120.359 E11.85868
G1 X107.11 Y119.642 E11.88163
G1 X107.338 Y118.854 E11.90684
G1 X107.883 Y118.282 E11.93112
G0 F6000 X108.175 Y118.766
G1 F900 X108.699 Y118.619 E11.94784
G1 X109.211 Y118.761 E11.96417
G1 X109.56 Y119.128 E11.97973
G1 X109.706 Y119.633 E11.99588
G1 X109.564 Y120.141 E12.01209
G1 X109.208 Y120.497 E12.02757
G1 X108.702 Y120.638 E12.04371
G1 X108.233 Y120.501 E12.05872
G1 X107.804 Y120.072 E12.07737
G1 X107.679 Y119.642 E12.09113
G1 X107.827 Y119.132 E12.10745
G1 X108.175 Y118.766 E12.12297
G0 F6000 X108.468 Y119.251
G1 F900 X108.701 Y119.186 E12.1304
G1 X108.919 Y119.247 E12.13736
G1 X109.073 Y119.409 E12.14422
G1 X109.138 Y119.635 E12.15145
G1 X109.076 Y119.857 E12.15853
G1 X108.924 Y120.009 E12.16514
G1 X108.705 Y120.07 E12.17213
G1 X108.52 Y120.016 E12.17805
G1 X108.289 Y119.785 E12.18809
G1 X108.247 Y119.642 E12.19267
G1 X108.313 Y119.414 E12.19996
G1 X108.468 Y119.251 E12.20687
G1 F1500 E11.20687
G1 F600 Z0.35
G0 F6000 X117.112 Y119.635 Z0.35
G1 F600 Z0.15
G1 F1500 E12.20687
G1 F900 X117.338 Y118.854 E12.23186
G1 X117.883 Y118.282 E12.25614
G1 X118.664 Y118.062 E12.28107
G1 X118.731 Y118.061 E12.28313
G1 X119.504 Y118.277 E12.3078
G1 X120.042 Y118.845 E12.33184
G1 X120.25 Y119.579 E12.35528
G1 X120.045 Y120.318 E12.37885
G1 X119.405 Y120.958 E12.40666
G1 X118.636 Y121.173 E12.4312
G1 X117.914 Y120.961 E12.45432
G1 X117.33 Y120.377 E12.4797
G1 X117.112 Y119.635 E12.50347
G0 F6000 X117.681 Y119.635
G1 F900 X117.827 Y119.132 E12.51956
G1 X118.175 Y118.766 E12.53508
G1 X118.699 Y118.619 E12.55181
G1 X119.213 Y118.762 E12.5682
G1 X119.554 Y119.122 E12.58344
G1 X119.684 Y119.58 E12.59807
G1 X119.558 Y120.033 E12.61252
G1 X119.12 Y120.471 E12.63156
G1 X118.639 Y120.605 E12.6469
G1 X118.202 Y120.477 E12.66089
G1 X117.814 Y120.089 E12.67776
G1 X117.681 Y119.635 E12.69229
G0 F6000 X118.25 Y119.633
G1 F900 X118.313 Y119.414 E12.6993
G1 X118.468 Y119.251 E12.70621
G1 X118.7 Y119.186 E12.71361
G1 X118.919 Y119.247 E12.7206
G1 X119.066 Y119.402 E12.72716
G1 X119.117 Y119.582 E12.73291
G1 X119.07 Y119.749 E12.73824
G1 X118.836 Y119.983 E12.74841
G1 X118.643 Y120.037 E12.75457
G1 X118.489 Y119.992 E12.7595
G1 X118.299 Y119.802 E12.76776
G1 X118.25 Y119.633 E12.77317
G1 F1500 E11.77317
G1 F600 Z0.35
;MESH:xxx_-_declaration_ring_det4_w_b_2x.stl 1
G0 F6000 X118.662 Y123.115 Z0.35
;TYPE:WALL-INNER
G1 F600 Z0.15
G1 F1500 E12.77317
G1 F900 X118.214 Y123.086 E12.78696
G1 X117.59 Y122.942 E12.80664
G1 X116.856 Y122.599 E12.83154
G1 X116.259 Y122.133 E12.85481
G1 X115.899 Y121.719 E12.87167
G1 X115.566 Y121.192 E12.89083
G1 X115.355 Y120.648 E12.90876
G1 X115.254 Y120.228 E12.92204
G1 X115.192 Y119.619 E12.94085
G1 X115.257 Y118.998 E12.96003
G1 X115.456 Y118.301 E12.98231
G1 X115.715 Y117.786 E13.00002
G1 X115.999 Y117.4 E13.01475
G1 X116.412 Y116.976 E13.03294
G1 X116.869 Y116.643 E13.05032
G1 X117.589 Y116.3 E13.07482
G1 X118.209 Y116.163 E13.09434
G1 X118.71 Y116.125 E13.10978
G1 X119.484 Y116.214 E13.13372
G1 X120.17 Y116.461 E13.15612
G1 X120.673 Y116.747 E13.17391
G1 X121.099 Y117.089 E13.19069
G1 X121.473 Y117.509 E13.20798
G1 X121.829 Y118.066 E13.22829
G1 X122.092 Y118.796 E13.25213
G1 X122.179 Y119.412 E13.27125
G1 X122.17 Y119.961 E13.28812
G1 X122.108 Y120.366 E13.30072
G1 X121.944 Y120.899 E13.31785
G1 X121.698 Y121.405 E13.33514
G1 X121.405 Y121.828 E13.35095
G1 X121.02 Y122.228 E13.36802
G1 X120.524 Y122.607 E13.3872
G1 X119.799 Y122.942 E13.41174
G1 X119.258 Y123.075 E13.42886
G1 X118.662 Y123.115 E13.44722
G1 F1500 E12.44722
G1 F600 Z0.35
G0 F6000 X123.513 Y130.053 Z0.35
G1 F600 Z0.15
G1 F1500 E13.44722
G1 F900 X123.513 Y109.191 E14.08831
G1 X117.457 Y109.191 E14.27441
G1 X114.226 Y111.43 E14.39521
G1 X113.868 Y111.538 E14.4067
G1 X102.408 Y111.54 E14.75887
G1 X102.408 Y127.708 E15.25572
G1 X113.873 Y127.711 E15.60804
G1 X114.234 Y127.823 E15.61965
G1 X117.456 Y130.053 E15.74007
G1 X123.513 Y130.053 E15.9262
G1 F1500 E14.9262
G1 F600 Z0.35
G0 F6000 X108.692 Y123.115 Z0.35
G1 F600 Z0.15
G1 F1500 E15.9262
G1 F900 X108.214 Y123.086 E15.94092
G1 X107.592 Y122.943 E15.96053
G1 X106.869 Y122.609 E15.985
G1 X106.399 Y122.266 E16.00288
G1 X105.875 Y121.696 E16.02668
G1 X105.541 Y121.129 E16.0469
G1 X105.355 Y120.648 E16.06275
G1 X105.245 Y120.182 E16.07746
G1 X105.2 Y119.695 E16.09249
G1 X105.239 Y119.062 E16.11198
G1 X105.46 Y118.286 E16.13677
G1 X105.755 Y117.731 E16.15609
G1 X106.065 Y117.324 E16.17181
G1 X106.364 Y117.02 E16.18491
G1 X106.861 Y116.643 E16.20408
G1 X107.586 Y116.302 E16.2287
G1 X108.13 Y116.173 E16.24589
G1 X108.692 Y116.129 E16.26321
G1 X109.478 Y116.212 E16.2875
G1 X110.254 Y116.491 E16.31284
G1 X110.771 Y116.817 E16.33162
G1 X111.193 Y117.18 E16.34873
G1 X111.538 Y117.597 E16.36536
G1 X111.842 Y118.107 E16.3836
G1 X112.088 Y118.782 E16.40568
G1 X112.179 Y119.344 E16.42318
G1 X112.177 Y119.908 E16.44051
G1 X112.081 Y120.475 E16.45818
G1 X111.901 Y121.007 E16.47544
G1 X111.633 Y121.512 E16.49301
G1 X111.32 Y121.928 E16.50901
G1 X111.02 Y122.228 E16.52204
G1 X110.527 Y122.606 E16.54113
G1 X109.799 Y122.942 E16.56577
G1 X109.258 Y123.075 E16.58289
G1 X108.692 Y123.115 E16.60033
G0 F6000 X108.673 Y122.569
;TYPE:WALL-OUTER
G1 F600 X108.2 Y122.533 E16.61491
G1 X107.792 Y122.429 E16.62785
G1 X107.173 Y122.148 E16.64874
G1 X106.787 Y121.873 E16.6633
G1 X106.303 Y121.347 E16.68527
G1 X106.047 Y120.923 E16.70049
G1 X105.886 Y120.52 E16.71382
G1 X105.779 Y120.064 E16.72822
G1 X105.743 Y119.6 E16.74252
G1 X105.779 Y119.176 E16.75559
G1 X105.98 Y118.472 E16.77809
G1 X106.195 Y118.054 E16.79254
G1 X106.453 Y117.708 E16.8058
G1 X106.787 Y117.375 E16.82029
G1 X107.132 Y117.123 E16.83342
G1 X107.792 Y116.814 E16.85582
G1 X108.224 Y116.711 E16.86947
G1 X108.723 Y116.676 E16.88484
G1 X109.354 Y116.747 E16.90435
G1 X110.034 Y116.998 E16.92663
G1 X110.423 Y117.237 E16.94066
G1 X110.751 Y117.509 E16.95375
G1 X111.081 Y117.896 E16.96938
G1 X111.34 Y118.321 E16.98467
G1 X111.561 Y118.94 E17.00487
G1 X111.63 Y119.368 E17.01819
G1 X111.633 Y119.86 E17.03331
G1 X111.561 Y120.308 E17.04726
G1 X111.408 Y120.773 E17.0623
G1 X111.19 Y121.192 E17.07682
G1 X110.934 Y121.542 E17.09014
G1 X110.634 Y121.842 E17.10318
G1 X110.263 Y122.12 E17.11742
G1 X109.595 Y122.429 E17.14004
G1 X109.164 Y122.537 E17.1537
G1 X108.673 Y122.569 E17.16882
G0 F6000 X108.474 Y122.554
G1 F1500 E16.16882
G1 F600 Z0.35
G0 F6000 X118.674 Y122.569 Z0.35
G1 F600 Z0.15
G1 F1500 E17.16882
G1 F600 X118.2 Y122.533 E17.18343
G1 X117.746 Y122.413 E17.19786
G1 X117.142 Y122.136 E17.21828
G1 X116.627 Y121.73 E17.23843
G1 X116.326 Y121.379 E17.25264
G1 X116.067 Y120.964 E17.26767
G1 X115.886 Y120.52 E17.2824
G1 X115.78 Y120.064 E17.29679
G1 X115.743 Y119.6 E17.3111
G1 X115.779 Y119.176 E17.32417
G1 X115.973 Y118.486 E17.3462
G1 X116.195 Y118.054 E17.36112
G1 X116.431 Y117.733 E17.37337
G1 X116.769 Y117.389 E17.38819
G1 X117.148 Y117.113 E17.40259
G1 X117.792 Y116.814 E17.42441
G1 X118.251 Y116.707 E17.4389
G1 X118.692 Y116.675 E17.45249
G1 X119.336 Y116.746 E17.4724
G1 X120.034 Y116.998 E17.4952
G1 X120.423 Y117.237 E17.50923
G1 X120.751 Y117.509 E17.52232
G1 X121.057 Y117.863 E17.5367
G1 X121.321 Y118.284 E17.55197
G1 X121.562 Y118.948 E17.57368
G1 X121.63 Y119.368 E17.58676
G1 X121.63 Y119.878 E17.60243
G1 X121.57 Y120.272 E17.61468
G1 X121.408 Y120.773 E17.63086
G1 X121.212 Y121.157 E17.64411
G1 X120.934 Y121.542 E17.6587
G1 X120.634 Y121.842 E17.67174
G1 X120.263 Y122.12 E17.68598
G1 X119.595 Y122.429 E17.7086
G1 X119.164 Y122.537 E17.72225
G1 X118.674 Y122.569 E17.73734
G0 F6000 X118.475 Y122.554
G1 F1500 E16.73734
G1 F600 Z0.35
G0 F6000 X124.059 Y130.599 Z0.35
G1 F600 Z0.15
G1 F1500 E17.73734
G1 F600 X124.059 Y108.645 E18.41199
G1 X117.286 Y108.645 E18.62013
G1 X113.91 Y110.987 E18.7464
G1 X101.862 Y110.994 E19.11663
G1 X101.862 Y128.254 E19.64704
G1 X113.855 Y128.257 E20.01558
G1 X113.956 Y128.293 E20.01888
G1 X117.286 Y130.599 E20.14335
G1 X124.059 Y130.599 E20.35149
G0 F6000 X124.059 Y130.399
G1 F1500 E19.35149
G1 F600 Z0.35
G0 F6000 X108.706 Y123.637 Z0.35
;TYPE:SKIN
G1 F600 Z0.15
G1 F1500 E20.35149
G1 F900 X109.352 Y123.593 E20.37138
G1 X109.947 Y123.445 E20.39022
G1 X110.8 Y123.055 E20.41905
G1 X111.363 Y122.621 E20.44089
G1 X111.805 Y122.163 E20.46045
G1 X112.164 Y121.645 E20.47982
G1 X112.372 Y121.236 E20.49392
G1 X112.59 Y120.599 E20.51461
G1 X112.701 Y119.947 E20.53493
G1 X112.702 Y119.32 E20.5542
G1 X112.598 Y118.667 E20.57452
G1 X112.308 Y117.865 E20.60073
G1 X111.988 Y117.321 E20.62012
G1 X111.595 Y116.841 E20.63919
G1 X111.078 Y116.388 E20.66031
G1 X110.506 Y116.028 E20.68108
G1 X109.597 Y115.695 E20.71083
G1 X108.764 Y115.6 E20.73659
G1 X108.065 Y115.651 E20.75813
G1 X107.283 Y115.864 E20.78304
G1 X106.619 Y116.176 E20.80558
G1 X106.16 Y116.502 E20.82288
G1 X105.693 Y116.952 E20.84281
G1 X105.335 Y117.413 E20.86075
G1 X104.979 Y118.066 E20.88361
G1 X104.717 Y118.969 E20.9125
G1 X104.675 Y119.696 E20.93488
G1 X104.727 Y120.276 E20.95277
G1 X104.842 Y120.771 E20.96839
G1 X105.067 Y121.353 E20.98756
G1 X105.431 Y121.981 E21.00987
G1 X106.07 Y122.677 E21.0389
G1 X106.576 Y123.048 E21.05819
G1 X107.397 Y123.432 E21.08604
G1 X108.141 Y123.603 E21.1095
G1 X108.706 Y123.637 E21.12689
G1 F1500 E20.12689
G1 F600 Z0.35
G0 F6000 X122.834 Y119.155 Z0.35
G1 F600 Z0.15
G1 F1500 E21.12689
G1 F703 X122.565 Y118.567 E21.15233
G1 F900 X122.309 Y117.854 E21.17561
G1 X121.894 Y117.196 E21.19952
G1 X121.569 Y116.818 E21.21484
G1 X121.079 Y116.393 E21.23477
G1 X120.486 Y116.017 E21.25635
G1 X119.577 Y115.697 E21.28596
G1 X118.748 Y115.6 E21.31161
G1 X118.167 Y115.639 E21.3295
G1 X117.423 Y115.794 E21.35286
G1 X116.588 Y116.191 E21.38127
G1 X116.054 Y116.586 E21.40168
G1 X115.634 Y117.006 E21.41993
G1 X115.215 Y117.601 E21.4423
G1 X114.971 Y118.089 E21.45906
G1 X114.749 Y118.861 E21.48375
G1 X114.664 Y119.585 E21.50615
G1 X114.736 Y120.317 E21.52875
G1 X114.891 Y120.922 E21.54795
G1 X115.113 Y121.459 E21.5658
G1 X115.485 Y122.042 E21.58705
G1 X115.907 Y122.525 E21.60676
G1 X116.564 Y123.048 E21.63257
G1 X117.336 Y123.399 E21.65863
G1 X117.92 Y123.567 E21.67731
G1 X118.629 Y123.64 E21.69921
G1 X119.352 Y123.593 E21.72147
G1 X119.995 Y123.429 E21.74186
G1 X120.663 Y123.12 E21.76448
G1 X121.232 Y122.733 E21.78563
G1 X121.754 Y122.237 E21.80776
G1 X122.146 Y121.675 E21.82881
G1 X122.442 Y121.057 E21.84987
G1 F771.4 X122.813 Y120.47 E21.87477
G1 X122.987 Y121.138 E21.89951
G1 F900 X122.987 Y129.527 E22.15731
G1 X117.622 Y129.527 E22.32218
G1 X114.492 Y127.366 E22.43906
G1 X114.184 Y127.235 E22.44935
G1 X113.903 Y127.183 E22.45813
G1 X102.934 Y127.183 E22.79521
G1 X102.933 Y112.065 E23.25979
G1 X113.908 Y112.06 E23.59705
G1 X114.266 Y111.987 E23.60828
G1 X114.479 Y111.887 E23.61551
G1 X117.622 Y109.713 E23.73295
G1 X122.987 Y109.713 E23.89782
G1 X122.987 Y118.527 E24.16867
G1 F703 X122.834 Y119.155 E24.1941
G1 F583.6 X122.844 Y119.828 E24.226
G1 F564.2 X122.805 Y120.482 E24.25811
G1 F1500 E23.25811
G1 F600 Z0.35
G0 F6000 X122.714 Y110.36 Z0.35
G1 F600 Z0.15
G1 F1500 E24.25811
