;FLAVOR:Marlin
;TIME:337
;Filament used: 0.105507m
;Layer height: 0.15
;MINX:97.139
;MINY:87.072
;MINZ:0.15
;MAXX:127.861
;MAXY:127.928
;MAXZ:1.25
;TARGET_MACHINE.NAME:ELEGOO NEPTUNE 3 Pro
;Generated with Cura_SteamEngine 5.8.1
M82 ;absolute extrusion mode
;;ELEGOO NEPTUNE 3 Pro
;M220 S100 ;Set the feed speed to 100%
;M221 S100 ;Set the flow rate to 100%
;G90 ;Absolute positioning
;G28 ;home
;;M420 S1 Z10;Uncomment to enable progressive compensation height of 10mm
;G92 E0 ;Reset Extruder
;G1 Z0.45 F300
;G1 X1.5 Y20 F5000.0 ;Move to start position
;G1 Y120.0 F600.0 E15 ;Draw the first line
;G1 X0.5 F1000.0 ;Move to side a little
;G1 Y20 F600 E30 ;Draw the second line
;G92 E0 ;Reset Extruder
;
;Use Klipper START_PRINT gcode macro
START_PRINT BED_TEMP=70 EXTRUDER_TEMP=210
G92 E0
G92 E0
G1 F1500 E-1
;LAYER_COUNT:7
;LAYER:0
M107
M204 S500
G1 F600 Z0.35
G0 F6000 X97.832 Y98.253 Z0.35
;TYPE:SKIRT
G1 F600 Z0.15
G1 F1500 E0
G1 F900 X98.377 Y97.721 E0.0234
G1 X98.783 Y97.447 E0.03846
G1 X99.472 Y97.17 E0.06128
G1 X100.235 Y97.072 E0.08492
G1 X104.839 Y97.077 E0.2264
G1 X105.524 Y97.17 E0.24764
G1 X106.176 Y97.432 E0.26923
G1 X106.652 Y97.741 E0.28667
G1 X107.197 Y98.236 E0.3093
G1 X107.486 Y98.783 E0.32831
G1 X107.832 Y98.253 E0.34776
G1 X108.377 Y97.721 E0.37116
G1 X108.702 Y97.492 E0.38338
G1 X108.348 Y97.259 E0.39641
G1 X107.802 Y96.763 E0.41907
G1 X107.35 Y95.896 E0.44912
G1 X107.205 Y95.434 E0.464
G1 X107.139 Y94.693 E0.48686
G1 X107.263 Y93.933 E0.51053
G1 X107.694 Y92.5 E0.55651
G1 X107.232 Y90.965 E0.60577
G1 X107.142 Y90.029 E0.63467
G1 X107.319 Y89.174 E0.6615
G1 X107.435 Y88.861 E0.67176
G1 X107.832 Y88.253 E0.69407
G1 X108.377 Y87.721 E0.71748
G1 X108.783 Y87.447 E0.73253
G1 X109.472 Y87.17 E0.75535
G1 X110.235 Y87.072 E0.77899
G1 X114.765 Y87.072 E0.9182
G1 X115.522 Y87.169 E0.94165
G1 X116.176 Y87.432 E0.96331
G1 X116.652 Y87.741 E0.98075
G1 X117.198 Y88.237 E1.00342
G1 X117.65 Y89.104 E1.03346
G1 X117.795 Y89.566 E1.04834
G1 X117.861 Y90.307 E1.07121
G1 X117.737 Y91.067 E1.09487
G1 X117.306 Y92.5 E1.14085
G1 X117.767 Y94.03 E1.18996
G1 X117.857 Y94.972 E1.21904
G1 X117.691 Y95.778 E1.24433
G1 X117.456 Y96.374 E1.26401
G1 X116.9 Y97.069 E1.29137
G1 X116.299 Y97.509 E1.31425
G1 X116.652 Y97.741 E1.32724
G1 X117.197 Y98.236 E1.34986
G1 X117.486 Y98.783 E1.36887
G1 X117.832 Y98.253 E1.38832
G1 X118.377 Y97.721 E1.41173
G1 X118.783 Y97.447 E1.42678
G1 X119.472 Y97.17 E1.4496
G1 X120.235 Y97.072 E1.47324
G1 X124.839 Y97.077 E1.61472
G1 X125.524 Y97.17 E1.63596
G1 X126.176 Y97.432 E1.65756
G1 X126.652 Y97.741 E1.675
G1 X127.198 Y98.237 E1.69766
G1 X127.65 Y99.104 E1.72771
G1 X127.795 Y99.566 E1.74259
G1 X127.861 Y100.307 E1.76545
G1 X127.737 Y101.067 E1.78912
G1 X127.306 Y102.5 E1.8351
G1 X127.768 Y104.035 E1.88436
G1 X127.858 Y104.971 E1.91326
G1 X127.681 Y105.826 E1.94009
G1 X127.565 Y106.139 E1.95035
G1 X127.168 Y106.747 E1.97266
G1 X126.623 Y107.279 E1.99607
G1 X126.298 Y107.508 E2.00828
G1 X126.652 Y107.741 E2.02131
G1 X127.198 Y108.237 E2.04398
G1 X127.65 Y109.104 E2.07402
G1 X127.795 Y109.566 E2.0889
G1 X127.861 Y110.307 E2.11176
G1 X127.737 Y111.067 E2.13543
G1 X127.306 Y112.5 E2.18141
G1 X127.767 Y114.03 E2.23052
G1 X127.857 Y114.972 E2.2596
G1 X127.691 Y115.778 E2.28488
G1 X127.456 Y116.374 E2.30457
G1 X126.9 Y117.068 E2.3319
G1 X126.253 Y117.544 E2.35658
G1 X125.529 Y117.82 E2.38039
G1 X124.765 Y117.928 E2.4041
G1 X120.161 Y117.923 E2.54559
G1 X119.476 Y117.83 E2.56683
G1 X118.824 Y117.568 E2.58842
G1 X118.348 Y117.259 E2.60586
G1 X117.803 Y116.764 E2.62849
G1 X117.516 Y116.221 E2.64736
G1 X117.403 Y116.439 E2.65491
G1 X116.94 Y117.018 E2.67769
G1 X116.722 Y117.22 E2.68682
G1 X116.273 Y117.493 E2.70297
G1 X116.652 Y117.741 E2.71689
G1 X117.198 Y118.237 E2.73956
G1 X117.65 Y119.104 E2.7696
G1 X117.795 Y119.566 E2.78448
G1 X117.861 Y120.307 E2.80734
G1 X117.737 Y121.067 E2.83101
G1 X117.306 Y122.5 E2.87699
G1 X117.767 Y124.03 E2.9261
G1 X117.857 Y124.972 E2.95518
G1 X117.69 Y125.781 E2.98056
G1 X117.456 Y126.373 E3.00012
G1 X116.94 Y127.018 E3.02551
G1 X116.693 Y127.247 E3.03586
G1 X116.05 Y127.623 E3.05875
G1 X115.483 Y127.827 E3.07727
G1 X114.765 Y127.928 E3.09955
G1 X110.161 Y127.923 E3.24103
G1 X109.476 Y127.83 E3.26227
G1 X108.824 Y127.568 E3.28387
G1 X108.348 Y127.259 E3.30131
G1 X107.802 Y126.763 E3.32397
G1 X107.35 Y125.896 E3.35402
G1 X107.205 Y125.434 E3.3689
G1 X107.139 Y124.693 E3.39176
G1 X107.263 Y123.933 E3.41543
G1 X107.694 Y122.5 E3.46141
G1 X107.232 Y120.965 E3.51067
G1 X107.142 Y120.029 E3.53957
G1 X107.319 Y119.174 E3.5664
G1 X107.435 Y118.861 E3.57666
G1 X107.832 Y118.253 E3.59897
G1 X108.377 Y117.721 E3.62238
G1 X108.702 Y117.492 E3.63459
G1 X108.348 Y117.259 E3.64762
G1 X107.804 Y116.764 E3.67022
G1 X107.516 Y116.222 E3.68908
G1 X107.404 Y116.439 E3.69658
G1 X106.9 Y117.068 E3.72135
G1 X106.253 Y117.544 E3.74604
G1 X105.529 Y117.82 E3.76985
G1 X104.765 Y117.928 E3.79356
G1 X100.161 Y117.923 E3.93504
G1 X99.476 Y117.83 E3.95628
G1 X98.824 Y117.568 E3.97788
G1 X98.348 Y117.259 E3.99532
G1 X97.802 Y116.763 E4.01798
G1 X97.35 Y115.896 E4.04803
G1 X97.205 Y115.434 E4.06291
G1 X97.139 Y114.693 E4.08577
G1 X97.263 Y113.933 E4.10944
G1 X97.694 Y112.5 E4.15542
G1 X97.232 Y110.965 E4.20468
G1 X97.142 Y110.029 E4.23358
G1 X97.319 Y109.174 E4.26041
G1 X97.435 Y108.861 E4.27067
G1 X97.832 Y108.253 E4.29298
G1 X98.377 Y107.721 E4.31639
G1 X98.702 Y107.492 E4.3286
G1 X98.348 Y107.259 E4.34163
G1 X97.802 Y106.763 E4.36429
G1 X97.35 Y105.896 E4.39434
G1 X97.205 Y105.434 E4.40922
G1 X97.139 Y104.693 E4.43208
G1 X97.263 Y103.933 E4.45575
G1 X97.694 Y102.5 E4.50173
G1 X97.232 Y100.965 E4.55099
G1 X97.142 Y100.029 E4.57989
G1 X97.319 Y99.174 E4.60672
G1 X97.435 Y98.861 E4.61698
G1 X97.832 Y98.253 E4.63929
G1 F1500 E3.63929
G1 F600 Z0.35
G0 F6000 X107.749 Y95.385 Z0.35
G1 F600 Z0.15
G1 F1500 E4.63929
G1 F900 X107.689 Y94.714 E4.65999
G1 X107.786 Y94.09 E4.6794
G1 X108.264 Y92.5 E4.73042
G1 X107.771 Y90.861 E4.78302
G1 X107.694 Y90.059 E4.80778
G1 X107.854 Y89.285 E4.83206
G1 X107.925 Y89.109 E4.8379
G1 X108.255 Y88.603 E4.85646
G1 X108.698 Y88.163 E4.87565
G1 X108.986 Y87.954 E4.88658
G1 X109.611 Y87.703 E4.90728
G1 X110.235 Y87.618 E4.92663
G1 X114.765 Y87.618 E5.06584
G1 X115.383 Y87.702 E5.08501
G1 X115.926 Y87.92 E5.10299
G1 X116.285 Y88.145 E5.11601
G1 X116.759 Y88.576 E5.13569
G1 X117.135 Y89.285 E5.16036
G1 X117.251 Y89.615 E5.17111
G1 X117.311 Y90.286 E5.19181
G1 X117.214 Y90.91 E5.21121
G1 X116.736 Y92.5 E5.26224
G1 X117.229 Y94.139 E5.31483
G1 X117.306 Y94.94 E5.33956
G1 X117.165 Y95.623 E5.36099
G1 X116.978 Y96.098 E5.37668
G1 X116.521 Y96.669 E5.39915
G1 X115.987 Y97.062 E5.41953
G1 X115.394 Y97.288 E5.43903
G1 X114.765 Y97.382 E5.45857
G1 X110.235 Y97.382 E5.59778
G1 X109.617 Y97.298 E5.61695
G1 X109.074 Y97.08 E5.63493
G1 X108.715 Y96.855 E5.64795
G1 X108.241 Y96.424 E5.66764
G1 X107.865 Y95.715 E5.6923
G1 X107.749 Y95.385 E5.70305
G1 F1500 E4.70305
G1 F600 Z0.35
G0 F6000 X110.235 Y117.618 Z0.35
G1 F600 Z0.15
G1 F1500 E5.70305
G1 F900 X114.765 Y117.618 E5.84225
G1 X115.383 Y117.702 E5.86142
G1 X115.926 Y117.92 E5.8794
G1 X116.285 Y118.145 E5.89242
G1 X116.759 Y118.576 E5.91211
G1 X117.135 Y119.285 E5.93677
G1 X117.251 Y119.615 E5.94752
G1 X117.311 Y120.286 E5.96822
G1 X117.214 Y120.91 E5.98763
G1 X116.736 Y122.5 E6.03865
G1 X117.229 Y124.139 E6.09124
G1 X117.306 Y124.94 E6.11597
G1 X117.165 Y125.623 E6.1374
G1 X116.977 Y126.098 E6.1531
G1 X116.514 Y126.677 E6.17588
G1 X116.364 Y126.807 E6.18198
G1 X115.774 Y127.152 E6.20299
G1 X115.402 Y127.287 E6.21515
G1 X114.765 Y127.382 E6.23494
G1 X110.235 Y127.382 E6.37415
G1 X109.617 Y127.298 E6.39331
G1 X109.074 Y127.08 E6.4113
G1 X108.715 Y126.855 E6.42431
G1 X108.241 Y126.424 E6.444
G1 X107.865 Y125.715 E6.46866
G1 X107.749 Y125.385 E6.47941
G1 X107.689 Y124.714 E6.50012
G1 X107.786 Y124.09 E6.51952
G1 X108.264 Y122.5 E6.57054
G1 X107.771 Y120.861 E6.62314
G1 X107.694 Y120.059 E6.6479
G1 X107.854 Y119.285 E6.67219
G1 X107.925 Y119.109 E6.67802
G1 X108.255 Y118.603 E6.69658
G1 X108.698 Y118.163 E6.71577
G1 X108.986 Y117.954 E6.7267
G1 X109.611 Y117.703 E6.7474
G1 X110.235 Y117.618 E6.76675
G1 F1500 E5.76675
G1 F600 Z0.35
G0 F6000 X107.5 Y113.144 Z0.35
G1 F600 Z0.15
G1 F1500 E6.76675
G1 F900 X107.694 Y112.5 E6.78742
G1 X107.5 Y111.856 E6.80809
G1 X107.306 Y112.5 E6.82876
G1 X107.5 Y113.144 E6.84943
G1 F1500 E5.84943
G1 F600 Z0.35
G0 F6000 X107.832 Y108.253 Z0.35
G1 F600 Z0.15
G1 F1500 E6.84943
G1 F900 X108.377 Y107.721 E6.87283
G1 X108.702 Y107.492 E6.88505
G1 X108.348 Y107.259 E6.89807
G1 X107.803 Y106.764 E6.9207
G1 X107.514 Y106.217 E6.93971
G1 X107.168 Y106.747 E6.95916
G1 X106.623 Y107.279 E6.98257
G1 X106.298 Y107.508 E6.99478
G1 X106.652 Y107.741 E7.00781
G1 X107.197 Y108.236 E7.03043
G1 X107.486 Y108.783 E7.04944
G1 X107.832 Y108.253 E7.06889
G1 F1500 E6.06889
G1 F600 Z0.35
G0 F6000 X106.759 Y108.576 Z0.35
G1 F600 Z0.15
G1 F1500 E7.06889
G1 F900 X107.135 Y109.285 E7.09355
G1 X107.251 Y109.615 E7.1043
G1 X107.311 Y110.286 E7.12501
G1 X107.214 Y110.91 E7.14441
G1 X106.736 Y112.5 E7.19543
G1 X107.229 Y114.139 E7.24803
G1 X107.306 Y114.94 E7.27276
G1 X107.165 Y115.623 E7.29419
G1 X106.978 Y116.098 E7.30988
G1 X106.521 Y116.669 E7.33235
G1 X105.987 Y117.062 E7.35273
G1 X105.394 Y117.288 E7.37223
G1 X104.765 Y117.382 E7.39177
G1 X100.235 Y117.382 E7.53098
G1 X99.617 Y117.298 E7.55015
G1 X99.074 Y117.08 E7.56813
G1 X98.715 Y116.855 E7.58115
G1 X98.241 Y116.424 E7.60083
G1 X97.865 Y115.715 E7.6255
G1 X97.749 Y115.385 E7.63624
G1 X97.689 Y114.714 E7.65695
G1 X97.786 Y114.09 E7.67635
G1 X98.264 Y112.5 E7.72737
G1 X97.771 Y110.861 E7.77997
G1 X97.694 Y110.059 E7.80473
G1 X97.854 Y109.285 E7.82902
G1 X97.925 Y109.109 E7.83485
G1 X98.255 Y108.603 E7.85341
G1 X98.698 Y108.163 E7.8726
G1 X98.986 Y107.954 E7.88354
G1 X99.611 Y107.703 E7.90423
G1 X100.235 Y107.618 E7.92359
G1 X104.765 Y107.618 E8.06279
G1 X105.383 Y107.702 E8.08196
G1 X105.926 Y107.92 E8.09994
G1 X106.285 Y108.145 E8.11296
G1 X106.759 Y108.576 E8.13265
G1 F1500 E7.13265
G1 F600 Z0.35
G0 F6000 X107.5 Y103.144 Z0.35
G1 F600 Z0.15
G1 F1500 E8.13265
G1 F900 X107.694 Y102.5 E8.15332
G1 X107.5 Y101.856 E8.17398
G1 X107.306 Y102.5 E8.19465
G1 X107.5 Y103.144 E8.21532
G0 F6000 X106.736 Y102.5
G1 F900 X107.229 Y104.139 E8.26792
G1 X107.306 Y104.941 E8.29268
G1 X107.146 Y105.715 E8.31697
G1 X107.075 Y105.891 E8.3228
G1 X106.745 Y106.397 E8.34136
G1 X106.302 Y106.837 E8.36055
G1 X106.014 Y107.046 E8.37148
G1 X105.389 Y107.297 E8.39218
G1 X104.765 Y107.382 E8.41153
G1 X100.235 Y107.382 E8.55074
G1 X99.617 Y107.298 E8.56991
G1 X99.074 Y107.08 E8.58789
G1 X98.715 Y106.855 E8.60091
G1 X98.241 Y106.424 E8.6206
G1 X97.865 Y105.715 E8.64526
G1 X97.749 Y105.385 E8.65601
G1 X97.689 Y104.714 E8.67671
G1 X97.786 Y104.09 E8.69611
G1 X98.264 Y102.5 E8.74714
G1 X97.771 Y100.861 E8.79973
G1 X97.694 Y100.059 E8.82449
G1 X97.854 Y99.285 E8.84878
G1 X97.925 Y99.109 E8.85461
G1 X98.255 Y98.603 E8.87318
G1 X98.698 Y98.163 E8.89236
G1 X98.986 Y97.954 E8.9033
G1 X99.611 Y97.703 E8.92399
G1 X100.235 Y97.618 E8.94335
G1 X104.765 Y97.618 E9.08256
G1 X105.383 Y97.702 E9.10172
G1 X105.926 Y97.92 E9.1197
G1 X106.285 Y98.145 E9.13272
G1 X106.759 Y98.576 E9.15241
G1 X107.135 Y99.285 E9.17707
G1 X107.251 Y99.615 E9.18782
G1 X107.311 Y100.286 E9.20852
G1 X107.214 Y100.91 E9.22793
G1 X106.736 Y102.5 E9.27895
G1 F1500 E8.27895
G1 F600 Z0.35
G0 F6000 X116.273 Y107.493 Z0.35
G1 F600 Z0.15
G1 F1500 E9.27895
G1 F900 X116.652 Y107.741 E9.29287
G1 X117.197 Y108.236 E9.31549
G1 X117.486 Y108.783 E9.3345
G1 X117.832 Y108.253 E9.35396
G1 X118.377 Y107.721 E9.37736
G1 X118.702 Y107.492 E9.38958
G1 X118.348 Y107.259 E9.4026
G1 X117.803 Y106.764 E9.42523
G1 X117.516 Y106.221 E9.4441
G1 X117.403 Y106.439 E9.45164
G1 X116.94 Y107.018 E9.47443
G1 X116.722 Y107.22 E9.48356
G1 X116.273 Y107.493 E9.49971
G1 F1500 E8.49971
G1 F600 Z0.35
G0 F6000 X117.5 Y103.144 Z0.35
G1 F600 Z0.15
G1 F1500 E9.49971
G1 F900 X117.694 Y102.5 E9.52038
G1 X117.5 Y101.856 E9.54105
G1 X117.306 Y102.5 E9.56171
G1 X117.5 Y103.144 E9.58238
G0 F6000 X117.786 Y104.09
G1 F900 X118.264 Y102.5 E9.6334
G1 X117.771 Y100.861 E9.686
G1 X117.694 Y100.059 E9.71076
G1 X117.854 Y99.285 E9.73505
G1 X117.925 Y99.109 E9.74088
G1 X118.255 Y98.603 E9.75944
G1 X118.698 Y98.163 E9.77863
G1 X118.986 Y97.954 E9.78957
G1 X119.611 Y97.703 E9.81026
G1 X120.235 Y97.618 E9.82962
G1 X124.765 Y97.618 E9.96882
G1 X125.383 Y97.702 E9.98799
G1 X125.926 Y97.92 E10.00597
G1 X126.285 Y98.145 E10.01899
G1 X126.759 Y98.576 E10.03868
G1 X127.135 Y99.285 E10.06334
G1 X127.251 Y99.615 E10.07409
G1 X127.311 Y100.286 E10.09479
G1 X127.214 Y100.91 E10.1142
G1 X126.736 Y102.5 E10.16522
G1 X127.229 Y104.139 E10.21781
G1 X127.306 Y104.941 E10.24257
G1 X127.146 Y105.715 E10.26686
G1 X127.075 Y105.891 E10.27269
G1 X126.745 Y106.397 E10.29126
G1 X126.302 Y106.837 E10.31044
G1 X126.014 Y107.046 E10.32138
G1 X125.389 Y107.297 E10.34208
G1 X124.765 Y107.382 E10.36143
G1 X120.235 Y107.382 E10.50064
G1 X119.617 Y107.298 E10.5198
G1 X119.074 Y107.08 E10.53778
G1 X118.715 Y106.855 E10.5508
G1 X118.241 Y106.424 E10.57049
G1 X117.865 Y105.715 E10.59515
G1 X117.749 Y105.385 E10.6059
G1 X117.689 Y104.714 E10.6266
G1 X117.786 Y104.09 E10.64601
G0 F6000 X117.229 Y104.139
G1 F900 X117.306 Y104.94 E10.67074
G1 X117.165 Y105.623 E10.69217
G1 X116.977 Y106.098 E10.70787
G1 X116.514 Y106.677 E10.73065
G1 X116.364 Y106.807 E10.73675
G1 X115.774 Y107.152 E10.75775
G1 X115.402 Y107.287 E10.76991
G1 X114.765 Y107.382 E10.78971
G1 X110.235 Y107.382 E10.92891
G1 X109.617 Y107.298 E10.94808
G1 X109.074 Y107.08 E10.96606
G1 X108.715 Y106.855 E10.97908
G1 X108.241 Y106.424 E10.99877
G1 X107.865 Y105.715 E11.02343
G1 X107.749 Y105.385 E11.03418
G1 X107.689 Y104.714 E11.05488
G1 X107.786 Y104.09 E11.07429
G1 X108.264 Y102.5 E11.12531
G1 X107.771 Y100.861 E11.1779
G1 X107.694 Y100.059 E11.20266
G1 X107.854 Y99.285 E11.22695
G1 X107.925 Y99.109 E11.23278
G1 X108.255 Y98.603 E11.25135
G1 X108.698 Y98.163 E11.27054
G1 X108.986 Y97.954 E11.28147
G1 X109.611 Y97.703 E11.30217
G1 X110.235 Y97.618 E11.32152
G1 X114.765 Y97.618 E11.46073
G1 X115.383 Y97.702 E11.47989
G1 X115.926 Y97.92 E11.49787
G1 X116.285 Y98.145 E11.51089
G1 X116.759 Y98.576 E11.53058
G1 X117.135 Y99.285 E11.55524
G1 X117.251 Y99.615 E11.56599
G1 X117.311 Y100.286 E11.5867
G1 X117.214 Y100.91 E11.6061
G1 X116.736 Y102.5 E11.65712
G1 X117.229 Y104.139 E11.70972
G1 F1500 E10.70972
G1 F600 Z0.35
G0 F6000 X115.308 Y96.749 Z0.35
G1 F600 Z0.15
G1 F1500 E11.70972
G1 F900 X114.765 Y96.836 E11.72662
G1 X110.235 Y96.836 E11.86583
G1 X109.76 Y96.767 E11.88058
G1 X109.364 Y96.617 E11.89359
G1 X109.005 Y96.392 E11.90661
G1 X108.679 Y96.085 E11.92037
G1 X108.347 Y95.459 E11.94214
G1 X108.287 Y95.269 E11.94827
G1 X108.239 Y94.73 E11.9649
G1 X108.309 Y94.247 E11.97989
G1 X108.834 Y92.5 E12.03595
G1 X108.309 Y90.753 E12.09201
G1 X108.245 Y90.092 E12.11242
G1 X108.389 Y89.396 E12.13426
G1 X108.64 Y88.99 E12.14893
G1 X109.083 Y88.55 E12.16811
G1 X109.249 Y88.437 E12.17428
G1 X109.753 Y88.235 E12.19097
G1 X110.235 Y88.164 E12.20594
G1 X114.765 Y88.164 E12.34515
G1 X115.24 Y88.233 E12.3599
G1 X115.636 Y88.383 E12.37291
G1 X115.995 Y88.608 E12.38593
G1 X116.321 Y88.915 E12.39969
G1 X116.653 Y89.541 E12.42147
G1 X116.713 Y89.731 E12.42759
G1 X116.761 Y90.27 E12.44422
G1 X116.691 Y90.753 E12.45922
G1 X116.166 Y92.5 E12.51528
G1 X116.691 Y94.247 E12.57133
G1 X116.755 Y94.908 E12.59174
G1 X116.63 Y95.513 E12.61073
G1 X116.5 Y95.821 E12.621
G1 X116.141 Y96.27 E12.63866
G1 X115.72 Y96.58 E12.65473
G1 X115.308 Y96.749 E12.66842
G1 F1500 E11.66842
G1 F600 Z0.35
G0 F6000 X106.653 Y99.541 Z0.35
G1 F600 Z0.15
G1 F1500 E12.66842
G1 F900 X106.321 Y98.915 E12.69019
G1 X105.995 Y98.608 E12.70395
G1 X105.636 Y98.383 E12.71697
G1 X105.24 Y98.233 E12.72998
G1 X104.765 Y98.164 E12.74473
G1 X100.235 Y98.164 E12.88394
G1 X99.753 Y98.235 E12.89891
G1 X99.249 Y98.437 E12.9156
G1 X99.083 Y98.55 E12.92177
G1 X98.64 Y98.99 E12.94096
G1 X98.389 Y99.396 E12.95563
G1 X98.245 Y100.092 E12.97747
G1 X98.309 Y100.753 E12.99787
