;FLAVOR:Marlin
;TIME:6580
;Filament used: 2.32722m
;Layer height: 0.15
;MINX:62.662
;MINY:90.086
;MINZ:0.15
;MAXX:163.217
;MAXY:136.389
;MAXZ:25.85
;TARGET_MACHINE.NAME:ELEGOO NEPTUNE 3 Pro
;Generated with Cura_SteamEngine 5.8.1
M82 ;absolute extrusion mode
;;ELEGOO NEPTUNE 3 Pro
;M220 S100 ;Set the feed speed to 100%
;M221 S100 ;Set the flow rate to 100%
;G90 ;Absolute positioning
;G28 ;home
;;M420 S1 Z10;Uncomment to enable progressive compensation height of 10mm
;G92 E0 ;Reset Extruder
;G1 Z0.45 F300
;G1 X1.5 Y20 F5000.0 ;Move to start position
;G1 Y120.0 F600.0 E15 ;Draw the first line
;G1 X0.5 F1000.0 ;Move to side a little
;G1 Y20 F600 E30 ;Draw the second line
;G92 E0 ;Reset Extruder
;
;Use Klipper START_PRINT gcode macro
START_PRINT BED_TEMP=70 EXTRUDER_TEMP=210
G92 E0
G92 E0
G1 F1500 E-1
;LAYER_COUNT:171
;LAYER:0
M107
M204 S500
G1 F600 Z0.35
G0 F6000 X78.826 Y110.887 Z0.35
;TYPE:SKIRT
G1 F600 Z0.15
G1 F1500 E0
G1 F900 X80.072 Y109.996 E0.04707
G1 X81.343 Y109.137 E0.09421
G1 X82.638 Y108.31 E0.14143
G1 X83.955 Y107.519 E0.18864
G1 X85.29 Y106.767 E0.23573
G1 X86.645 Y106.052 E0.28281
G1 X88.022 Y105.369 E0.33004
G1 X89.416 Y104.727 E0.37721
G1 X90.824 Y104.124 E0.42428
G1 X92.247 Y103.559 E0.47133
G1 X93.692 Y103.026 E0.51866
G1 X95.146 Y102.539 E0.56578
G1 X96.612 Y102.091 E0.61288
G1 X98.093 Y101.681 E0.66011
G1 X99.58 Y101.313 E0.70718
G1 X101.079 Y100.983 E0.75435
G1 X102.585 Y100.694 E0.80147
G1 X104.1 Y100.446 E0.84865
G1 X105.606 Y100.242 E0.89535
G1 X106.364 Y100.153 E0.9188
G1 X107.439 Y100.051 E0.95199
G1 X107.28 Y99.874 E0.9593
G1 X106.892 Y99.263 E0.98154
G1 X106.219 Y96.966 E1.0551
G1 X106.162 Y96.3 E1.07564
G1 X106.208 Y95.977 E1.08566
G1 X106.86 Y93.744 E1.15715
G1 X107.212 Y93.086 E1.18008
G1 X109.079 Y91.116 E1.26349
G1 X109.755 Y90.779 E1.2867
G1 X112.03 Y90.141 E1.35931
G1 X112.703 Y90.086 E1.38006
G1 X112.895 Y90.104 E1.38598
G1 X115.299 Y90.779 E1.46272
G1 X115.975 Y91.116 E1.48593
G1 X117.779 Y93.02 E1.56653
G1 X118.167 Y93.653 E1.58935
G1 X118.842 Y95.978 E1.66374
G1 X118.888 Y96.293 E1.67353
G1 X118.838 Y96.943 E1.69356
G1 X118.199 Y99.228 E1.76647
G1 X117.853 Y99.866 E1.78878
G1 X117.687 Y100.064 E1.79672
G1 X118.65 Y100.156 E1.82644
G1 X120.175 Y100.343 E1.87366
G1 X121.691 Y100.57 E1.92076
G1 X123.2 Y100.839 E1.96787
G1 X124.708 Y101.149 E2.01518
G1 X126.2 Y101.5 E2.06228
G1 X127.681 Y101.891 E2.10935
G1 X129.156 Y102.32 E2.15655
G1 X130.614 Y102.79 E2.20363
G1 X132.061 Y103.299 E2.25077
G1 X133.498 Y103.846 E2.29802
G1 X134.889 Y104.421 E2.34427
G1 X136.314 Y105.059 E2.39225
G1 X137.699 Y105.722 E2.43944
G1 X139.064 Y106.421 E2.48656
G1 X140.412 Y107.158 E2.53378
G1 X141.735 Y107.931 E2.58086
G1 X143.041 Y108.738 E2.62804
G1 X144.322 Y109.58 E2.67515
G1 X145.581 Y110.459 E2.72233
G1 X146.813 Y111.368 E2.76938
G1 X148.027 Y112.313 E2.81666
G1 X149.208 Y113.289 E2.86374
G1 X150.363 Y114.296 E2.91083
G1 X151.483 Y115.324 E2.95755
G1 X152.064 Y115.88 E2.98226
G1 X153.15 Y116.964 E3.02941
G1 X154.193 Y118.065 E3.07602
G1 X154.709 Y118.63 E3.09953
G1 X155.709 Y119.774 E3.14623
G1 X156.224 Y120.387 E3.17083
G1 X157.185 Y121.58 E3.2179
G1 X158.084 Y122.759 E3.26347
G1 X158.378 Y123.359 E3.284
G1 X158.492 Y124.09 E3.30673
G1 X160.199 Y124.568 E3.36121
G1 X160.813 Y125.008 E3.38442
G1 X162.207 Y126.476 E3.44663
G1 X162.597 Y127.112 E3.46956
G1 X163.171 Y129.093 E3.53294
G1 X163.217 Y129.408 E3.54272
G1 X163.167 Y130.058 E3.56276
G1 X162.627 Y131.989 E3.62437
G1 X162.242 Y132.696 E3.64911
G1 X160.777 Y134.161 E3.71278
G1 X160.181 Y134.572 E3.73503
G1 X158.06 Y135.165 E3.8027
G1 X157.41 Y135.215 E3.82274
G1 X157.092 Y135.169 E3.83261
G1 X155.195 Y134.617 E3.89333
G1 X154.511 Y134.241 E3.91731
G1 X153.529 Y133.259 E3.95999
G1 X151.723 Y135.065 E4.03847
G1 X151.043 Y135.493 E4.06317
G1 X148.395 Y136.234 E4.14767
G1 X147.742 Y136.284 E4.16779
G1 X147.425 Y136.238 E4.17763
G1 X144.936 Y135.512 E4.25731
G1 X144.246 Y135.132 E4.28152
G1 X142.233 Y133.119 E4.369
G1 X141.812 Y132.455 E4.39316
G1 X141.065 Y129.903 E4.47487
G1 X141.008 Y129.241 E4.49529
G1 X141.054 Y128.918 E4.50532
G1 X141.78 Y126.429 E4.58499
G1 X142.128 Y125.775 E4.60776
G1 X144.19 Y123.6 E4.69986
G1 X144.867 Y123.263 E4.7231
G1 X147.406 Y122.551 E4.80413
G1 X148.079 Y122.496 E4.82488
G1 X148.271 Y122.514 E4.83081
G1 X150.254 Y123.071 E4.89411
G1 X149.483 Y122.219 E4.92942
G1 X148.515 Y121.205 E4.9725
G1 X147.549 Y120.248 E5.01428
G1 X146.524 Y119.288 E5.05744
G1 X145.49 Y118.37 E5.09993
G1 X144.432 Y117.482 E5.14238
G1 X143.359 Y116.63 E5.18448
G1 X142.266 Y115.81 E5.22647
G1 X141.1 Y114.984 E5.27038
G1 X139.983 Y114.237 E5.31167
G1 X138.818 Y113.503 E5.35399
G1 X137.602 Y112.783 E5.39742
G1 X136.389 Y112.109 E5.44006
G1 X135.16 Y111.47 E5.48263
G1 X133.934 Y110.877 E5.52448
G1 X132.659 Y110.301 E5.56747
G1 X131.353 Y109.755 E5.61097
G1 X130.078 Y109.26 E5.653
G1 X128.829 Y108.814 E5.69376
G1 X127.49 Y108.378 E5.73703
G1 X126.149 Y107.981 E5.78001
G1 X124.809 Y107.625 E5.82261
G1 X123.428 Y107.297 E5.86623
G1 X122.129 Y107.026 E5.90701
G1 X120.791 Y106.786 E5.94878
G1 X119.389 Y106.574 E5.99236
G1 X117.994 Y106.401 E6.03556
G1 X116.674 Y106.274 E6.07631
G1 X115.293 Y106.179 E6.11885
G1 X113.858 Y106.12 E6.16298
G1 X112.5 Y106.101 E6.20472
G1 X111.142 Y106.12 E6.24645
G1 X109.706 Y106.179 E6.29062
G1 X108.326 Y106.273 E6.33312
G1 X107.005 Y106.401 E6.37391
G1 X105.611 Y106.574 E6.41707
G1 X104.21 Y106.786 E6.46062
G1 X102.885 Y107.023 E6.50198
G1 X101.557 Y107.3 E6.54367
G1 X100.194 Y107.625 E6.58673
G1 X98.825 Y107.99 E6.63027
G1 X97.496 Y108.383 E6.67286
G1 X96.172 Y108.813 E6.71564
G1 X94.919 Y109.26 E6.75652
G1 X93.619 Y109.763 E6.79935
G1 X92.341 Y110.298 E6.84193
G1 X91.093 Y110.863 E6.88403
G1 X89.84 Y111.47 E6.92681
G1 X88.573 Y112.129 E6.9707
G1 X87.411 Y112.775 E7.01155
G1 X86.183 Y113.503 E7.05542
G1 X85.004 Y114.245 E7.09823
G1 X83.861 Y115.008 E7.14046
G1 X82.762 Y115.789 E7.1819
G1 X81.62 Y116.646 E7.22577
G1 X80.546 Y117.499 E7.26792
G1 X79.512 Y118.368 E7.30943
G1 X78.446 Y119.315 E7.35324
G1 X77.476 Y120.225 E7.39412
G1 X76.455 Y121.238 E7.43831
G1 X75.507 Y122.23 E7.48048
G1 X74.645 Y123.183 E7.51997
G1 X76.505 Y122.661 E7.57934
G1 X77.178 Y122.606 E7.60009
G1 X77.37 Y122.624 E7.60601
G1 X80.051 Y123.377 E7.69159
G1 X80.792 Y123.793 E7.7177
G1 X82.777 Y125.885 E7.80632
G1 X83.125 Y126.54 E7.82912
G1 X83.848 Y129.025 E7.90865
G1 X83.894 Y129.343 E7.91852
G1 X83.844 Y129.994 E7.93859
G1 X83.13 Y132.544 E8.01996
G1 X82.747 Y133.25 E8.04464
G1 X80.822 Y135.175 E8.1283
G1 X80.142 Y135.603 E8.15299
G1 X77.494 Y136.344 E8.23749
G1 X76.901 Y136.389 E8.25577
G1 X76.524 Y136.348 E8.26742
G1 X74.035 Y135.622 E8.3471
G1 X73.345 Y135.242 E8.3713
G1 X72.175 Y134.072 E8.42215
G1 X71.47 Y134.778 E8.45281
G1 X70.762 Y135.162 E8.47756
G1 X68.824 Y135.704 E8.5394
G1 X68.174 Y135.754 E8.55944
G1 X67.856 Y135.708 E8.56931
G1 X65.95 Y135.153 E8.63031
G1 X65.266 Y134.777 E8.6543
G1 X63.714 Y133.225 E8.72175
G1 X63.295 Y132.565 E8.74577
G1 X62.719 Y130.602 E8.80864
G1 X62.662 Y129.935 E8.82921
G1 X62.708 Y129.612 E8.83924
G1 X63.263 Y127.712 E8.90006
G1 X63.615 Y127.054 E8.923
G1 X65.232 Y125.348 E8.99523
G1 X65.908 Y125.011 E9.01844
G1 X66.721 Y124.783 E9.04439
G1 X66.545 Y124.319 E9.05964
G1 X66.52 Y123.806 E9.07542
G1 X66.621 Y123.325 E9.09053
G1 X66.865 Y122.824 E9.10765
G1 X67.847 Y121.538 E9.15737
G1 X68.81 Y120.344 E9.20451
G1 X69.805 Y119.177 E9.25164
G1 X70.831 Y118.037 E9.29877
G1 X71.89 Y116.923 E9.346
G1 X72.975 Y115.842 E9.39307
G1 X74.091 Y114.788 E9.44024
G1 X75.235 Y113.764 E9.48742
G1 X76.405 Y112.774 E9.53452
G1 X77.602 Y111.815 E9.58166
G1 X78.826 Y110.887 E9.62886
G1 F1500 E8.62886
G1 F600 Z0.35
G0 F6000 X72.077 Y124.99 Z0.35
G1 F600 Z0.15
G1 F1500 E9.62886
G1 F900 X71.546 Y124.913 E9.64535
G1 X71.326 Y125.293 E9.65884
G1 X71.585 Y125.509 E9.6692
G1 X72.077 Y124.99 E9.69118
G1 F1500 E8.69118
G1 F600 Z0.35
G0 F6000 X152.918 Y124.975 Z0.35
G1 F600 Z0.15
G1 F1500 E9.69118
G1 F900 X153.636 Y125.735 E9.72331
G1 X153.819 Y125.542 E9.73148
G1 X153.453 Y124.912 E9.75387
G1 X153.228 Y124.966 E9.76098
G1 X152.918 Y124.975 E9.77051
G0 F6000 X152.599 Y124.437
G1 F900 X152.403 Y124.393 E9.77669
G1 X152.041 Y124.216 E9.78907
G1 X151.742 Y123.962 E9.80113
G1 X150.806 Y122.867 E9.84539
G1 X149.878 Y121.842 E9.88788
G1 X148.91 Y120.828 E9.93096
G1 X147.922 Y119.849 E9.97371
G1 X146.897 Y118.889 E10.01686
G1 X145.853 Y117.962 E10.05977
G1 X144.772 Y117.054 E10.10315
G1 X143.699 Y116.202 E10.14525
G1 X142.582 Y115.364 E10.18817
G1 X141.416 Y114.538 E10.23208
G1 X140.287 Y113.783 E10.27381
G1 X139.096 Y113.033 E10.31707
G1 X137.88 Y112.313 E10.36049
G1 X136.654 Y111.632 E10.40359
G1 X135.412 Y110.986 E10.44661
G1 X134.159 Y110.379 E10.4894
G1 X132.884 Y109.803 E10.53239
G1 X131.564 Y109.251 E10.57636
G1 X130.276 Y108.751 E10.61882
G1 X128.998 Y108.295 E10.66051
G1 X127.645 Y107.854 E10.70424
G1 X126.304 Y107.457 E10.74722
G1 X124.949 Y107.097 E10.79031
G1 X123.554 Y106.766 E10.83436
G1 X122.237 Y106.491 E10.87571
G1 X120.872 Y106.246 E10.91833
G1 X119.46 Y106.033 E10.96221
G1 X118.061 Y105.859 E11.00553
G1 X116.711 Y105.729 E11.04721
G1 X115.315 Y105.633 E11.09021
G1 X113.88 Y105.574 E11.13434
G1 X112.5 Y105.555 E11.17676
G1 X111.12 Y105.574 E11.21917
G1 X109.684 Y105.633 E11.26333
G1 X108.289 Y105.728 E11.3063
G1 X106.938 Y105.859 E11.34801
G1 X105.54 Y106.033 E11.3913
G1 X104.129 Y106.246 E11.43516
G1 X102.778 Y106.488 E11.47733
G1 X101.431 Y106.769 E11.51962
G1 X100.053 Y107.097 E11.56315
G1 X98.684 Y107.462 E11.60669
G1 X97.341 Y107.859 E11.64972
G1 X96.003 Y108.294 E11.69296
G1 X94.722 Y108.751 E11.73475
G1 X93.408 Y109.259 E11.77805
G1 X92.13 Y109.795 E11.82063
G1 X90.855 Y110.372 E11.86364
G1 X89.588 Y110.986 E11.90691
G1 X88.321 Y111.645 E11.95079
G1 X87.133 Y112.305 E11.99256
G1 X85.905 Y113.033 E12.03642
G1 X84.713 Y113.783 E12.0797
G1 X83.558 Y114.554 E12.12238
G1 X82.434 Y115.352 E12.16474
G1 X81.292 Y116.209 E12.20861
G1 X80.206 Y117.072 E12.25124
G1 X79.149 Y117.96 E12.29367
G1 X78.083 Y118.907 E12.33748
G1 X77.091 Y119.837 E12.37927
G1 X76.07 Y120.85 E12.42347
G1 X75.112 Y121.853 E12.46609
G1 X74.187 Y122.875 E12.50845
G1 X73.257 Y123.961 E12.55239
G1 X72.959 Y124.215 E12.56442
G1 X72.591 Y124.395 E12.57701
G1 X71.978 Y124.45 E12.59592
G1 X71.778 Y124.418 E12.60215
G1 X71.315 Y124.222 E12.6176
G1 X70.72 Y125.251 E12.65412
G1 X70.511 Y125.51 E12.66435
G1 X71.101 Y125.791 E12.68443
G1 X71.585 Y126.302 E12.70606
G1 X73.619 Y124.156 E12.79692
G1 X74.161 Y123.886 E12.81553
G1 X76.605 Y123.2 E12.89354
G1 X77.222 Y123.15 E12.91256
G1 X79.843 Y123.886 E12.99622
G1 X80.452 Y124.228 E13.01769
G1 X82.329 Y126.207 E13.1015
G1 X82.617 Y126.748 E13.12034
G1 X83.324 Y129.178 E13.19811
G1 X83.345 Y129.36 E13.20374
G1 X83.304 Y129.896 E13.22026
G1 X82.62 Y132.339 E13.29822
G1 X82.305 Y132.92 E13.31853
G1 X80.48 Y134.745 E13.39784
G1 X79.919 Y135.098 E13.41821
G1 X77.396 Y135.804 E13.49872
G1 X76.859 Y135.845 E13.51527
G1 X76.677 Y135.824 E13.5209
G1 X74.244 Y135.114 E13.59879
G1 X73.677 Y134.802 E13.61867
G1 X72.175 Y133.3 E13.68395
G1 X71.14 Y134.336 E13.72895
G1 X70.557 Y134.652 E13.74933
G1 X68.726 Y135.164 E13.80775
G1 X68.191 Y135.205 E13.82424
G1 X68.009 Y135.184 E13.82987
G1 X66.163 Y134.646 E13.88896
G1 X65.596 Y134.335 E13.90883
G1 X64.144 Y132.883 E13.97194
G1 X63.797 Y132.337 E13.99182
G1 X63.258 Y130.5 E14.05065
G1 X63.211 Y129.951 E14.06758
G1 X63.232 Y129.765 E14.07333
G1 X63.771 Y127.919 E14.13243
G1 X64.061 Y127.377 E14.15132
G1 X65.562 Y125.794 E14.21836
G1 X66.104 Y125.524 E14.23696
G1 X67.601 Y125.103 E14.28475
G1 X67.345 Y124.834 E14.29616
G1 X67.089 Y124.274 E14.31509
G1 X67.058 Y123.899 E14.32665
G1 X67.118 Y123.552 E14.33747
G1 X67.299 Y123.155 E14.35088
G1 X68.272 Y121.881 E14.40014
G1 X69.225 Y120.698 E14.44682
G1 X70.211 Y119.542 E14.49351
G1 X71.227 Y118.413 E14.54019
G1 X72.275 Y117.31 E14.58694
G1 X73.35 Y116.239 E14.63358
G1 X74.455 Y115.195 E14.68029
G1 X75.588 Y114.181 E14.72702
G1 X76.747 Y113.2 E14.77368
G1 X77.932 Y112.25 E14.82035
G1 X79.144 Y111.331 E14.86709
G1 X80.378 Y110.448 E14.91372
G1 X81.637 Y109.597 E14.96042
G1 X82.919 Y108.778 E15.00717
G1 X84.223 Y107.995 E15.05391
G1 X85.545 Y107.25 E15.10054
G1 X86.888 Y106.541 E15.14721
G1 X88.251 Y105.865 E15.19396
G1 X89.631 Y105.229 E15.24066
G1 X91.026 Y104.631 E15.2873
G1 X92.436 Y104.071 E15.33392
G1 X93.866 Y103.544 E15.38076
G1 X95.306 Y103.061 E15.42743
G1 X96.758 Y102.617 E15.47409
G1 X98.224 Y102.211 E15.52084
G1 X99.697 Y101.846 E15.56747
G1 X101.182 Y101.519 E15.6142
G1 X102.673 Y101.233 E15.66085
G1 X104.173 Y100.987 E15.70756
G1 X105.669 Y100.784 E15.75396
G1 X106.416 Y100.697 E15.77707
G1 X107.907 Y100.555 E15.82309
G1 X108.66 Y100.499 E15.8463
G1 X107.741 Y99.581 E15.88621
G1 X107.394 Y99.035 E15.9061
G1 X106.758 Y96.864 E15.97561
G1 X106.711 Y96.316 E15.99252
G1 X106.732 Y96.13 E15.99827
G1 X107.368 Y93.951 E16.06802
G1 X107.658 Y93.409 E16.08691
G1 X109.409 Y91.562 E16.16512
G1 X109.951 Y91.292 E16.18373
G1 X112.13 Y90.68 E16.25328
G1 X112.747 Y90.63 E16.27231
G1 X115.103 Y91.292 E16.34751
G1 X115.645 Y91.562 E16.36612
G1 X117.343 Y93.353 E16.44196
G1 X117.664 Y93.878 E16.46087
G1 X118.318 Y96.13 E16.53293
G1 X118.339 Y96.311 E16.53853
G1 X118.298 Y96.845 E16.55499
G1 X117.689 Y99.023 E16.62449
G1 X117.373 Y99.606 E16.64487
G1 X116.466 Y100.513 E16.68428
G1 X117.072 Y100.554 E16.70295
G1 X118.584 Y100.698 E16.74962
G1 X120.094 Y100.883 E16.79637
G1 X121.595 Y101.108 E16.84301
G1 X123.09 Y101.374 E16.88968
G1 X124.583 Y101.68 E16.93651
G1 X126.061 Y102.028 E16.98317
G1 X127.528 Y102.415 E17.0298
G1 X128.989 Y102.84 E17.07655
G1 X130.433 Y103.305 E17.12317
G1 X131.867 Y103.809 E17.16988
G1 X133.289 Y104.351 E17.21665
G1 X134.68 Y104.926 E17.2629
G1 X136.078 Y105.551 E17.30996
G1 X137.45 Y106.208 E17.35671
G1 X138.802 Y106.9 E17.40338
G1 X140.137 Y107.629 E17.45012
G1 X141.448 Y108.395 E17.49678
G1 X142.741 Y109.194 E17.54349
G1 X144.01 Y110.028 E17.59016
G1 X145.257 Y110.898 E17.63688
G1 X146.478 Y111.799 E17.68351
G1 X147.679 Y112.734 E17.73028
G1 X148.849 Y113.701 E17.77693
G1 X149.994 Y114.698 E17.82359
G1 X151.106 Y115.719 E17.86998
G1 X151.678 Y116.266 E17.8943
G1 X152.754 Y117.34 E17.94102
G1 X153.79 Y118.433 E17.98729
G1 X154.298 Y118.989 E18.01044
G1 X155.291 Y120.125 E18.0568
G1 X155.799 Y120.729 E18.08106
G1 X156.751 Y121.911 E18.1277
G1 X157.65 Y123.09 E18.17326
G1 X157.839 Y123.443 E18.18556
G1 X157.934 Y124.051 E18.20447
G1 X157.851 Y124.478 E18.21784
G1 X159.959 Y125.068 E18.28511
G1 X160.453 Y125.422 E18.30379
G1 X161.771 Y126.81 E18.36261
G1 X162.094 Y127.337 E18.3816
G1 X162.647 Y129.245 E18.44265
G1 X162.668 Y129.426 E18.44825
G1 X162.627 Y129.96 E18.46471
G1 X162.118 Y131.781 E18.52281
G1 X161.799 Y132.367 E18.54331
G1 X160.425 Y133.741 E18.60303
G1 X159.948 Y134.07 E18.62083
G1 X157.962 Y134.625 E18.6842
G1 X157.427 Y134.666 E18.70069
G1 X157.245 Y134.645 E18.70632
G1 X155.408 Y134.11 E18.76512
G1 X154.841 Y133.799 E18.78499
G1 X153.444 Y132.402 E18.8457
G1 X153.206 Y132.81 E18.86022
G1 X151.381 Y134.635 E18.93953
G1 X150.82 Y134.988 E18.9599
G1 X148.297 Y135.694 E19.04041
G1 X147.76 Y135.735 E19.05696
G1 X147.578 Y135.714 E19.06259
G1 X145.145 Y135.004 E19.14047
G1 X144.578 Y134.692 E19.16036
G1 X142.661 Y132.775 E19.24367
G1 X142.314 Y132.228 E19.26358
G1 X141.604 Y129.803 E19.34123
G1 X141.557 Y129.257 E19.35807
G1 X141.578 Y129.071 E19.36382
G1 X142.288 Y126.638 E19.44171
G1 X142.576 Y126.097 E19.46054
G1 X144.52 Y124.046 E19.54738
G1 X145.062 Y123.776 E19.56599
G1 X147.506 Y123.09 E19.644
G1 X148.123 Y123.04 E19.66302
G1 X150.744 Y123.776 E19.74668
G1 X151.353 Y124.118 E19.76814
G1 X153.23 Y126.097 E19.85196
G1 X153.521 Y126.648 E19.87111
G1 X154.558 Y125.557 E19.91736
G1 X154.279 Y125.251 E19.93009
G1 X153.686 Y124.223 E19.96656
G1 X153.213 Y124.42 E19.9823
G1 X152.599 Y124.437 E20.00118
G1 F1500 E19.00118
G1 F600 Z0.35
G0 F6000 X152.709 Y123.353 Z0.35
G1 F600 Z0.15
G1 F1500 E20.00118
G1 F900 X152.572 Y123.252 E20.00641
G1 X151.636 Y122.157 E20.05068
G1 X150.678 Y121.099 E20.09454
