;FLAVOR:Marlin
;TIME:6957
;Filament used: 2.42168m
;Layer height: 0.15
;MINX:74.594
;MINY:75.4
;MINZ:0.15
;MAXX:150.405
;MAXY:149.62
;MAXZ:16.8
;TARGET_MACHINE.NAME:ELEGOO NEPTUNE 3 Pro
;Generated with Cura_SteamEngine 5.8.1
M82 ;absolute extrusion mode
;;ELEGOO NEPTUNE 3 Pro
;M220 S100 ;Set the feed speed to 100%
;M221 S100 ;Set the flow rate to 100%
;G90 ;Absolute positioning
;G28 ;home
;;M420 S1 Z10;Uncomment to enable progressive compensation height of 10mm
;G92 E0 ;Reset Extruder
;G1 Z0.45 F300
;G1 X1.5 Y20 F5000.0 ;Move to start position
;G1 Y120.0 F600.0 E15 ;Draw the first line
;G1 X0.5 F1000.0 ;Move to side a little
;G1 Y20 F600 E30 ;Draw the second line
;G92 E0 ;Reset Extruder
;
;Use Klipper START_PRINT gcode macro
START_PRINT BED_TEMP=70 EXTRUDER_TEMP=210
G92 E0
G92 E0
G1 F1500 E-1
;LAYER_COUNT:112
;LAYER:0
M107
M204 S500
G1 F600 Z0.35
G0 F6000 X92.377 Y76.441 Z0.35
;TYPE:SKIRT
G1 F600 Z0.15
G1 F1500 E0
G1 F900 X92.826 Y76.043 E0.01844
G1 X93.503 Y75.636 E0.04271
G1 X94.193 Y75.4 E0.06512
G1 X94.791 Y75.403 E0.0835
G1 X115.754 Y79.429 E0.73947
G1 X116.104 Y79.561 E0.75096
G1 X116.638 Y79.888 E0.77021
G1 X117.175 Y80.411 E0.79324
G1 X117.531 Y80.967 E0.81353
G1 X117.604 Y81.144 E0.81941
G1 X117.837 Y82.209 E0.85292
G1 X119.48 Y82.209 E0.9034
G1 X120.311 Y82.375 E0.92945
G1 X120.986 Y82.706 E0.95255
G1 X121.466 Y83.151 E0.97266
G1 X143.471 Y83.987 E1.64937
G1 X144.037 Y84.094 E1.66707
G1 X144.653 Y84.461 E1.6891
G1 X144.918 Y84.706 E1.7002
G1 X145.268 Y85.292 E1.72117
G1 X145.405 Y85.942 E1.74158
G1 X145.405 Y87.956 E1.80347
G1 X147.452 Y87.956 E1.86638
G1 X148.202 Y88.121 E1.88998
G1 X148.754 Y88.483 E1.91026
G1 X149.86 Y89.589 E1.95833
G1 X150.272 Y90.236 E1.9819
G1 X150.405 Y90.88 E2.00211
G1 X150.405 Y95.025 E2.12948
G1 X150.24 Y95.775 E2.15308
G1 X149.878 Y96.327 E2.17337
G1 X148.772 Y97.433 E2.22143
G1 X148.125 Y97.845 E2.24501
G1 X147.481 Y97.978 E2.26521
G1 X145.405 Y97.978 E2.32901
G1 X145.405 Y99.937 E2.38921
G1 X145.336 Y100.412 E2.40396
G1 X145.186 Y100.808 E2.41697
G1 X144.961 Y101.167 E2.42999
G1 X144.742 Y101.412 E2.44009
G1 X144.168 Y101.783 E2.46109
G1 X143.525 Y101.946 E2.48148
G1 X121.508 Y102.782 E3.15855
G1 X120.86 Y103.309 E3.18422
G1 X120.404 Y103.514 E3.19958
G1 X119.685 Y103.721 E3.22258
G1 X117.417 Y103.723 E3.29227
G1 X117.308 Y104.187 E3.30692
G1 X116.911 Y104.897 E3.33192
G1 X111.646 Y110.967 E3.57884
G1 X111.909 Y111.182 E3.58928
G1 X112.769 Y112.086 E3.62762
G1 X113.159 Y112.722 E3.65055
G1 X113.585 Y114.194 E3.69764
G1 X113.631 Y114.509 E3.70742
G1 X113.581 Y115.159 E3.72746
G1 X113.19 Y116.558 E3.7721
G1 X112.806 Y117.266 E3.79685
G1 X111.722 Y118.35 E3.84396
G1 X111.126 Y118.761 E3.8662
G1 X109.534 Y119.206 E3.917
G1 X108.884 Y119.256 E3.93704
G1 X108.566 Y119.21 E3.94691
G1 X107.178 Y118.806 E3.99133
G1 X106.494 Y118.43 E4.01532
G1 X105.784 Y117.719 E4.0462
G1 X102.853 Y121.103 E4.18377
G1 X103.233 Y121.349 E4.19768
G1 X104.262 Y122.424 E4.24341
G1 X104.658 Y123.061 E4.26646
G1 X105.077 Y124.483 E4.31202
G1 X105.135 Y125.139 E4.33225
G1 X105.091 Y125.459 E4.34218
G1 X104.686 Y126.888 E4.38782
G1 X104.3 Y127.593 E4.41252
G1 X103.206 Y128.67 E4.4597
G1 X102.533 Y129.088 E4.48405
G1 X101.01 Y129.51 E4.53261
G1 X100.363 Y129.56 E4.55255
G1 X100.045 Y129.514 E4.56243
G1 X98.659 Y129.11 E4.60679
G1 X97.969 Y128.73 E4.631
G1 X97.041 Y127.8 E4.67137
G1 X96.051 Y128.941 E4.71779
G1 X96.517 Y129.425 E4.73844
G1 X96.804 Y129.984 E4.75775
G1 X97.155 Y131.161 E4.79549
G1 X97.169 Y131.992 E4.82103
G1 X96.812 Y133.234 E4.86075
G1 X96.423 Y133.939 E4.88549
G1 X95.521 Y134.828 E4.92441
G1 X94.847 Y135.247 E4.9488
G1 X93.827 Y135.528 E4.98131
G1 X94.007 Y135.702 E4.989
G1 X94.884 Y136.867 E5.03381
G1 X95.127 Y137.361 E5.05073
G1 X95.544 Y137.736 E5.06797
G1 X98.897 Y142.182 E5.23909
G1 X99.129 Y142.607 E5.25397
G1 X99.246 Y143.012 E5.26692
G1 X99.282 Y143.433 E5.27991
G1 X99.234 Y143.877 E5.29363
G1 X98.937 Y144.516 E5.31529
G1 X98.816 Y144.684 E5.32165
G1 X98.502 Y144.979 E5.33489
G1 X97.989 Y145.275 E5.35309
G1 X97.71 Y145.362 E5.36207
G1 X97.71 Y146.667 E5.40217
G1 X97.545 Y147.417 E5.42577
G1 X97.183 Y147.969 E5.44606
G1 X96.077 Y149.075 E5.49412
G1 X95.43 Y149.487 E5.51769
G1 X94.786 Y149.62 E5.5379
G1 X82.394 Y149.62 E5.91871
G1 X81.644 Y149.455 E5.94231
G1 X81.092 Y149.093 E5.96259
G1 X79.986 Y147.987 E6.01066
G1 X79.574 Y147.34 E6.03423
G1 X79.441 Y146.696 E6.05444
G1 X79.441 Y144.881 E6.11021
G1 X79.182 Y144.631 E6.12128
G1 X78.908 Y144.189 E6.13726
G1 X77.543 Y140.661 E6.25351
G1 X77.047 Y140.249 E6.27332
G1 X76.733 Y139.743 E6.29162
G1 X76.368 Y138.801 E6.32267
G1 X76.248 Y138.186 E6.34192
G1 X75.967 Y137.76 E6.3576
G1 X75.568 Y136.727 E6.39163
G1 X75.477 Y136.293 E6.40526
G1 X75.487 Y135.767 E6.42143
G1 X75.553 Y135.507 E6.42967
G1 X74.632 Y133.126 E6.50812
G1 X74.594 Y132.213 E6.5362
G1 X74.737 Y131.558 E6.55681
G1 X76.891 Y126.406 E6.72841
G1 X77.142 Y125.991 E6.74331
G1 X77.398 Y125.706 E6.75508
G1 X78.009 Y125.331 E6.77711
G1 X78.186 Y125.261 E6.78296
G1 X78.677 Y125.172 E6.7983
G1 X80.684 Y125.172 E6.85997
G1 X85.617 Y111.617 E7.30325
G1 X85.19 Y111.479 E7.31704
G1 X84.831 Y111.254 E7.33006
G1 X84.513 Y110.955 E7.34347
G1 X84.214 Y110.442 E7.36172
G1 X84.109 Y110.1 E7.37271
G1 X84.078 Y109.495 E7.39133
G1 X84.205 Y108.912 E7.40966
G1 X86.552 Y103.294 E7.59677
G1 X86.555 Y103.137 E7.60159
G1 X86.664 Y102.449 E7.623
G1 X87.221 Y101.115 E7.66742
G1 X87.468 Y100.703 E7.68218
G1 X87.755 Y100.416 E7.69466
G1 X88.154 Y99.462 E7.72643
G1 X88.541 Y98.896 E7.7475
G1 X88.795 Y98.666 E7.75803
G1 X89.469 Y98.218 E7.7829
G1 X90.293 Y97.967 E7.80937
G1 X96.75 Y97.966 E8.0078
G1 X96.75 Y96.478 E8.05353
G1 X96.581 Y96.463 E8.05874
G1 X95.95 Y96.311 E8.07869
G1 X95.401 Y95.951 E8.09886
G1 X94.795 Y95.345 E8.1252
G1 X94.383 Y94.698 E8.14877
G1 X94.25 Y94.054 E8.16898
G1 X94.25 Y91.909 E8.23489
G1 X94.415 Y91.159 E8.25849
G1 X94.777 Y90.607 E8.27878
G1 X95.383 Y90.001 E8.30511
G1 X95.946 Y89.643 E8.32561
G1 X96.549 Y89.47 E8.34489
G1 X96.75 Y89.456 E8.35108
G1 X96.75 Y87.305 E8.41718
G1 X92.271 Y87.305 E8.55483
G1 X91.796 Y87.236 E8.56958
G1 X91.217 Y87.006 E8.58872
G1 X90.689 Y86.536 E8.61044
G1 X90.107 Y85.748 E8.64055
G1 X89.849 Y85.153 E8.66048
G1 X89.797 Y84.542 E8.67932
G1 X89.871 Y84.054 E8.69449
G1 X92.02 Y77.083 E8.91866
G1 X92.377 Y76.441 E8.94123
G0 F6000 X92.808 Y76.789
G1 F900 X93.107 Y76.511 E8.95378
G1 X93.732 Y76.135 E8.97619
G1 X94.284 Y75.946 E8.99412
G1 X94.688 Y75.939 E9.00654
G1 X115.651 Y79.965 E9.66251
G1 X115.819 Y80.027 E9.66801
G1 X116.302 Y80.323 E9.68542
G1 X116.749 Y80.758 E9.70459
G1 X117.071 Y81.261 E9.72294
G1 X117.398 Y82.755 E9.76994
G1 X119.428 Y82.755 E9.83232
G1 X120.133 Y82.896 E9.85441
G1 X120.673 Y83.161 E9.8729
G1 X121.243 Y83.689 E9.89677
G1 X143.45 Y84.533 E10.57969
G1 X143.841 Y84.613 E10.59196
G1 X144.374 Y84.93 E10.61101
G1 X144.527 Y85.087 E10.61775
G1 X144.753 Y85.495 E10.63208
G1 X144.859 Y85.998 E10.64788
G1 X144.859 Y88.502 E10.72483
G1 X147.394 Y88.502 E10.80273
G1 X147.986 Y88.632 E10.82135
G1 X148.368 Y88.869 E10.83517
G1 X149.43 Y89.931 E10.88132
G1 X149.757 Y90.445 E10.90004
G1 X149.859 Y90.88 E10.91377
G1 X149.859 Y94.967 E11.03937
G1 X149.729 Y95.559 E11.05799
G1 X149.492 Y95.941 E11.07181
G1 X148.43 Y97.003 E11.11796
G1 X147.916 Y97.33 E11.13668
G1 X147.481 Y97.432 E11.15041
G1 X144.859 Y97.432 E11.23099
G1 X144.859 Y99.937 E11.30797
G1 X144.797 Y100.326 E11.32007
G1 X144.723 Y100.518 E11.32639
G1 X144.498 Y100.877 E11.33941
G1 X144.347 Y101.035 E11.34613
G1 X143.948 Y101.276 E11.36046
G1 X143.45 Y101.402 E11.37624
G1 X121.226 Y102.246 E12.05968
G1 X121.066 Y102.438 E12.06736
G1 X120.571 Y102.841 E12.08698
G1 X120.253 Y102.989 E12.09776
G1 X119.607 Y103.175 E12.11841
G1 X116.952 Y103.178 E12.2
G1 X116.832 Y103.92 E12.2231
G1 X116.462 Y104.581 E12.24638
G1 X110.757 Y111.159 E12.51396
G1 X111.239 Y111.34 E12.52978
G1 X111.513 Y111.558 E12.54054
G1 X112.333 Y112.42 E12.5771
G1 X112.656 Y112.947 E12.59609
G1 X113.061 Y114.346 E12.64085
G1 X113.082 Y114.527 E12.64645
G1 X113.041 Y115.061 E12.66291
G1 X112.68 Y116.353 E12.70413
G1 X112.364 Y116.936 E12.72451
G1 X111.37 Y117.93 E12.76771
G1 X110.893 Y118.259 E12.78551
G1 X109.436 Y118.666 E12.832
G1 X108.901 Y118.707 E12.84849
G1 X108.719 Y118.686 E12.85412
G1 X107.391 Y118.299 E12.89663
G1 X106.824 Y117.988 E12.9165
G1 X106.148 Y117.311 E12.9459
G1 X105.837 Y116.824 E12.96366
G1 X101.934 Y121.328 E13.1468
G1 X102.336 Y121.433 E13.15957
G1 X102.839 Y121.727 E13.17748
G1 X103.828 Y122.76 E13.22142
G1 X104.155 Y123.286 E13.24046
G1 X104.538 Y124.586 E13.2821
G1 X104.586 Y125.126 E13.29876
G1 X104.566 Y125.31 E13.30445
G1 X104.179 Y126.677 E13.34811
G1 X103.858 Y127.262 E13.36862
G1 X102.867 Y128.238 E13.41136
G1 X102.311 Y128.583 E13.43147
G1 X100.914 Y128.97 E13.47601
G1 X100.38 Y129.011 E13.49247
G1 X100.198 Y128.99 E13.4981
G1 X98.868 Y128.602 E13.54068
G1 X98.301 Y128.29 E13.56056
G1 X97.434 Y127.422 E13.59827
G1 X97.202 Y127.101 E13.61044
G1 X97.109 Y126.888 E13.61758
G1 X95.153 Y129.143 E13.70931
G1 X95.489 Y129.244 E13.72009
G1 X95.703 Y129.366 E13.72766
G1 X96.123 Y129.803 E13.74629
G1 X96.281 Y130.14 E13.75773
G1 X96.61 Y131.244 E13.79313
G1 X96.622 Y131.919 E13.81387
G1 X96.304 Y133.025 E13.84924
G1 X95.983 Y133.606 E13.86964
G1 X95.182 Y134.396 E13.90421
G1 X94.624 Y134.742 E13.92439
G1 X93.397 Y135.08 E13.9635
G1 X92.852 Y135.074 E13.98025
G1 X92.978 Y135.258 E13.9871
G1 X93.157 Y135.667 E14.00082
G1 X93.571 Y136.03 E14.01774
G1 X94.448 Y137.195 E14.06255
G1 X94.682 Y137.698 E14.0796
G1 X95.108 Y138.065 E14.09688
G1 X98.461 Y142.511 E14.268
G1 X98.646 Y142.862 E14.28019
G1 X98.702 Y143.059 E14.28649
G1 X98.738 Y143.48 E14.29947
G1 X98.702 Y143.727 E14.30714
G1 X98.442 Y144.286 E14.32609
G1 X98.128 Y144.581 E14.33933
G1 X97.731 Y144.794 E14.35317
G1 X97.473 Y144.859 E14.36135
G1 X97.164 Y144.859 E14.37084
G1 X97.164 Y146.609 E14.42462
G1 X97.034 Y147.201 E14.44325
G1 X96.797 Y147.583 E14.45706
G1 X95.735 Y148.645 E14.50322
G1 X95.221 Y148.972 E14.52194
G1 X94.786 Y149.074 E14.53567
G1 X82.452 Y149.074 E14.91469
G1 X81.86 Y148.944 E14.93332
G1 X81.478 Y148.707 E14.94713
G1 X80.416 Y147.645 E14.99329
G1 X80.089 Y147.131 E15.01201
G1 X79.987 Y146.696 E15.02574
G1 X79.987 Y144.63 E15.08923
G1 X79.639 Y144.332 E15.10331
G1 X79.417 Y143.992 E15.11578
G1 X77.979 Y140.274 E15.23829
G1 X77.82 Y140.194 E15.24376
G1 X77.464 Y139.886 E15.25822
G1 X77.242 Y139.546 E15.2707
G1 X76.877 Y138.604 E15.30175
G1 X76.794 Y138.213 E15.31403
G1 X76.801 Y137.976 E15.32132
G1 X76.675 Y137.85 E15.32679
G1 X76.454 Y137.507 E15.33933
G1 X76.077 Y136.53 E15.37151
G1 X76.014 Y136.193 E15.38205
G1 X76.032 Y135.791 E15.39441
G1 X76.135 Y135.499 E15.40393
G1 X75.174 Y133.015 E15.48577
G1 X75.143 Y132.258 E15.50906
G1 X75.259 Y131.727 E15.52576
G1 X77.395 Y126.617 E15.69596
G1 X77.605 Y126.28 E15.70816
G1 X77.75 Y126.131 E15.71455
G1 X78.295 Y125.796 E15.73421
G1 X78.677 Y125.718 E15.74619
G1 X81.066 Y125.718 E15.8196
G1 X86.367 Y111.152 E16.29594
G1 X85.963 Y111.143 E16.30836
G1 X85.48 Y111.016 E16.32371
G1 X85.121 Y110.791 E16.33672
G1 X84.945 Y110.612 E16.34444
G1 X84.727 Y110.254 E16.35732
G1 X84.653 Y110.052 E16.36393
G1 X84.613 Y109.602 E16.37781
G1 X84.709 Y109.122 E16.39286
G1 X87.108 Y103.38 E16.58409
G1 X87.094 Y103.223 E16.58893
G1 X87.193 Y102.6 E16.60832
G1 X87.725 Y101.325 E16.65077
G1 X87.932 Y100.99 E16.66288
G1 X88.212 Y100.74 E16.67441
G1 X88.637 Y99.723 E16.70828
G1 X88.956 Y99.256 E16.72566
G1 X89.097 Y99.121 E16.73166
G1 X89.706 Y98.716 E16.75414
G1 X90.373 Y98.513 E16.77556
G1 X97.296 Y98.512 E16.98831
G1 X97.296 Y95.932 E17.06759
G1 X96.709 Y95.932 E17.08563
G1 X96.169 Y95.802 E17.1027
G1 X95.787 Y95.565 E17.11651
G1 X95.225 Y95.003 E17.14094
G1 X94.898 Y94.489 E17.15966
G1 X94.796 Y94.054 E17.17339
G1 X94.796 Y91.967 E17.23752
G1 X94.926 Y91.375 E17.25615
G1 X95.163 Y90.993 E17.26996
G1 X95.725 Y90.431 E17.29439
G1 X96.239 Y90.104 E17.31311
G1 X96.674 Y90.002 E17.32684
G1 X97.296 Y90.002 E17.34595
G1 X97.296 Y86.759 E17.44561
G1 X92.271 Y86.759 E17.60003
G1 X91.882 Y86.697 E17.61213
G1 X91.508 Y86.534 E17.62467
G1 X91.093 Y86.164 E17.64176
G1 X90.584 Y85.475 E17.66808
G1 X90.385 Y85.016 E17.68345
G1 X90.338 Y84.616 E17.69583
G1 X90.393 Y84.215 E17.70827
G1 X92.526 Y77.296 E17.93076
G1 X92.808 Y76.789 E17.94859
G1 F1500 E16.94859
G1 F600 Z0.35
G0 F6000 X93.669 Y77.447 Z0.35
G1 F600 Z0.15
G1 F1500 E17.94859
G1 F900 X94.294 Y77.071 E17.97101
G1 X94.482 Y77.011 E17.97707
G1 X115.046 Y80.96 E18.62055
G1 X115.175 Y81.017 E18.62489
G1 X115.329 Y81.002 E18.62964
G1 X115.54 Y81.105 E18.63686
G1 X115.942 Y81.496 E18.65409
G1 X116.046 Y81.683 E18.66067
G1 X116.52 Y83.847 E18.72874
G1 X119.376 Y83.847 E18.81651
G1 X119.85 Y83.952 E18.83143
G1 X119.997 Y84.024 E18.83646
G1 X120.401 Y84.398 E18.85338
G1 X120.574 Y84.757 E18.86562
G1 X143.408 Y85.625 E19.56782
G1 X143.574 Y85.671 E19.57311
G1 X143.701 Y85.786 E19.57838
G1 X143.767 Y85.998 E19.5852
G1 X143.767 Y89.594 E19.69571
G1 X147.394 Y89.594 E19.80717
G1 X147.596 Y89.641 E19.81354
G1 X148.658 Y90.703 E19.85969
G1 X148.767 Y90.88 E19.86608
G1 X148.767 Y94.967 E19.99168
G1 X148.72 Y95.169 E19.99805
G1 X147.658 Y96.231 E20.0442
G1 X147.481 Y96.34 E20.05059
G1 X143.767 Y96.34 E20.16472
G1 X143.767 Y99.937 E20.27526
G1 X143.728 Y100.104 E20.28053
G1 X143.617 Y100.236 E20.28583
G1 X143.408 Y100.31 E20.29264
G1 X120.576 Y101.177 E20.99478
G1 X120.468 Y101.434 E21.00335
G1 X120.279 Y101.694 E21.01322
G1 X119.951 Y101.939 E21.02581
G1 X119.451 Y102.083 E21.04179
G1 X116.137 Y102.087 E21.14363
G1 X115.976 Y102.232 E21.15029
G1 X115.83 Y102.262 E21.15487
G1 X111.253 Y102.262 E21.29553
G1 X111.253 Y102.791 E21.31178
G1 X115.501 Y102.791 E21.44232
G1 X115.668 Y102.83 E21.44759
G1 X115.8 Y102.941 E21.45289
G1 X115.868 Y103.098 E21.45815
G1 X115.785 Y103.555 E21.47242
G1 X115.601 Y103.907 E21.48463
G1 X110.587 Y109.687 E21.71977
G1 X110.447 Y109.788 E21.72507
G1 X110.37 Y109.937 E21.73023
G1 X109.352 Y111.111 E21.77798
G1 X109.21 Y111.213 E21.78335
G1 X108.807 Y111.348 E21.79641
G1 X108.314 Y111.352 E21.81156
G1 X108.121 Y111.308 E21.81765
G1 X107.593 Y110.85 E21.83913
G1 X104.939 Y113.909 E21.96358
G1 X105.524 Y114.421 E21.98747
G1 X105.643 Y114.627 E21.99478
G1 X105.706 Y114.935 E22.00444
G1 X105.695 Y115.129 E22.01041
G1 X105.541 Y115.498 E22.0227
G1 X102.331 Y119.206 E22.17341
G1 X102.175 Y119.31 E22.17917
G1 X102.114 Y119.457 E22.18406
G1 X100.379 Y121.453 E22.26534
G1 X100.057 Y121.652 E22.27697
G1 X99.892 Y121.695 E22.28221
G1 X99.337 Y121.71 E22.29927
G1 X99.141 Y121.669 E22.30542
G1 X98.609 Y121.208 E22.32705
G1 X96.39 Y123.766 E22.43112
G1 X96.936 Y124.239 E22.45332
G1 X97.156 Y124.663 E22.468
G1 X97.184 Y124.832 E22.47326
G1 X96.991 Y125.356 E22.49042
G1 X95.376 Y127.225 E22.56633
G1 X95.236 Y127.325 E22.57161
G1 X95.158 Y127.476 E22.57684
G1 X93.699 Y129.153 E22.64514
G1 X93.299 Y129.372 E22.65916
G1 X92.651 Y129.409 E22.6791
G1 X92.46 Y129.365 E22.68513
G1 X91.931 Y128.907 E22.70663
G1 X90.145 Y130.966 E22.79039
G1 X90.73 Y131.478 E22.81428
G1 X90.85 Y131.685 E22.82163
G1 X90.912 Y131.993 E22.83129
G1 X90.9 Y132.185 E22.8372
G1 X90.748 Y132.554 E22.84946
G1 X90.277 Y133.103 E22.87169
G1 X90.265 Y133.457 E22.88258
G1 X92.053 Y135.83 E22.97388
G1 X92.122 Y135.988 E22.97918
G1 X92.113 Y136.159 E22.98444
G1 X92.029 Y136.308 E22.9897
G1 X91.85 Y136.428 E22.99632
G1 X90.641 Y136.428 E23.03347
G1 X90.641 Y136.537 E23.03682
G1 X92.401 Y136.537 E23.09091
G1 X92.568 Y136.576 E23.09618
G1 X92.699 Y136.686 E23.10144
G1 X93.576 Y137.851 E23.14625
G1 X93.645 Y138.008 E23.15152
G1 X93.636 Y138.179 E23.15678
G1 X93.552 Y138.328 E23.16203
G1 X93.373 Y138.448 E23.16866
G1 X91.429 Y138.448 E23.2284
G1 X91.429 Y138.575 E23.2323
G1 X93.938 Y138.575 E23.3094
G1 X94.105 Y138.614 E23.31467
G1 X94.236 Y138.723 E23.31991
G1 X97.589 Y143.169 E23.49103
G1 X97.658 Y143.326 E23.4963
G1 X97.649 Y143.498 E23.5016
G1 X97.565 Y143.647 E23.50685
G1 X97.387 Y143.767 E23.51345
G1 X96.072 Y143.767 E23.55386
G1 X96.072 Y146.609 E23.64119
G1 X96.025 Y146.811 E23.64757
